; generated by Slic3r 1.1.7 on 2015-04-16 at 21:53:08

; perimeters extrusion width = 0.35mm
; infill extrusion width = 0.44mm
; solid infill extrusion width = 0.44mm
; top infill extrusion width = 0.44mm

G21 ; set units to millimeters
M107
M190 S65 ; wait for bed temperature to be reached
M104 S185 ; set temperature
G28 ; home all axes
G1 Z5 F5000 ; lift nozzle

M109 S185 ; wait for temperature to be reached
G90 ; use absolute coordinates
G92 E0
M82 ; use absolute distances for extrusion
G1 F1800.000 E-1.00000
G92 E0
G1 Z0.350 F7800.000
G1 X80.012 Y80.012 F7800.000
G1 E1.00000 F1800.000
G1 X118.903 Y41.121 E6.76459 F1080.000
G1 X120.781 Y39.805 E7.00497
G1 X122.995 Y39.207 E7.24535
G1 X125.281 Y39.401 E7.48573
G1 X127.363 Y40.362 E7.72611 F1080.000
G1 X128.272 Y41.121 E7.85023
G1 X138.879 Y51.728 E9.42242
G1 X140.195 Y53.606 E9.66280
G1 X140.793 Y55.820 E9.90318
G1 X140.599 Y58.105 E10.14356
G1 X139.638 Y60.188 E10.38394
G1 X138.879 Y61.097 E10.50809
G1 X61.097 Y138.879 E22.03728
G1 X59.219 Y140.195 E22.27766
G1 X57.005 Y140.793 E22.51804
G1 X54.719 Y140.599 E22.75842
G1 X52.637 Y139.638 E22.99880
G1 X51.728 Y138.879 E23.12294
G1 X41.121 Y128.272 E24.69513
G1 X39.805 Y126.394 E24.93551
G1 X39.207 Y124.180 E25.17589
G1 X39.401 Y121.894 E25.41627
G1 X40.362 Y119.812 E25.65664
G1 X41.121 Y118.903 E25.78077
G1 X79.975 Y80.049 E31.53986
G1 F1800.000 E30.53986
G92 E0
G1 X116.870 Y68.751 F7800.000
G1 E1.00000 F1800.000
G1 X111.249 Y63.130 E1.83322 F540.000
G1 X119.698 Y54.680 E3.08569
G1 X125.320 Y60.301 E3.91891
G1 X116.907 Y68.714 E5.16587
G1 X116.870 Y67.868 F7800.000
G1 X112.132 Y63.130 E5.86810 F378.000
G1 X119.698 Y55.564 E6.98957
G1 X124.436 Y60.302 E7.69181
G1 X116.907 Y67.830 E8.80778
G1 X116.623 Y68.115 F7800.000
G1 X111.178 Y74.444 F7800.000
G1 X102.728 Y82.893 E10.06024 F540.000
G1 X97.107 Y77.272 E10.89346
G1 X105.556 Y68.822 E12.14593
G1 X111.141 Y74.407 E12.97365
G1 X110.294 Y74.444 F7800.000
G1 X102.728 Y82.010 E14.09512 F378.000
G1 X102.326 Y81.608 E14.15466
G1 X97.990 Y77.272 E14.79735
G1 X105.556 Y69.706 E15.91883
G1 X110.257 Y74.407 E16.61556
G1 X110.541 Y74.691 F7800.000
G1 X97.036 Y88.586 F7800.000
G1 X88.586 Y97.036 E17.86802 F540.000
G1 X82.964 Y91.414 E18.70125
G1 X91.414 Y82.964 E19.95371
G1 X96.998 Y88.549 E20.78143
G1 X96.152 Y88.586 F7800.000
G1 X88.586 Y96.152 E21.90291 F378.000
G1 X83.848 Y91.414 E22.60514
G1 X91.414 Y83.848 E23.72661
G1 X96.115 Y88.549 E24.42334
G1 X96.399 Y88.833 F7800.000
G1 X82.893 Y102.728 F7800.000
G1 X74.444 Y111.178 E25.67581 F540.000
G1 X69.601 Y106.335 E26.39365
G1 X68.822 Y105.556 E26.50903
G1 X77.272 Y97.107 E27.76149
G1 X82.856 Y102.691 E28.58921
G1 X82.010 Y102.728 F7800.000
G1 X74.444 Y110.294 E29.71069 F378.000
G1 X70.043 Y105.893 E30.36304
G1 X69.706 Y105.556 E30.41292
G1 X77.272 Y97.990 E31.53440
G1 X81.973 Y102.691 E32.23112
G1 X82.257 Y102.975 F7800.000
G1 X68.751 Y116.870 F7800.000
G1 X60.301 Y125.320 E33.48360 F540.000
G1 X54.680 Y119.698 E34.31682
G1 X63.130 Y111.249 E35.56929
G1 X68.714 Y116.833 E36.39701
G1 X67.868 Y116.870 F7800.000
G1 X60.301 Y124.436 E37.51848 F378.000
G1 X55.564 Y119.698 E38.22072
G1 X63.130 Y112.132 E39.34219
G1 X67.830 Y116.833 E40.03892
G1 X68.115 Y117.118 F7800.000
G1 X56.412 Y132.815 F7800.000
G1 X47.185 Y123.588 E41.40673 F540.000
G1 X123.588 Y47.185 E52.73156
G1 X132.815 Y56.412 E54.09936
G1 X56.450 Y132.778 E65.41869
G1 X56.412 Y133.699 F7800.000
G1 X46.301 Y123.588 E66.91749 F378.000
G1 X123.588 Y46.301 E78.37331
G1 X133.699 Y56.412 E79.87210
G1 X56.450 Y133.662 E91.32242
G1 X56.322 Y133.361 F7800.000
G1 X60.843 Y127.744 F7800.000
G1 X52.256 Y119.157 E92.59526 F1080.000
G1 X51.813 Y119.600 E92.66093
G1 X60.400 Y128.187 E93.93378
G1 X59.957 Y128.630 E93.99945
G1 X51.370 Y120.043 E95.27229
G1 X50.927 Y120.486 E95.33796
G1 X59.514 Y129.073 E96.61080
G1 X59.071 Y129.516 E96.67647
G1 X50.484 Y120.929 E97.94931
G1 X50.040 Y121.372 E98.01498
G1 X58.628 Y129.960 E99.28783
G1 X58.185 Y130.403 E99.35350
G1 X49.597 Y121.815 E100.62634
G1 X49.154 Y122.258 E100.69201
G1 X57.742 Y130.846 E101.96485
G1 X57.299 Y131.289 E102.03052
G1 X48.711 Y122.701 E103.30336
G1 X48.268 Y123.145 E103.36903
G1 X56.855 Y131.732 E104.64188
G1 X56.412 Y132.175 E104.70755
G1 X47.825 Y123.588 E105.98039
G1 F1800.000 E104.98039
G92 E0
G1 X70.147 Y118.440 F7800.000
G1 E1.00000 F1800.000
G1 X68.970 Y117.263 E1.17442 F1080.000
G1 X68.527 Y117.706 E1.24010
G1 X69.704 Y118.883 E1.41452
G1 X69.261 Y119.326 E1.48019
G1 X68.084 Y118.149 E1.65461
G1 X67.641 Y118.593 E1.72029
G1 X68.818 Y119.769 E1.89471
G1 X68.375 Y120.212 E1.96038
G1 X67.198 Y119.036 E2.13480
G1 X66.755 Y119.479 E2.20048
G1 X67.932 Y120.655 E2.37490
G1 X67.489 Y121.098 E2.44057
G1 X66.312 Y119.922 E2.61499
G1 X65.869 Y120.365 E2.68067
G1 X67.046 Y121.541 E2.85509
G1 X66.603 Y121.985 E2.92076
G1 X65.426 Y120.808 E3.09518
G1 X64.983 Y121.251 E3.16086
G1 X66.160 Y122.428 E3.33528
G1 X65.717 Y122.871 E3.40095
G1 X64.540 Y121.694 E3.57538
G1 X64.097 Y122.137 E3.64105
G1 X65.274 Y123.314 E3.81547
G1 X64.830 Y123.757 E3.88114
G1 X63.654 Y122.580 E4.05557
G1 X63.211 Y123.023 E4.12124
G1 X64.387 Y124.200 E4.29566
G1 X63.944 Y124.643 E4.36133
G1 X62.768 Y123.466 E4.53576
G1 X62.325 Y123.909 E4.60143
G1 X63.501 Y125.086 E4.77585
G1 X63.058 Y125.529 E4.84152
G1 X61.881 Y124.352 E5.01595
G1 X61.438 Y124.795 E5.08162
G1 X62.615 Y125.972 E5.25604
G1 X62.172 Y126.415 E5.32171
G1 X60.995 Y125.238 E5.49614
G1 X60.552 Y125.681 E5.56181
G1 X61.729 Y126.858 E5.73623
G1 X61.286 Y127.301 E5.80191
G1 X52.699 Y118.714 E7.07475
G1 X53.142 Y118.271 E7.14042
G1 X54.319 Y119.448 E7.31484
G1 X54.762 Y119.005 E7.38051
G1 X53.585 Y117.828 E7.55494
G1 X54.028 Y117.385 E7.62061
G1 X55.205 Y118.562 E7.79503
G1 X55.648 Y118.119 E7.86070
G1 X54.471 Y116.942 E8.03513
G1 X54.914 Y116.499 E8.10080
G1 X56.091 Y117.675 E8.27522
G1 X56.534 Y117.232 E8.34089
G1 X55.357 Y116.056 E8.51532
G1 X55.800 Y115.613 E8.58099
G1 X56.977 Y116.789 E8.75541
G1 X57.420 Y116.346 E8.82108
G1 X56.243 Y115.170 E8.99551
G1 X56.686 Y114.726 E9.06118
G1 X57.863 Y115.903 E9.23560
G1 X58.306 Y115.460 E9.30128
G1 X57.129 Y114.283 E9.47570
G1 X57.572 Y113.840 E9.54137
G1 X58.749 Y115.017 E9.71579
G1 X59.192 Y114.574 E9.78147
G1 X58.015 Y113.397 E9.95589
G1 X58.459 Y112.954 E10.02156
G1 X59.635 Y114.131 E10.19598
G1 X60.078 Y113.688 E10.26166
G1 X58.902 Y112.511 E10.43608
G1 X59.345 Y112.068 E10.50175
G1 X60.521 Y113.245 E10.67618
G1 X60.964 Y112.802 E10.74185
G1 X59.788 Y111.625 E10.91627
G1 X60.231 Y111.182 E10.98194
G1 X61.407 Y112.359 E11.15637
G1 X61.851 Y111.916 E11.22204
G1 X60.674 Y110.739 E11.39646
G1 X61.117 Y110.296 E11.46213
G1 X62.294 Y111.473 E11.63656
G1 X62.737 Y111.030 E11.70223
G1 X61.560 Y109.853 E11.87665
G1 X62.003 Y109.410 E11.94232
G1 X70.590 Y117.997 E13.21516
G1 X71.033 Y117.554 E13.28084
G1 X62.446 Y108.967 E14.55368
G1 X62.889 Y108.524 E14.61935
G1 X71.476 Y117.111 E15.89219
G1 X71.919 Y116.668 E15.95786
G1 X63.332 Y108.081 E17.23070
G1 X63.775 Y107.638 E17.29637
G1 X72.362 Y116.225 E18.56921
G1 X72.805 Y115.782 E18.63489
G1 X64.218 Y107.195 E19.90773
G1 X64.661 Y106.751 E19.97340
G1 X73.249 Y115.339 E21.24624
G1 X73.692 Y114.896 E21.31191
G1 X65.104 Y106.308 E22.58475
G1 X65.547 Y105.865 E22.65042
G1 X74.135 Y114.453 E23.92326
G1 X74.578 Y114.010 E23.98894
G1 X65.990 Y105.422 E25.26178
G1 X66.433 Y104.979 E25.32745
G1 X75.021 Y113.566 E26.60029
G1 X84.325 Y104.262 F7800.000
G1 X83.148 Y103.086 E26.77471 F1080.000
G1 X82.705 Y103.529 E26.84039
G1 X83.882 Y104.705 E27.01481
G1 X83.439 Y105.148 E27.08048
G1 X82.262 Y103.972 E27.25490
G1 X81.819 Y104.415 E27.32058
G1 X82.996 Y105.592 E27.49500
G1 X82.553 Y106.035 E27.56067
G1 X81.376 Y104.858 E27.73510
G1 X80.933 Y105.301 E27.80077
G1 X82.110 Y106.478 E27.97519
G1 X81.667 Y106.921 E28.04086
G1 X80.490 Y105.744 E28.21529
G1 X80.047 Y106.187 E28.28096
G1 X81.223 Y107.364 E28.45538
G1 X80.780 Y107.807 E28.52105
G1 X79.604 Y106.630 E28.69548
G1 X79.161 Y107.073 E28.76115
G1 X80.337 Y108.250 E28.93557
G1 X79.894 Y108.693 E29.00124
G1 X78.718 Y107.516 E29.17567
G1 X78.275 Y107.959 E29.24134
G1 X79.451 Y109.136 E29.41576
G1 X79.008 Y109.579 E29.48144
G1 X77.831 Y108.402 E29.65586
G1 X77.388 Y108.845 E29.72153
G1 X78.565 Y110.022 E29.89595
G1 X78.122 Y110.465 E29.96163
G1 X76.945 Y109.288 E30.13605
G1 X76.502 Y109.731 E30.20172
G1 X77.679 Y110.908 E30.37614
G1 X77.236 Y111.351 E30.44182
G1 X76.059 Y110.174 E30.61624
G1 X75.616 Y110.618 E30.68191
G1 X76.793 Y111.794 E30.85634
G1 X76.350 Y112.237 E30.92201
G1 X75.173 Y111.061 E31.09643
G1 X74.730 Y111.504 E31.16210
G1 X75.907 Y112.680 E31.33653
G1 X75.464 Y113.123 E31.40220
G1 X66.877 Y104.536 E32.67504
G1 X67.320 Y104.093 E32.74071
G1 X68.496 Y105.270 E32.91513
G1 X68.939 Y104.827 E32.98081
G1 X67.763 Y103.650 E33.15523
G1 X68.206 Y103.207 E33.22090
G1 X69.382 Y104.384 E33.39532
G1 X69.826 Y103.941 E33.46100
G1 X68.649 Y102.764 E33.63542
G1 X69.092 Y102.321 E33.70109
G1 X70.269 Y103.498 E33.87552
G1 X70.712 Y103.055 E33.94119
G1 X69.535 Y101.878 E34.11561
G1 X69.978 Y101.435 E34.18128
G1 X71.155 Y102.612 E34.35571
G1 X71.598 Y102.169 E34.42138
G1 X70.421 Y100.992 E34.59580
G1 X70.864 Y100.549 E34.66147
G1 X72.041 Y101.725 E34.83590
G1 X72.484 Y101.282 E34.90157
G1 X71.307 Y100.106 E35.07599
G1 X71.750 Y99.663 E35.14167
G1 X72.927 Y100.839 E35.31609
G1 X73.370 Y100.396 E35.38176
G1 X72.193 Y99.220 E35.55619
G1 X72.636 Y98.777 E35.62186
G1 X73.813 Y99.953 E35.79628
G1 X74.256 Y99.510 E35.86195
G1 X73.079 Y98.333 E36.03638
G1 X73.522 Y97.890 E36.10205
G1 X74.699 Y99.067 E36.27647
G1 X75.142 Y98.624 E36.34214
G1 X73.965 Y97.447 E36.51657
G1 X74.408 Y97.004 E36.58224
G1 X75.585 Y98.181 E36.75666
G1 X76.028 Y97.738 E36.82233
G1 X74.852 Y96.561 E36.99676
G1 X75.295 Y96.118 E37.06243
G1 X76.471 Y97.295 E37.23685
G1 X76.914 Y96.852 E37.30253
G1 X75.738 Y95.675 E37.47695
G1 X76.181 Y95.232 E37.54262
G1 X84.768 Y103.819 E38.81546
G1 X85.211 Y103.376 E38.88113
G1 X76.624 Y94.789 E40.15397
G1 X77.067 Y94.346 E40.21965
G1 X85.654 Y102.933 E41.49249
G1 X86.097 Y102.490 E41.55816
G1 X77.510 Y93.903 E42.83100
G1 X77.953 Y93.460 E42.89667
G1 X86.540 Y102.047 E44.16951
G1 X86.983 Y101.604 E44.23518
G1 X78.396 Y93.017 E45.50803
G1 X78.839 Y92.574 E45.57370
G1 X87.426 Y101.161 E46.84654
G1 X87.869 Y100.718 E46.91221
G1 X79.282 Y92.131 E48.18505
G1 X79.725 Y91.688 E48.25072
G1 X88.312 Y100.275 E49.52356
G1 X88.755 Y99.832 E49.58923
G1 X80.168 Y91.245 E50.86208
G1 X80.611 Y90.802 E50.92775
G1 X89.198 Y99.389 E52.20059
G1 X98.503 Y90.085 F7800.000
G1 X97.326 Y88.908 E52.37501 F1080.000
G1 X96.883 Y89.351 E52.44068
G1 X98.060 Y90.528 E52.61511
G1 X97.617 Y90.971 E52.68078
G1 X96.440 Y89.794 E52.85520
G1 X95.997 Y90.237 E52.92088
G1 X97.173 Y91.414 E53.09530
G1 X96.730 Y91.857 E53.16097
G1 X95.554 Y90.680 E53.33539
G1 X95.111 Y91.123 E53.40107
G1 X96.287 Y92.300 E53.57549
G1 X95.844 Y92.743 E53.64116
G1 X94.668 Y91.566 E53.81559
G1 X94.224 Y92.009 E53.88126
G1 X95.401 Y93.186 E54.05568
G1 X94.958 Y93.629 E54.12135
G1 X93.781 Y92.452 E54.29578
G1 X93.338 Y92.895 E54.36145
G1 X94.515 Y94.072 E54.53587
G1 X94.072 Y94.515 E54.60155
G1 X92.895 Y93.338 E54.77597
G1 X92.452 Y93.781 E54.84164
G1 X93.629 Y94.958 E55.01607
G1 X93.186 Y95.401 E55.08174
G1 X92.009 Y94.224 E55.25616
G1 X91.566 Y94.668 E55.32183
G1 X92.743 Y95.844 E55.49626
G1 X92.300 Y96.287 E55.56193
G1 X91.123 Y95.111 E55.73635
G1 X90.680 Y95.554 E55.80202
G1 X91.857 Y96.730 E55.97645
G1 X91.414 Y97.173 E56.04212
G1 X90.237 Y95.997 E56.21654
G1 X89.794 Y96.440 E56.28222
G1 X90.971 Y97.617 E56.45664
G1 X90.528 Y98.060 E56.52231
G1 X89.351 Y96.883 E56.69674
G1 X88.908 Y97.326 E56.76241
G1 X90.085 Y98.503 E56.93683
G1 X89.642 Y98.946 E57.00250
G1 X81.054 Y90.358 E58.27534
G1 X81.497 Y89.915 E58.34102
G1 X82.674 Y91.092 E58.51544
G1 X83.117 Y90.649 E58.58111
G1 X81.940 Y89.472 E58.75553
G1 X82.383 Y89.029 E58.82121
G1 X83.560 Y90.206 E58.99563
G1 X84.003 Y89.763 E59.06130
G1 X82.827 Y88.586 E59.23573
G1 X83.270 Y88.143 E59.30140
G1 X84.446 Y89.320 E59.47582
G1 X84.889 Y88.877 E59.54149
G1 X83.713 Y87.700 E59.71592
G1 X84.156 Y87.257 E59.78159
G1 X85.332 Y88.434 E59.95601
G1 X85.775 Y87.991 E60.02168
G1 X84.599 Y86.814 E60.19611
G1 X85.042 Y86.371 E60.26178
G1 X86.219 Y87.548 E60.43620
G1 X86.662 Y87.105 E60.50187
G1 X85.485 Y85.928 E60.67630
G1 X85.928 Y85.485 E60.74197
G1 X87.105 Y86.662 E60.91639
G1 X87.548 Y86.219 E60.98206
G1 X86.371 Y85.042 E61.15649
G1 X86.814 Y84.599 E61.22216
G1 X87.991 Y85.775 E61.39658
G1 X88.434 Y85.332 E61.46226
G1 X87.257 Y84.156 E61.63668
G1 X87.700 Y83.713 E61.70235
G1 X88.877 Y84.889 E61.87677
G1 X89.320 Y84.446 E61.94245
G1 X88.143 Y83.270 E62.11687
G1 X88.586 Y82.827 E62.18254
G1 X89.763 Y84.003 E62.35697
G1 X90.206 Y83.560 E62.42264
G1 X89.029 Y82.383 E62.59706
G1 X89.472 Y81.940 E62.66273
G1 X90.649 Y83.117 E62.83716
G1 X91.092 Y82.674 E62.90283
G1 X89.915 Y81.497 E63.07725
G1 X90.358 Y81.054 E63.14292
G1 X98.946 Y89.642 E64.41576
G1 X99.389 Y89.198 E64.48144
G1 X90.802 Y80.611 E65.75428
G1 X91.245 Y80.168 E65.81995
G1 X99.832 Y88.755 E67.09279
G1 X100.275 Y88.312 E67.15846
G1 X91.688 Y79.725 E68.43130
G1 X92.131 Y79.282 E68.49697
G1 X100.718 Y87.869 E69.76981
G1 X101.161 Y87.426 E69.83549
G1 X92.574 Y78.839 E71.10833
G1 X93.017 Y78.396 E71.17400
G1 X101.604 Y86.983 E72.44684
G1 X102.047 Y86.540 E72.51251
G1 X93.460 Y77.953 E73.78535
G1 X93.903 Y77.510 E73.85102
G1 X102.490 Y86.097 E75.12386
G1 X102.933 Y85.654 E75.18954
G1 X94.346 Y77.067 E76.46238
G1 X94.789 Y76.624 E76.52805
G1 X103.376 Y85.211 E77.80089
G1 X112.680 Y75.907 F7800.000
G1 X111.504 Y74.730 E77.97531 F1080.000
G1 X111.061 Y75.173 E78.04098
G1 X112.237 Y76.350 E78.21541
G1 X111.794 Y76.793 E78.28108
G1 X110.618 Y75.616 E78.45550
G1 X110.174 Y76.059 E78.52118
G1 X111.351 Y77.236 E78.69560
G1 X110.908 Y77.679 E78.76127
G1 X109.731 Y76.502 E78.93569
G1 X109.288 Y76.945 E79.00137
G1 X110.465 Y78.122 E79.17579
G1 X110.022 Y78.565 E79.24146
G1 X108.845 Y77.388 E79.41589
G1 X108.402 Y77.831 E79.48156
G1 X109.579 Y79.008 E79.65598
G1 X109.136 Y79.451 E79.72165
G1 X107.959 Y78.275 E79.89608
G1 X107.516 Y78.718 E79.96175
G1 X108.693 Y79.894 E80.13617
G1 X108.250 Y80.337 E80.20184
G1 X107.073 Y79.161 E80.37627
G1 X106.630 Y79.604 E80.44194
G1 X107.807 Y80.780 E80.61636
G1 X107.364 Y81.223 E80.68203
G1 X106.187 Y80.047 E80.85646
G1 X105.744 Y80.490 E80.92213
G1 X106.921 Y81.667 E81.09655
G1 X106.478 Y82.110 E81.16223
G1 X105.301 Y80.933 E81.33665
G1 X104.858 Y81.376 E81.40232
G1 X106.035 Y82.553 E81.57675
G1 X105.592 Y82.996 E81.64242
G1 X104.415 Y81.819 E81.81684
G1 X103.972 Y82.262 E81.88251
G1 X105.148 Y83.439 E82.05694
G1 X104.705 Y83.882 E82.12261
G1 X103.529 Y82.705 E82.29703
G1 X103.086 Y83.148 E82.36270
G1 X104.262 Y84.325 E82.53713
G1 X103.819 Y84.768 E82.60280
G1 X95.232 Y76.181 E83.87564
G1 X95.675 Y75.738 E83.94131
G1 X96.852 Y76.914 E84.11574
G1 X97.295 Y76.471 E84.18141
G1 X96.118 Y75.295 E84.35583
G1 X96.561 Y74.852 E84.42150
G1 X97.738 Y76.028 E84.59593
G1 X98.181 Y75.585 E84.66160
G1 X97.004 Y74.408 E84.83602
G1 X97.447 Y73.965 E84.90170
G1 X98.624 Y75.142 E85.07612
G1 X99.067 Y74.699 E85.14179
G1 X97.890 Y73.522 E85.31622
G1 X98.333 Y73.079 E85.38189
G1 X99.510 Y74.256 E85.55631
G1 X99.953 Y73.813 E85.62198
G1 X98.777 Y72.636 E85.79641
G1 X99.220 Y72.193 E85.86208
G1 X100.396 Y73.370 E86.03650
G1 X100.839 Y72.927 E86.10217
G1 X99.663 Y71.750 E86.27660
G1 X100.106 Y71.307 E86.34227
G1 X101.282 Y72.484 E86.51669
G1 X101.725 Y72.041 E86.58237
G1 X100.549 Y70.864 E86.75679
G1 X100.992 Y70.421 E86.82246
G1 X102.169 Y71.598 E86.99688
G1 X102.612 Y71.155 E87.06256
G1 X101.435 Y69.978 E87.23698
G1 X101.878 Y69.535 E87.30265
G1 X103.055 Y70.712 E87.47708
G1 X103.498 Y70.269 E87.54275
G1 X102.321 Y69.092 E87.71717
G1 X102.764 Y68.649 E87.78284
G1 X103.941 Y69.826 E87.95727
G1 X104.384 Y69.382 E88.02294
G1 X103.207 Y68.206 E88.19736
G1 X103.650 Y67.763 E88.26303
G1 X104.827 Y68.939 E88.43746
G1 X105.270 Y68.496 E88.50313
G1 X104.093 Y67.320 E88.67755
G1 X104.536 Y66.877 E88.74323
