; generated by Slic3r 1.1.7 on 2015-04-25 at 15:01:59

; perimeters extrusion width = 0.35mm
; infill extrusion width = 0.44mm
; solid infill extrusion width = 0.44mm
; top infill extrusion width = 0.44mm

G21 ; set units to millimeters
M107
M190 S60 ; wait for bed temperature to be reached
M104 S185 ; set temperature
G28 ; home all axes
G1 Z5 F5000 ; lift nozzle

M109 S185 ; wait for temperature to be reached
G90 ; use absolute coordinates
G92 E0
M82 ; use absolute distances for extrusion
G1 F1800.000 E-1.00000
G92 E0
G1 Z0.350 F7800.000
G1 X31.668 Y61.274 F7800.000
G1 E1.00000 F1800.000
G1 X33.820 Y60.481 E1.24038 F1080.000
G1 X35.000 Y60.375 E1.36453
G1 X145.000 Y60.375 E12.89372
G1 X147.259 Y60.772 E13.13410
G1 X149.247 Y61.915 E13.37448 F1080.000
G1 X150.726 Y63.668 E13.61485
G1 X151.519 Y65.820 E13.85523
G1 X151.625 Y67.000 E13.97938
G1 X151.625 Y83.000 E15.65636
G1 X151.228 Y85.259 E15.89673
G1 X150.085 Y87.247 E16.13711
G1 X148.675 Y88.512 E16.33565
G1 X103.675 Y118.512 E22.00416
G1 X101.575 Y119.435 E22.24454
G1 X100.000 Y119.625 E22.41083
G1 X80.000 Y119.625 E24.50705
G1 X77.741 Y119.228 E24.74743
G1 X76.325 Y118.512 E24.91372
G1 X31.325 Y88.512 E30.58223
G1 X29.666 Y86.929 E30.82261
G1 X28.646 Y84.875 E31.06299
G1 X28.375 Y83.000 E31.26152
G1 X28.375 Y67.000 E32.93850
G1 X28.772 Y64.741 E33.17888
G1 X29.915 Y62.753 E33.41925
G1 X31.628 Y61.308 E33.65413
G1 F1800.000 E32.65413
G92 E0
G1 X135.975 Y80.975 F7800.000
G1 E1.00000 F1800.000
G1 X124.025 Y80.975 E2.25247 F540.000
G1 X124.025 Y69.025 E3.50493
G1 X135.975 Y69.025 E4.75740
G1 X135.975 Y80.922 E6.00436
G1 X135.350 Y80.350 F7800.000
G1 X124.650 Y80.350 E7.12584 F378.000
G1 X124.650 Y69.650 E8.24731
G1 X135.350 Y69.650 E9.36879
G1 X135.350 Y80.297 E10.48476
G1 X135.350 Y80.700 F7800.000
G1 X115.975 Y80.975 F7800.000
G1 X104.025 Y80.975 E11.73723 F540.000
G1 X104.025 Y69.025 E12.98969
G1 X115.975 Y69.025 E14.24216
G1 X115.975 Y80.922 E15.48912
G1 X115.350 Y80.350 F7800.000
G1 X104.650 Y80.350 E16.61060 F378.000
G1 X104.650 Y69.650 E17.73207
G1 X115.350 Y69.650 E18.85355
G1 X115.350 Y80.297 E19.96952
G1 X115.350 Y80.700 F7800.000
G1 X95.975 Y80.975 F7800.000
G1 X84.025 Y80.975 E21.22199 F540.000
G1 X84.025 Y69.025 E22.47445
G1 X95.975 Y69.025 E23.72692
G1 X95.975 Y80.922 E24.97388
G1 X95.350 Y80.350 F7800.000
G1 X84.650 Y80.350 E26.09536 F378.000
G1 X84.650 Y69.650 E27.21683
G1 X95.350 Y69.650 E28.33831
G1 X95.350 Y80.297 E29.45428
G1 X95.350 Y80.700 F7800.000
G1 X75.975 Y80.975 F7800.000
G1 X64.025 Y80.975 E30.70675 F540.000
G1 X64.025 Y69.025 E31.95921
G1 X75.975 Y69.025 E33.21168
G1 X75.975 Y80.922 E34.45864
G1 X75.350 Y80.350 F7800.000
G1 X64.650 Y80.350 E35.58012 F378.000
G1 X64.650 Y69.650 E36.70159
G1 X75.350 Y69.650 E37.82307
G1 X75.350 Y80.297 E38.93904
G1 X75.350 Y80.700 F7800.000
G1 X55.975 Y80.975 F7800.000
G1 X44.025 Y80.975 E40.19151 F540.000
G1 X44.025 Y69.025 E41.44397
G1 X55.975 Y69.025 E42.69644
G1 X55.975 Y80.922 E43.94340
G1 X55.350 Y80.350 F7800.000
G1 X44.650 Y80.350 E45.06488 F378.000
G1 X44.650 Y69.650 E46.18635
G1 X55.350 Y69.650 E47.30783
G1 X55.350 Y80.297 E48.42380
G1 X55.350 Y80.700 F7800.000
G1 X80.975 Y82.025 F7800.000
G1 X35.975 Y82.025 E53.14029 F540.000
G1 X35.975 Y67.975 E54.61290
G1 X144.025 Y67.975 E65.93773
G1 X144.025 Y82.025 E67.41035
G1 X99.025 Y82.025 E72.12684
G1 X99.025 Y112.025 E75.27116
G1 X80.975 Y112.025 E77.16302
G1 X80.975 Y82.078 E80.30184
G1 X80.350 Y82.650 F7800.000
G1 X35.350 Y82.650 E85.01833 F378.000
G1 X35.350 Y67.350 E86.62193
G1 X144.650 Y67.350 E98.07775
G1 X144.650 Y82.650 E99.68136
G1 X99.650 Y82.650 E104.39784
G1 X99.650 Y112.650 E107.54217
G1 X80.350 Y112.650 E109.56502
G1 X80.350 Y82.703 E112.70384
G1 X80.350 Y82.300 F7800.000
G1 X80.821 Y81.592 F7800.000
G1 X76.408 Y77.179 E113.35791 F1080.000
G1 X76.408 Y78.069 E113.45120
G1 X79.931 Y81.592 E113.97333
G1 X79.040 Y81.592 E114.06662
G1 X76.408 Y78.960 E114.45683
G1 X76.408 Y79.850 E114.55012
G1 X78.150 Y81.592 E114.80839
G1 X77.260 Y81.592 E114.90168
G1 X76.408 Y80.740 E115.02802
G1 X81.408 Y82.179 F7800.000
G1 X98.592 Y99.364 E117.57514 F1080.000
G1 X98.592 Y98.474 E117.66843
G1 X76.408 Y76.289 E120.95667
G1 X76.408 Y75.399 E121.04996
G1 X98.592 Y97.583 E124.33821
G1 X98.592 Y96.693 E124.43150
G1 X76.408 Y74.509 E127.71975
G1 X76.408 Y73.619 E127.81304
G1 X83.592 Y80.803 E128.87791
G1 X84.197 Y81.408 F7800.000
G1 X98.592 Y95.803 E131.01166 F1080.000
G1 X98.592 Y94.913 E131.10495
G1 X85.087 Y81.408 E133.10676
G1 X85.977 Y81.408 E133.20005
G1 X98.592 Y94.023 E135.06994
G1 X98.592 Y93.133 E135.16323
G1 X86.867 Y81.408 E136.90118
G1 X87.757 Y81.408 E136.99447
G1 X98.592 Y92.243 E138.60049
G1 X98.592 Y91.353 E138.69378
G1 X88.647 Y81.408 E140.16787
G1 X89.537 Y81.408 E140.26116
G1 X98.592 Y90.463 E141.60332
G1 X98.592 Y89.573 E141.69661
G1 X90.427 Y81.408 E142.90683
G1 X91.317 Y81.408 E143.00012
G1 X98.592 Y88.683 E144.07841
G1 X98.592 Y87.793 E144.17170
G1 X92.207 Y81.408 E145.11806
G1 X93.098 Y81.408 E145.21135
G1 X98.592 Y86.902 E146.02578
G1 X98.592 Y86.012 E146.11907
G1 X93.988 Y81.408 E146.80156
G1 X94.878 Y81.408 E146.89485
G1 X98.592 Y85.122 E147.44542
G1 X98.592 Y84.232 E147.53871
G1 X95.768 Y81.408 E147.95734
G1 X96.408 Y81.158 E148.02936
G1 X98.592 Y83.342 E148.35311
G1 X98.592 Y82.452 E148.44640
G1 X96.408 Y80.268 E148.77015
G1 X96.408 Y79.378 E148.86344
G1 X98.622 Y81.592 E149.19165
G1 X99.512 Y81.592 E149.28494
G1 X96.408 Y78.488 E149.74509
G1 X96.408 Y77.598 E149.83838
G1 X100.402 Y81.592 E150.43046
G1 X101.292 Y81.592 E150.52375
G1 X96.408 Y76.708 E151.24776
G1 X96.408 Y75.817 E151.34105
G1 X102.183 Y81.592 E152.19699
G1 X103.073 Y81.592 E152.29028
G1 X96.408 Y74.927 E153.27815
G1 X96.408 Y74.037 E153.37144
G1 X103.280 Y80.909 E154.39000
G1 X103.592 Y80.331 E154.45884
G1 X96.408 Y73.147 E155.52371
G1 X96.408 Y72.257 E155.61700
G1 X103.592 Y79.441 E156.68187
G1 X103.592 Y78.551 E156.77516
G1 X96.408 Y71.367 E157.84004
G1 X96.408 Y70.477 E157.93333
G1 X103.592 Y77.661 E158.99820
G1 X103.592 Y76.771 E159.09149
G1 X96.408 Y69.587 E160.15636
G1 X96.720 Y69.009 E160.22519
G1 X103.592 Y75.881 E161.24376
G1 X103.592 Y74.991 E161.33705
G1 X97.009 Y68.408 E162.31281
G1 X97.899 Y68.408 E162.40610
G1 X103.592 Y74.101 E163.24993
G1 X103.592 Y73.211 E163.34322
G1 X98.789 Y68.408 E164.05512
G1 X99.679 Y68.408 E164.14841
G1 X103.592 Y72.321 E164.72838
G1 X103.592 Y71.431 E164.82167
G1 X100.569 Y68.408 E165.26971
G1 X101.459 Y68.408 E165.36300
G1 X103.592 Y70.541 E165.67910
G1 X103.592 Y69.650 E165.77239
G1 X102.350 Y68.408 E165.95656
G1 X103.280 Y68.448 E166.05414
G1 X103.240 Y68.408 E166.06006
G1 X82.768 Y68.408 F7800.000
G1 X83.592 Y69.232 E166.18225 F1080.000
G1 X83.592 Y70.122 E166.27554
G1 X81.878 Y68.408 E166.52965
G1 X80.988 Y68.408 E166.62294
G1 X83.592 Y71.012 E167.00899
G1 X83.592 Y71.902 E167.10228
G1 X80.098 Y68.408 E167.62025
G1 X79.207 Y68.408 E167.71354
G1 X83.592 Y72.793 E168.36345
G1 X83.592 Y73.683 E168.45674
G1 X78.317 Y68.408 E169.23858
G1 X77.427 Y68.408 E169.33187
G1 X83.592 Y74.573 E170.24565
G1 X83.592 Y75.463 E170.33894
G1 X76.720 Y68.591 E171.35750
G1 X76.408 Y69.169 E171.42633
G1 X83.592 Y76.353 E172.49121
G1 X83.592 Y77.243 E172.58450
G1 X76.408 Y70.059 E173.64937
G1 X76.408 Y70.949 E173.74266
G1 X83.592 Y78.133 E174.80753
G1 X83.592 Y79.023 E174.90082
G1 X76.408 Y71.839 E175.96570
G1 X76.408 Y72.729 E176.05899
G1 X83.592 Y79.913 E177.12386
G1 X81.408 Y83.069 F7800.000
G1 X98.592 Y100.254 E179.67098 F1080.000
G1 X98.592 Y101.144 E179.76427
G1 X81.408 Y83.960 E182.31139
G1 X81.408 Y84.850 E182.40468
G1 X98.592 Y102.034 E184.95180
G1 X98.592 Y102.924 E185.04509
G1 X81.408 Y85.740 E187.59222
G1 X81.408 Y86.630 E187.68551
G1 X98.592 Y103.814 E190.23263
G1 X98.592 Y104.704 E190.32592
G1 X81.408 Y87.520 E192.87304
G1 X81.408 Y88.410 E192.96633
G1 X98.592 Y105.594 E195.51345
G1 X98.592 Y106.484 E195.60674
G1 X81.408 Y89.300 E198.15386
G1 X81.408 Y90.190 E198.24715
G1 X98.592 Y107.374 E200.79428
G1 X98.592 Y108.264 E200.88757
G1 X81.408 Y91.080 E203.43469
G1 X81.408 Y91.970 E203.52798
G1 X98.592 Y109.154 E206.07510
G1 X98.592 Y110.045 E206.16839
G1 X81.408 Y92.860 E208.71551
G1 X81.408 Y93.750 E208.80880
G1 X98.592 Y110.935 E211.35592
G1 X98.359 Y111.592 E211.42902
G1 X81.408 Y94.641 E213.94166
G1 X81.408 Y95.531 E214.03495
G1 X97.469 Y111.592 E216.41565
G1 X96.579 Y111.592 E216.50894
G1 X81.408 Y96.421 E218.75772
G1 X81.408 Y97.311 E218.85101
G1 X95.689 Y111.592 E220.96785
G1 X94.799 Y111.592 E221.06114
G1 X81.408 Y98.201 E223.04605
G1 X81.408 Y99.091 E223.13934
G1 X93.909 Y111.592 E224.99232
G1 X93.019 Y111.592 E225.08561
G1 X81.408 Y99.981 E226.80666
G1 X81.408 Y100.871 E226.89995
G1 X92.129 Y111.592 E228.48906
G1 X91.239 Y111.592 E228.58235
G1 X81.408 Y101.761 E230.03954
G1 X81.408 Y102.651 E230.13283
G1 X90.349 Y111.592 E231.45808
G1 X89.459 Y111.592 E231.55137
G1 X81.408 Y103.541 E232.74469
G1 X81.408 Y104.431 E232.83798
G1 X88.569 Y111.592 E233.89936
G1 X87.678 Y111.592 E233.99265
G1 X81.408 Y105.322 E234.92211
G1 X81.408 Y106.212 E235.01540
G1 X86.788 Y111.592 E235.81292
G1 X85.898 Y111.592 E235.90621
G1 X81.408 Y107.102 E236.57180
G1 X81.408 Y107.992 E236.66509
G1 X85.008 Y111.592 E237.19875
G1 X84.118 Y111.592 E237.29204
G1 X81.408 Y108.882 E237.69376
G1 X81.408 Y109.772 E237.78705
G1 X83.228 Y111.592 E238.05684
G1 X82.338 Y111.592 E238.15013
G1 X81.408 Y110.662 E238.28800
G1 X81.408 Y111.552 E238.38129
G1 X81.448 Y111.592 E238.38721
G1 X83.713 Y68.500 F7800.000
G1 X96.287 Y68.500 E239.12540 F360.000
G1 X76.287 Y68.500 F7800.000
G1 X63.713 Y68.500 E239.86359 F360.000
G1 X63.713 Y81.500 F7800.000
G1 X76.287 Y81.500 E240.60177 F360.000
G1 F1800.000 E239.60177
G92 E0
G1 X63.240 Y68.408 F7800.000
G1 E1.00000 F1800.000
G1 X63.280 Y68.448 E1.00593 F1080.000
G1 X62.346 Y68.408 E1.10389
G1 X63.592 Y69.654 E1.28861
G1 X63.592 Y70.548 E1.38229
G1 X61.452 Y68.408 E1.69950
G1 X60.558 Y68.408 E1.79318
G1 X63.592 Y71.442 E2.24286
G1 X63.592 Y72.336 E2.33654
G1 X59.664 Y68.408 E2.91871
G1 X58.771 Y68.408 E3.01239
G1 X63.592 Y73.229 E3.72704
G1 X63.592 Y74.123 E3.82072
G1 X57.877 Y68.408 E4.66786
G1 X56.983 Y68.408 E4.76154
G1 X63.592 Y75.017 E5.74115
G1 X63.592 Y75.911 E5.83483
G1 X56.720 Y69.039 E6.85340
G1 X56.408 Y69.620 E6.92257
G1 X63.592 Y76.804 E7.98744
G1 X63.592 Y77.698 E8.08112
G1 X56.408 Y70.514 E9.14600
G1 X56.408 Y71.408 E9.23968
G1 X63.592 Y78.592 E10.30455
G1 X63.592 Y79.486 E10.39823
G1 X56.408 Y72.302 E11.46310
G1 X56.408 Y73.196 E11.55678
G1 X63.592 Y80.380 E12.62165
G1 X63.280 Y80.961 E12.69083
G1 X56.408 Y74.089 E13.70939
G1 X56.408 Y74.983 E13.80307
G1 X63.017 Y81.592 E14.78269
G1 X62.123 Y81.592 E14.87637
G1 X56.408 Y75.877 E15.72350
G1 X56.408 Y76.771 E15.81718
G1 X61.229 Y81.592 E16.53183
G1 X60.336 Y81.592 E16.62551
G1 X56.408 Y77.664 E17.20768
G1 X56.408 Y78.558 E17.30136
G1 X59.442 Y81.592 E17.75105
G1 X58.548 Y81.592 E17.84473
G1 X56.408 Y79.452 E18.16193
G1 X56.408 Y80.346 E18.25561
G1 X57.654 Y81.592 E18.44033
G1 X56.760 Y81.592 E18.53401
G1 X56.720 Y81.552 E18.53994
G1 X56.287 Y68.500 F7800.000
G1 X43.713 Y68.500 E19.27813 F360.000
G1 X43.713 Y81.500 F7800.000
G1 X56.287 Y81.500 E20.01632 F360.000
G1 F1800.000 E19.01632
G92 E0
G1 X43.240 Y68.408 F7800.000
G1 E1.00000 F1800.000
G1 X43.280 Y68.448 E1.00593 F1080.000
G1 X42.332 Y68.408 E1.10538
G1 X43.592 Y69.668 E1.29220
G1 X43.592 Y70.576 E1.38737
G1 X41.424 Y68.408 E1.70879
G1 X40.516 Y68.408 E1.80396
G1 X43.592 Y71.484 E2.25996
G1 X43.592 Y72.392 E2.35513
G1 X39.608 Y68.408 E2.94572
G1 X38.700 Y68.408 E3.04088
G1 X43.592 Y73.300 E3.76606
G1 X43.592 Y74.208 E3.86123
G1 X37.792 Y68.408 E4.72099
G1 X36.884 Y68.408 E4.81616
G1 X43.592 Y75.116 E5.81051
G1 X43.592 Y76.024 E5.90568
G1 X36.408 Y68.840 E6.97055
G1 X36.408 Y69.748 E7.06572
G1 X43.592 Y76.932 E8.13059
G1 X43.592 Y77.840 E8.22576
G1 X36.408 Y70.656 E9.29064
G1 X36.408 Y71.564 E9.38580
G1 X43.592 Y78.748 E10.45068
G1 X43.592 Y79.656 E10.54584
G1 X36.408 Y72.472 E11.61072
G1 X36.408 Y73.380 E11.70588
G1 X43.592 Y80.564 E12.77076
G1 X43.280 Y81.160 E12.84125
G1 X36.408 Y74.288 E13.85981
G1 X36.408 Y75.196 E13.95498
G1 X42.804 Y81.592 E14.90302
G1 X41.896 Y81.592 E14.99819
G1 X36.408 Y76.104 E15.81164
G1 X36.408 Y77.012 E15.90681
G1 X40.988 Y81.592 E16.58568
G1 X40.080 Y81.592 E16.68084
G1 X36.408 Y77.920 E17.22512
G1 X36.408 Y78.828 E17.32029
G1 X39.172 Y81.592 E17.72998
G1 X38.264 Y81.592 E17.82515
G1 X36.408 Y79.736 E18.10025
G1 X36.408 Y80.644 E18.19542
G1 X37.356 Y81.592 E18.33594
G1 X36.448 Y81.592 E18.43111
G1 X36.408 Y81.552 E18.43704
G1 F1800.000 E17.43704
G92 E0
G1 X103.713 Y68.500 F7800.000
G1 E1.00000 F1800.000
G1 X116.287 Y68.500 E1.73819 F360.000
G1 X123.240 Y68.408 F7800.000
G1 X123.280 Y68.448 E1.74412 F1080.000
G1 X122.346 Y68.408 E1.84208
G1 X123.592 Y69.654 E2.02680
G1 X123.592 Y70.548 E2.12048
G1 X121.452 Y68.408 E2.43768
G1 X120.558 Y68.408 E2.53136
G1 X123.592 Y71.442 E2.98105
G1 X123.592 Y72.336 E3.07473
G1 X119.664 Y68.408 E3.65690
G1 X118.771 Y68.408 E3.75058
G1 X123.592 Y73.229 E4.46523
G1 X123.592 Y74.123 E4.55891
G1 X117.877 Y68.408 E5.40604
G1 X116.983 Y68.408 E5.49972
G1 X123.592 Y75.017 E6.47934
G1 X123.592 Y75.911 E6.57302
G1 X116.720 Y69.039 E7.59158
G1 X116.408 Y69.620 E7.66076
G1 X123.592 Y76.805 E8.72563
G1 X123.592 Y77.698 E8.81931
G1 X116.408 Y70.514 E9.88418
G1 X116.408 Y71.408 E9.97786
G1 X123.592 Y78.592 E11.04274
G1 X123.592 Y79.486 E11.13641
G1 X116.408 Y72.302 E12.20129
G1 X116.408 Y73.196 E12.29497
G1 X123.592 Y80.380 E13.35984
G1 X123.280 Y80.961 E13.42902
G1 X116.408 Y74.089 E14.44758
G1 X116.408 Y74.983 E14.54126
G1 X123.017 Y81.592 E15.52087
G1 X122.123 Y81.592 E15.61455
G1 X116.408 Y75.877 E16.46169
G1 X116.408 Y76.771 E16.55537
G1 X121.229 Y81.592 E17.27002
G1 X120.336 Y81.592 E17.36370
G1 X116.408 Y77.664 E17.94587
G1 X116.408 Y78.558 E18.03955
G1 X119.442 Y81.592 E18.48924
G1 X118.548 Y81.592 E18.58292
G1 X116.408 Y79.452 E18.90012
G1 X116.408 Y80.346 E18.99380
G1 X117.654 Y81.592 E19.17852
G1 X116.760 Y81.592 E19.27220
G1 X116.720 Y81.552 E19.27813
G1 X123.713 Y68.500 F7800.000
G1 X136.287 Y68.500 E20.01632 F360.000
G1 X143.552 Y68.408 F7800.000
G1 X143.592 Y68.448 E20.02225 F1080.000
G1 X143.592 Y69.356 E20.11741
G1 X142.644 Y68.408 E20.25793
G1 X141.736 Y68.408 E20.35310
G1 X143.592 Y70.264 E20.62820
G1 X143.592 Y71.172 E20.72337
G1 X140.828 Y68.408 E21.13306
G1 X139.920 Y68.408 E21.22823
G1 X143.592 Y72.080 E21.77251
G1 X143.592 Y72.988 E21.86768
G1 X139.012 Y68.408 E22.54654
G1 X138.104 Y68.408 E22.64171
G1 X143.592 Y73.896 E23.45517
G1 X143.592 Y74.804 E23.55033
G1 X137.196 Y68.408 E24.49838
G1 X136.720 Y68.840 E24.56575
G1 X143.592 Y75.712 E25.58431
G1 X143.592 Y76.620 E25.67948
G1 X136.408 Y69.436 E26.74435
G1 X136.408 Y70.344 E26.83952
G1 X143.592 Y77.528 E27.90439
G1 X143.592 Y78.436 E27.99956
G1 X136.408 Y71.252 E29.06443
G1 X136.408 Y72.160 E29.15960
G1 X143.592 Y79.344 E30.22447
G1 X143.592 Y80.252 E30.31964
G1 X136.408 Y73.068 E31.38451
G1 X136.408 Y73.976 E31.47968
G1 X143.592 Y81.160 E32.54456
G1 X143.116 Y81.592 E32.61193
G1 X136.408 Y74.884 E33.60628
G1 X136.408 Y75.792 E33.70145
G1 X142.208 Y81.592 E34.56121
G1 X141.300 Y81.592 E34.65638
G1 X136.408 Y76.700 E35.38156
G1 X136.408 Y77.608 E35.47673
G1 X140.392 Y81.592 E36.06731
G1 X139.484 Y81.592 E36.16248
G1 X136.408 Y78.516 E36.61848
G1 X136.408 Y79.424 E36.71365
G1 X138.576 Y81.592 E37.03507
G1 X137.668 Y81.592 E37.13023
G1 X136.408 Y80.332 E37.31706
G1 X136.720 Y81.552 E37.44910
G1 X136.760 Y81.592 E37.45503
G1 X136.287 Y81.500 F7800.000
G1 X123.713 Y81.500 E38.19322 F360.000
G1 X116.287 Y81.500 F7800.000
G1 X103.713 Y81.500 E38.93140 F360.000
M104 S180 ; set temperature
G1 F1800.000 E37.93140
G92 E0
G1 Z0.580 F7800.000
G1 X124.475 Y80.525 F7800.000
G1 E1.00000 F1800.000
G1 X124.475 Y69.475 E1.42628 F1800.000
G1 X135.525 Y69.475 E1.85256
G1 X135.525 Y80.525 E2.27883
G1 X124.528 Y80.525 E2.70309
G1 X124.825 Y80.175 F7800.000
G1 X124.825 Y69.825 E3.10236 F1260.000
G1 X135.175 Y69.825 E3.50163
G1 X135.175 Y80.175 E3.90091
G1 X124.878 Y80.175 E4.29816
