; generated by Slic3r 1.1.7 on 2015-04-25 at 13:20:40

; perimeters extrusion width = 0.35mm
; infill extrusion width = 0.44mm
; solid infill extrusion width = 0.44mm
; top infill extrusion width = 0.44mm

G21 ; set units to millimeters
M107
M190 S60 ; wait for bed temperature to be reached
M104 S180 ; set temperature
G28 ; home all axes
G1 Z5 F5000 ; lift nozzle

M109 S180 ; wait for temperature to be reached
G90 ; use absolute coordinates
G92 E0
M82 ; use absolute distances for extrusion
G1 F1800.000 E-1.00000
G92 E0
G1 Z0.350 F7800.000
G1 X31.668 Y76.274 F7800.000
G1 E1.00000 F1800.000
G1 X33.820 Y75.481 E1.24038 F1080.000
G1 X35.000 Y75.375 E1.36453
G1 X145.000 Y75.375 E12.89372
G1 X147.259 Y75.772 E13.13410
G1 X149.247 Y76.915 E13.37448 F1080.000
G1 X150.726 Y78.668 E13.61485
G1 X151.519 Y80.820 E13.85523
G1 X151.625 Y82.000 E13.97938
G1 X151.625 Y98.000 E15.65636
G1 X151.228 Y100.259 E15.89673
G1 X150.085 Y102.247 E16.13711
G1 X148.332 Y103.726 E16.37749
G1 X146.180 Y104.519 E16.61787
G1 X145.000 Y104.625 E16.74202
G1 X35.000 Y104.625 E28.27121
G1 X32.741 Y104.228 E28.51159
G1 X30.753 Y103.085 E28.75197
G1 X29.274 Y101.332 E28.99235
G1 X28.481 Y99.180 E29.23272
G1 X28.375 Y98.000 E29.35688
G1 X28.375 Y82.000 E31.03385
G1 X28.772 Y79.741 E31.27423
G1 X29.915 Y77.753 E31.51460
G1 X31.628 Y76.308 E31.74948
G1 F1800.000 E30.74948
G92 E0
G1 X135.975 Y95.975 F7800.000
G1 E1.00000 F1800.000
G1 X124.025 Y95.975 E2.25247 F540.000
G1 X124.025 Y84.025 E3.50493
G1 X135.975 Y84.025 E4.75740
G1 X135.975 Y95.922 E6.00436
G1 X135.350 Y95.350 F7800.000
G1 X124.650 Y95.350 E7.12584 F378.000
G1 X124.650 Y84.650 E8.24731
G1 X135.350 Y84.650 E9.36879
G1 X135.350 Y95.297 E10.48476
G1 X135.350 Y95.700 F7800.000
G1 X115.975 Y95.975 F7800.000
G1 X104.025 Y95.975 E11.73723 F540.000
G1 X104.025 Y84.025 E12.98969
G1 X115.975 Y84.025 E14.24216
G1 X115.975 Y95.922 E15.48912
G1 X115.350 Y95.350 F7800.000
G1 X104.650 Y95.350 E16.61060 F378.000
G1 X104.650 Y84.650 E17.73207
G1 X115.350 Y84.650 E18.85355
G1 X115.350 Y95.297 E19.96952
G1 X115.350 Y95.700 F7800.000
G1 X95.975 Y95.975 F7800.000
G1 X84.025 Y95.975 E21.22199 F540.000
G1 X84.025 Y84.025 E22.47445
G1 X95.975 Y84.025 E23.72692
G1 X95.975 Y95.922 E24.97388
G1 X95.350 Y95.350 F7800.000
G1 X84.650 Y95.350 E26.09536 F378.000
G1 X84.650 Y84.650 E27.21683
G1 X95.350 Y84.650 E28.33831
G1 X95.350 Y95.297 E29.45428
G1 X95.350 Y95.700 F7800.000
G1 X75.975 Y95.975 F7800.000
G1 X64.025 Y95.975 E30.70675 F540.000
G1 X64.025 Y84.025 E31.95921
G1 X75.975 Y84.025 E33.21168
G1 X75.975 Y95.922 E34.45864
G1 X75.350 Y95.350 F7800.000
G1 X64.650 Y95.350 E35.58012 F378.000
G1 X64.650 Y84.650 E36.70159
G1 X75.350 Y84.650 E37.82307
G1 X75.350 Y95.297 E38.93904
G1 X75.350 Y95.700 F7800.000
G1 X55.975 Y95.975 F7800.000
G1 X44.025 Y95.975 E40.19151 F540.000
G1 X44.025 Y84.025 E41.44397
G1 X55.975 Y84.025 E42.69644
G1 X55.975 Y95.922 E43.94340
G1 X55.350 Y95.350 F7800.000
G1 X44.650 Y95.350 E45.06488 F378.000
G1 X44.650 Y84.650 E46.18635
G1 X55.350 Y84.650 E47.30783
G1 X55.350 Y95.297 E48.42380
G1 X55.350 Y95.700 F7800.000
G1 X35.975 Y97.025 F7800.000
G1 X35.975 Y82.975 E49.89642 F540.000
G1 X144.025 Y82.975 E61.22125
G1 X144.025 Y97.025 E62.69386
G1 X36.027 Y97.025 E74.01319
G1 X35.350 Y97.650 F7800.000
G1 X35.350 Y82.350 E75.61680 F378.000
G1 X144.650 Y82.350 E87.07262
G1 X144.650 Y97.650 E88.67622
G1 X35.403 Y97.650 E100.12654
G1 X35.525 Y97.347 F7800.000
G1 X36.408 Y96.552 F7800.000
G1 X36.448 Y96.592 E100.13247 F1080.000
G1 X37.356 Y96.592 E100.22764
G1 X36.408 Y95.644 E100.36815
G1 X36.408 Y94.736 E100.46332
G1 X38.264 Y96.592 E100.73843
G1 X39.172 Y96.592 E100.83359
G1 X36.408 Y93.828 E101.24329
G1 X36.408 Y92.920 E101.33845
G1 X40.080 Y96.592 E101.88273
G1 X40.988 Y96.592 E101.97790
G1 X36.408 Y92.012 E102.65677
G1 X36.408 Y91.104 E102.75194
G1 X41.896 Y96.592 E103.56539
G1 X42.804 Y96.592 E103.66056
G1 X36.408 Y90.196 E104.60860
G1 X36.408 Y89.288 E104.70377
G1 X43.280 Y96.160 E105.72233
G1 X43.592 Y95.564 E105.79282
G1 X36.408 Y88.380 E106.85769
G1 X36.408 Y87.472 E106.95286
G1 X43.592 Y94.656 E108.01773
G1 X43.592 Y93.748 E108.11290
G1 X36.408 Y86.564 E109.17777
G1 X36.408 Y85.656 E109.27294
G1 X43.592 Y92.840 E110.33782
G1 X43.592 Y91.932 E110.43298
G1 X36.408 Y84.748 E111.49786
G1 X36.408 Y83.840 E111.59302
G1 X43.592 Y91.024 E112.65790
G1 X43.592 Y90.116 E112.75306
G1 X36.884 Y83.408 E113.74742
G1 X37.792 Y83.408 E113.84259
G1 X43.592 Y89.208 E114.70235
G1 X43.592 Y88.300 E114.79752
G1 X38.700 Y83.408 E115.52270
G1 X39.608 Y83.408 E115.61786
G1 X43.592 Y87.392 E116.20845
G1 X43.592 Y86.484 E116.30362
G1 X40.516 Y83.408 E116.75962
G1 X41.424 Y83.408 E116.85479
G1 X43.592 Y85.576 E117.17621
G1 X43.592 Y84.668 E117.27137
G1 X42.332 Y83.408 E117.45820
G1 X43.280 Y83.448 E117.55765
G1 X43.240 Y83.408 E117.56358
G1 X43.713 Y83.500 F7800.000
G1 X56.287 Y83.500 E118.30177 F360.000
G1 X63.240 Y83.408 F7800.000
G1 X63.280 Y83.448 E118.30769 F1080.000
G1 X62.346 Y83.408 E118.40566
G1 X63.592 Y84.654 E118.59038
G1 X63.592 Y85.548 E118.68406
G1 X61.452 Y83.408 E119.00126
G1 X60.558 Y83.408 E119.09494
G1 X63.592 Y86.442 E119.54463
G1 X63.592 Y87.336 E119.63831
G1 X59.664 Y83.408 E120.22048
G1 X58.771 Y83.408 E120.31416
G1 X63.592 Y88.229 E121.02881
G1 X63.592 Y89.123 E121.12249
G1 X57.877 Y83.408 E121.96962
G1 X56.983 Y83.408 E122.06330
G1 X63.592 Y90.017 E123.04292
G1 X63.592 Y90.911 E123.13660
G1 X56.720 Y84.039 E124.15516
G1 X56.408 Y84.620 E124.22434
G1 X63.592 Y91.804 E125.28921
G1 X63.592 Y92.698 E125.38289
G1 X56.408 Y85.514 E126.44776
G1 X56.408 Y86.408 E126.54144
G1 X63.592 Y93.592 E127.60631
G1 X63.592 Y94.486 E127.69999
G1 X56.408 Y87.302 E128.76487
G1 X56.408 Y88.196 E128.85855
G1 X63.592 Y95.380 E129.92342
G1 X63.280 Y95.961 E129.99259
G1 X56.408 Y89.089 E131.01116
G1 X56.408 Y89.983 E131.10484
G1 X63.017 Y96.592 E132.08445
G1 X62.123 Y96.592 E132.17813
G1 X56.408 Y90.877 E133.02527
G1 X56.408 Y91.771 E133.11895
G1 X61.229 Y96.592 E133.83360
G1 X60.336 Y96.592 E133.92728
G1 X56.408 Y92.664 E134.50945
G1 X56.408 Y93.558 E134.60313
G1 X59.442 Y96.592 E135.05282
G1 X58.548 Y96.592 E135.14649
G1 X56.408 Y94.452 E135.46370
G1 X56.408 Y95.346 E135.55738
G1 X57.654 Y96.592 E135.74210
G1 X56.760 Y96.592 E135.83578
G1 X56.720 Y96.552 E135.84171
G1 X63.713 Y83.500 F7800.000
G1 X76.287 Y83.500 E136.57990 F360.000
G1 X83.240 Y83.408 F7800.000
G1 X83.280 Y83.448 E136.58583 F1080.000
G1 X82.346 Y83.408 E136.68379
G1 X83.592 Y84.654 E136.86851
G1 X83.592 Y85.548 E136.96219
G1 X81.452 Y83.408 E137.27939
G1 X80.558 Y83.408 E137.37307
G1 X83.592 Y86.442 E137.82276
G1 X83.592 Y87.336 E137.91644
G1 X79.664 Y83.408 E138.49861
G1 X78.771 Y83.408 E138.59229
G1 X83.592 Y88.229 E139.30694
G1 X83.592 Y89.123 E139.40062
G1 X77.877 Y83.408 E140.24775
G1 X76.983 Y83.408 E140.34143
G1 X83.592 Y90.017 E141.32105
G1 X83.592 Y90.911 E141.41473
G1 X76.720 Y84.039 E142.43329
G1 X76.408 Y84.620 E142.50247
G1 X83.592 Y91.804 E143.56734
G1 X83.592 Y92.698 E143.66102
G1 X76.408 Y85.514 E144.72589
G1 X76.408 Y86.408 E144.81957
G1 X83.592 Y93.592 E145.88444
G1 X83.592 Y94.486 E145.97812
G1 X76.408 Y87.302 E147.04300
G1 X76.408 Y88.196 E147.13668
G1 X83.592 Y95.380 E148.20155
G1 X83.280 Y95.961 E148.27072
G1 X76.408 Y89.089 E149.28929
G1 X76.408 Y89.983 E149.38296
G1 X83.017 Y96.592 E150.36258
G1 X82.123 Y96.592 E150.45626
G1 X76.408 Y90.877 E151.30340
G1 X76.408 Y91.771 E151.39708
G1 X81.229 Y96.592 E152.11173
G1 X80.336 Y96.592 E152.20541
G1 X76.408 Y92.664 E152.78758
G1 X76.408 Y93.558 E152.88126
G1 X79.442 Y96.592 E153.33094
G1 X78.548 Y96.592 E153.42462
G1 X76.408 Y94.452 E153.74183
G1 X76.408 Y95.346 E153.83551
G1 X77.654 Y96.592 E154.02023
G1 X76.760 Y96.592 E154.11391
G1 X76.720 Y96.552 E154.11984
G1 X83.713 Y83.500 F7800.000
G1 X96.287 Y83.500 E154.85802 F360.000
G1 X103.240 Y83.408 F7800.000
G1 X103.280 Y83.448 E154.86395 F1080.000
G1 X102.346 Y83.408 E154.96191
G1 X103.592 Y84.654 E155.14664
G1 X103.592 Y85.548 E155.24032
G1 X101.452 Y83.408 E155.55752
G1 X100.558 Y83.408 E155.65120
G1 X103.592 Y86.442 E156.10089
G1 X103.592 Y87.336 E156.19457
G1 X99.664 Y83.408 E156.77674
G1 X98.771 Y83.408 E156.87042
G1 X103.592 Y88.229 E157.58507
G1 X103.592 Y89.123 E157.67875
G1 X97.877 Y83.408 E158.52588
G1 X96.983 Y83.408 E158.61956
G1 X103.592 Y90.017 E159.59918
G1 X103.592 Y90.911 E159.69286
G1 X96.720 Y84.039 E160.71142
G1 X96.408 Y84.620 E160.78060
G1 X103.592 Y91.805 E161.84547
G1 X103.592 Y92.698 E161.93915
G1 X96.408 Y85.514 E163.00402
G1 X96.408 Y86.408 E163.09770
G1 X103.592 Y93.592 E164.16257
G1 X103.592 Y94.486 E164.25625
G1 X96.408 Y87.302 E165.32113
G1 X96.408 Y88.196 E165.41481
G1 X103.592 Y95.380 E166.47968
G1 X103.280 Y95.961 E166.54885
G1 X96.408 Y89.089 E167.56742
G1 X96.408 Y89.983 E167.66109
G1 X103.017 Y96.592 E168.64071
G1 X102.123 Y96.592 E168.73439
G1 X96.408 Y90.877 E169.58153
G1 X96.408 Y91.771 E169.67521
G1 X101.229 Y96.592 E170.38986
G1 X100.336 Y96.592 E170.48354
G1 X96.408 Y92.664 E171.06571
G1 X96.408 Y93.558 E171.15939
G1 X99.442 Y96.592 E171.60907
G1 X98.548 Y96.592 E171.70275
G1 X96.408 Y94.452 E172.01996
G1 X96.408 Y95.346 E172.11364
G1 X97.654 Y96.592 E172.29836
G1 X96.760 Y96.592 E172.39204
G1 X96.720 Y96.552 E172.39797
G1 X103.713 Y83.500 F7800.000
G1 X116.287 Y83.500 E173.13616 F360.000
G1 X123.240 Y83.408 F7800.000
G1 X123.280 Y83.448 E173.14208 F1080.000
G1 X122.346 Y83.408 E173.24005
G1 X123.592 Y84.654 E173.42477
G1 X123.592 Y85.548 E173.51845
G1 X121.452 Y83.408 E173.83565
G1 X120.558 Y83.408 E173.92933
G1 X123.592 Y86.442 E174.37902
G1 X123.592 Y87.336 E174.47270
G1 X119.664 Y83.408 E175.05487
G1 X118.771 Y83.408 E175.14855
G1 X123.592 Y88.229 E175.86320
G1 X123.592 Y89.123 E175.95688
G1 X117.877 Y83.408 E176.80401
G1 X116.983 Y83.408 E176.89769
G1 X123.592 Y90.017 E177.87731
G1 X123.592 Y90.911 E177.97099
G1 X116.720 Y84.039 E178.98955
G1 X116.408 Y84.620 E179.05873
G1 X123.592 Y91.804 E180.12360
G1 X123.592 Y92.698 E180.21728
G1 X116.408 Y85.514 E181.28215
G1 X116.408 Y86.408 E181.37583
G1 X123.592 Y93.592 E182.44071
G1 X123.592 Y94.486 E182.53438
G1 X116.408 Y87.302 E183.59926
G1 X116.408 Y88.196 E183.69294
G1 X123.592 Y95.380 E184.75781
G1 X123.280 Y95.961 E184.82698
G1 X116.408 Y89.089 E185.84555
G1 X116.408 Y89.983 E185.93923
G1 X123.017 Y96.592 E186.91884
G1 X122.123 Y96.592 E187.01252
G1 X116.408 Y90.877 E187.85966
G1 X116.408 Y91.771 E187.95334
G1 X121.229 Y96.592 E188.66799
G1 X120.336 Y96.592 E188.76167
G1 X116.408 Y92.664 E189.34384
G1 X116.408 Y93.558 E189.43752
G1 X119.442 Y96.592 E189.88720
G1 X118.548 Y96.592 E189.98088
G1 X116.408 Y94.452 E190.29809
G1 X116.408 Y95.346 E190.39177
G1 X117.654 Y96.592 E190.57649
G1 X116.760 Y96.592 E190.67017
G1 X116.720 Y96.552 E190.67610
G1 X123.713 Y83.500 F7800.000
G1 X136.287 Y83.500 E191.41429 F360.000
G1 X143.552 Y83.408 F7800.000
G1 X143.592 Y83.448 E191.42021 F1080.000
G1 X143.592 Y84.356 E191.51538
G1 X142.644 Y83.408 E191.65590
G1 X141.736 Y83.408 E191.75107
G1 X143.592 Y85.264 E192.02617
G1 X143.592 Y86.172 E192.12134
G1 X140.828 Y83.408 E192.53103
G1 X139.920 Y83.408 E192.62620
G1 X143.592 Y87.080 E193.17048
G1 X143.592 Y87.988 E193.26565
G1 X139.012 Y83.408 E193.94451
G1 X138.104 Y83.408 E194.03968
G1 X143.592 Y88.896 E194.85313
G1 X143.592 Y89.804 E194.94830
G1 X137.196 Y83.408 E195.89634
G1 X136.720 Y83.840 E195.96372
G1 X143.592 Y90.712 E196.98228
G1 X143.592 Y91.620 E197.07745
G1 X136.408 Y84.436 E198.14232
G1 X136.408 Y85.344 E198.23749
G1 X143.592 Y92.528 E199.30236
G1 X143.592 Y93.436 E199.39753
G1 X136.408 Y86.252 E200.46240
G1 X136.408 Y87.160 E200.55757
G1 X143.592 Y94.344 E201.62244
G1 X143.592 Y95.252 E201.71761
G1 X136.408 Y88.068 E202.78248
G1 X136.408 Y88.976 E202.87765
G1 X143.592 Y96.160 E203.94252
G1 X143.116 Y96.592 E204.00989
G1 X136.408 Y89.884 E205.00425
G1 X136.408 Y90.792 E205.09941
G1 X142.208 Y96.592 E205.95918
G1 X141.300 Y96.592 E206.05435
G1 X136.408 Y91.700 E206.77952
G1 X136.408 Y92.608 E206.87469
G1 X140.392 Y96.592 E207.46528
G1 X139.484 Y96.592 E207.56045
G1 X136.408 Y93.516 E208.01645
G1 X136.408 Y94.424 E208.11162
G1 X138.576 Y96.592 E208.43303
G1 X137.668 Y96.592 E208.52820
G1 X136.408 Y95.332 E208.71503
G1 X136.720 Y96.552 E208.84707
G1 X136.760 Y96.592 E208.85300
G1 X136.287 Y96.500 F7800.000
G1 X123.713 Y96.500 E209.59118 F360.000
G1 X116.287 Y96.500 F7800.000
G1 X103.713 Y96.500 E210.32937 F360.000
G1 X96.287 Y96.500 F7800.000
G1 X83.713 Y96.500 E211.06756 F360.000
G1 X76.287 Y96.500 F7800.000
G1 X63.713 Y96.500 E211.80574 F360.000
G1 X56.287 Y96.500 F7800.000
G1 X43.713 Y96.500 E212.54393 F360.000
G1 F1800.000 E211.54393
G92 E0
G1 Z0.580 F7800.000
G1 X124.475 Y95.525 F7800.000
G1 E1.00000 F1800.000
G1 X124.475 Y84.475 E1.42628 F1800.000
G1 X135.525 Y84.475 E1.85256
G1 X135.525 Y95.525 E2.27883
G1 X124.528 Y95.525 E2.70309
G1 X124.825 Y95.175 F7800.000
G1 X124.825 Y84.825 E3.10236 F1260.000
G1 X135.175 Y84.825 E3.50163
G1 X135.175 Y95.175 E3.90091
G1 X124.878 Y95.175 E4.29816
G1 X124.475 Y95.175 F7800.000
G1 X115.525 Y95.525 F7800.000
G1 X104.475 Y95.525 E4.72444 F1800.000
G1 X104.475 Y84.475 E5.15071
G1 X115.525 Y84.475 E5.57699
G1 X115.525 Y95.472 E6.00124
G1 X115.175 Y95.175 F7800.000
G1 X104.825 Y95.175 E6.40052 F1260.000
G1 X104.825 Y84.825 E6.79979
G1 X115.175 Y84.825 E7.19907
G1 X115.175 Y95.123 E7.59632
G1 X115.175 Y95.525 F7800.000
G1 X95.525 Y95.525 F7800.000
G1 X84.475 Y95.525 E8.02259 F1800.000
G1 X84.475 Y84.475 E8.44887
G1 X95.525 Y84.475 E8.87515
G1 X95.525 Y95.472 E9.29940
G1 X95.175 Y95.175 F7800.000
G1 X84.825 Y95.175 E9.69868 F1260.000
G1 X84.825 Y84.825 E10.09795
G1 X95.175 Y84.825 E10.49722
G1 X95.175 Y95.123 E10.89447
G1 X95.175 Y95.525 F7800.000
G1 X75.525 Y95.525 F7800.000
G1 X64.475 Y95.525 E11.32075 F1800.000
G1 X64.475 Y84.475 E11.74703
G1 X75.525 Y84.475 E12.17331
G1 X75.525 Y95.472 E12.59756
G1 X75.175 Y95.175 F7800.000
G1 X64.825 Y95.175 E12.99683 F1260.000
G1 X64.825 Y84.825 E13.39611
G1 X75.175 Y84.825 E13.79538
G1 X75.175 Y95.123 E14.19263
G1 X75.175 Y95.525 F7800.000
G1 X55.525 Y95.525 F7800.000
G1 X44.475 Y95.525 E14.61891 F1800.000
G1 X44.475 Y84.475 E15.04519
G1 X55.525 Y84.475 E15.47146
G1 X55.525 Y95.472 E15.89572
G1 X55.175 Y95.175 F7800.000
G1 X44.825 Y95.175 E16.29499 F1260.000
G1 X44.825 Y84.825 E16.69427
G1 X55.175 Y84.825 E17.09354
G1 X55.175 Y95.123 E17.49079
G1 X55.175 Y95.525 F7800.000
G1 X35.525 Y97.475 F7800.000
G1 X35.525 Y82.525 E18.06752 F1800.000
G1 X144.475 Y82.525 E22.27050
G1 X144.475 Y97.475 E22.84723
G1 X35.577 Y97.475 E27.04820
G1 X35.175 Y97.825 F7800.000
G1 X35.175 Y82.175 E27.65193 F1260.000
G1 X144.825 Y82.175 E31.88192
G1 X144.825 Y97.825 E32.48565
G1 X35.228 Y97.825 E36.71362
G1 X35.350 Y97.522 F7800.000
G1 X35.814 Y82.774 F7800.000
G1 X35.774 Y82.814 E36.71623 F3600.000
G1 X35.774 Y83.407 E36.74358
G1 X36.407 Y82.774 E36.78488
G1 X37.001 Y82.774 E36.81224
G1 X35.774 Y84.001 E36.89222
G1 X35.774 Y84.594 E36.91958
G1 X37.594 Y82.774 E37.03826
G1 X38.188 Y82.774 E37.06561
G1 X35.774 Y85.188 E37.22298
G1 X35.774 Y85.781 E37.25034
G1 X38.781 Y82.774 E37.44639
G1 X39.374 Y82.774 E37.47375
G1 X35.774 Y86.374 E37.70849
G1 X35.774 Y86.968 E37.73584
G1 X39.968 Y82.774 E38.00928
G1 X40.561 Y82.774 E38.03663
G1 X35.774 Y87.561 E38.34875
G1 X35.774 Y88.154 E38.37611
G1 X41.154 Y82.774 E38.72692
G1 X41.748 Y82.774 E38.75428
G1 X35.774 Y88.748 E39.14377
G1 X35.774 Y89.341 E39.17113
G1 X42.341 Y82.774 E39.59932
G1 X42.934 Y82.774 E39.62668
G1 X35.774 Y89.934 E40.09355
G1 X35.774 Y90.528 E40.12091
G1 X43.528 Y82.774 E40.62647
G1 X44.121 Y82.774 E40.65383
G1 X35.774 Y91.121 E41.19809
G1 X35.774 Y91.714 E41.22544
G1 X44.714 Y82.774 E41.80839
G1 X45.308 Y82.774 E41.83574
G1 X35.774 Y92.308 E42.45737
G1 X35.774 Y92.901 E42.48473
G1 X44.226 Y84.449 E43.03583
G1 X44.226 Y85.043 E43.06318
G1 X35.774 Y93.494 E43.61428
G1 X35.774 Y94.088 E43.64163
G1 X44.226 Y85.636 E44.19273
G1 X44.226 Y86.229 E44.22008
G1 X35.774 Y94.681 E44.77118
G1 X35.774 Y95.274 E44.79854
G1 X44.226 Y86.823 E45.34963
G1 X44.226 Y87.416 E45.37699
