; generated by Slic3r 1.1.7 on 2015-04-19 at 23:12:07

; perimeters extrusion width = 0.35mm
; infill extrusion width = 0.44mm
; solid infill extrusion width = 0.44mm
; top infill extrusion width = 0.44mm

G21 ; set units to millimeters
M107
M190 S60 ; wait for bed temperature to be reached
M104 S185 ; set temperature
G28 ; home all axes
G1 Z5 F5000 ; lift nozzle

M109 S185 ; wait for temperature to be reached
G90 ; use absolute coordinates
G92 E0
M82 ; use absolute distances for extrusion
G1 F1800.000 E-1.00000
G92 E0
G1 Z0.350 F7800.000
G1 X26.695 Y26.695 F7800.000
G1 E1.00000 F1800.000
G1 X27.184 Y26.205 E1.07257 F1080.000
G1 X28.809 Y24.889 E1.29172
G1 X29.971 Y24.135 E1.43685
G1 X31.833 Y23.186 E1.65596
G1 X33.126 Y22.690 E1.80113
G1 X35.146 Y22.149 E2.02025
G1 X36.514 Y21.932 E2.16541
G1 X38.601 Y21.822 E2.38453
G1 X39.984 Y21.895 E2.52968
G1 X42.049 Y22.222 E2.74880 F1080.000
G1 X43.387 Y22.580 E2.89395
G1 X45.339 Y23.330 E3.11306
G1 X46.573 Y23.958 E3.25823
G1 X48.915 Y25.528 E3.55378
G1 X127.962 Y90.309 E14.26548
G1 X156.246 Y118.593 E18.45791
G1 X157.563 Y120.471 E18.69829
G1 X158.160 Y122.685 E18.93867
G1 X157.967 Y124.970 E19.17905
G1 X157.006 Y127.053 E19.41942
G1 X156.246 Y127.962 E19.54358
G1 X127.962 Y156.246 E23.73601
G1 X126.084 Y157.563 E23.97639
G1 X123.870 Y158.160 E24.21676
G1 X121.584 Y157.967 E24.45714
G1 X119.502 Y157.006 E24.69752
G1 X118.593 Y156.246 E24.82167
G1 X89.868 Y127.475 E29.08286
G1 X25.097 Y48.326 E39.80221
G1 X23.958 Y46.573 E40.02133
G1 X23.330 Y45.339 E40.16649
G1 X22.580 Y43.387 E40.38560
G1 X22.222 Y42.049 E40.53076
G1 X21.895 Y39.984 E40.74987
G1 X21.822 Y38.601 E40.89503
G1 X21.932 Y36.514 E41.11414
G1 X22.149 Y35.146 E41.25931
G1 X22.690 Y33.126 E41.47842
G1 X23.186 Y31.833 E41.62359
G1 X24.135 Y29.971 E41.84270
G1 X24.889 Y28.809 E41.98784
G1 X26.205 Y27.184 E42.20698
G1 X26.658 Y26.732 E42.27405
G1 F1800.000 E41.27405
G92 E0
G1 X41.963 Y41.963 F7800.000
G1 E1.00000 F1800.000
G1 X39.913 Y43.202 E1.25103 F540.000
G1 X37.523 Y43.347 E1.50206
G1 X35.339 Y42.364 E1.75310
G1 X33.861 Y40.478 E2.00413
G1 X33.430 Y38.122 E2.25516
G1 X34.142 Y35.836 E2.50619
G1 X35.836 Y34.142 E2.75723
G1 X38.122 Y33.430 E3.00826
G1 X40.195 Y33.809 E3.22909
G1 X40.478 Y33.861 E3.25929 F540.000
G1 X42.364 Y35.339 E3.51033
G1 X43.347 Y37.523 E3.76136
G1 X43.202 Y39.913 E4.01239
G1 X41.990 Y41.918 E4.25792
G1 X41.508 Y41.508 F7800.000
G1 X39.722 Y42.588 E4.47667 F378.000
G1 X37.639 Y42.714 E4.69541
G1 X35.735 Y41.857 E4.91416
G1 X34.448 Y40.214 E5.13291
G1 X34.072 Y38.161 E5.35165
G1 X34.693 Y36.169 E5.57040
G1 X36.169 Y34.693 E5.78915
G1 X38.033 Y34.112 E5.99384
G1 X38.161 Y34.072 E6.00790 F378.000
G1 X40.214 Y34.448 E6.22664
G1 X41.857 Y35.735 E6.44538
G1 X42.714 Y37.639 E6.66413
G1 X42.588 Y39.722 E6.88288
G1 X41.535 Y41.463 E7.09612
G1 F1800.000 E6.09612
G92 E0
G1 X37.978 Y33.990 F7800.000
G1 X124.257 Y118.370 F7800.000
G1 E1.00000 F1800.000
G1 X126.149 Y116.479 E1.28032 F540.000
G1 X128.297 Y116.721 E1.50688
G1 X128.806 Y116.779 E1.56063 F540.000
G1 X130.229 Y119.043 E1.84095
G1 X129.346 Y121.568 E2.12126
G1 X126.821 Y122.451 E2.40158
G1 X124.557 Y121.028 E2.68189
G1 X124.263 Y118.423 E2.95671
G1 X124.912 Y118.599 F7800.000
G1 X126.378 Y117.134 E3.17394 F378.000
G1 X128.437 Y117.366 E3.39118
G1 X129.540 Y119.121 E3.60841
G1 X128.855 Y121.077 E3.82564
G1 X126.899 Y121.762 E4.04288
G1 X125.144 Y120.659 E4.26011
G1 X125.101 Y120.279 E4.30023
G1 X124.726 Y118.303 F7800.000
G1 X121.028 Y124.557 F7800.000
G1 X122.451 Y126.821 E4.58055 F540.000
G1 X121.568 Y129.346 E4.86086
G1 X119.043 Y130.229 E5.14118
G1 X116.779 Y128.806 E5.42149
G1 X116.479 Y126.149 E5.70181
G1 X118.370 Y124.257 E5.98212
G1 X120.518 Y124.499 E6.20869
G1 X120.976 Y124.551 E6.25694 F540.000
G1 X120.659 Y125.144 F7800.000
G1 X121.762 Y126.899 E6.47417 F378.000
G1 X121.077 Y128.855 E6.69140
G1 X119.121 Y129.540 E6.90864
G1 X117.366 Y128.437 E7.12587
G1 X117.134 Y126.378 E7.34311
G1 X118.450 Y125.062 E7.53813
G1 X118.600 Y124.912 E7.56034 F378.000
G1 X120.607 Y125.138 E7.77207
G1 X118.245 Y125.007 F7800.000
G1 X103.443 Y116.206 F7800.000
G1 X32.732 Y45.496 E18.25313 F540.000
G1 X32.771 Y45.457 E18.25887
G1 X31.415 Y44.101 E18.45990
G1 X30.388 Y42.519 E18.65753
G1 X29.712 Y40.759 E18.85516
G1 X29.417 Y38.897 E19.05280
G1 X29.516 Y37.014 E19.25044
G1 X30.004 Y35.192 E19.44807
G1 X30.860 Y33.512 E19.64571
G1 X32.047 Y32.047 E19.84334
G1 X33.512 Y30.860 E20.04098
G1 X35.192 Y30.004 E20.23861
G1 X37.014 Y29.516 E20.43625
G1 X38.897 Y29.417 E20.63389
G1 X40.759 Y29.712 E20.83152
G1 X42.519 Y30.388 E21.02916
G1 X44.101 Y31.415 E21.22679
G1 X45.457 Y32.771 E21.42781
G1 X45.496 Y32.732 E21.43355
G1 X116.206 Y103.443 E31.91461
G1 X123.277 Y96.372 E32.96272
G1 X150.183 Y123.277 E36.95080
G1 X123.277 Y150.183 E40.93887
G1 X96.372 Y123.277 E44.92695
G1 X103.406 Y116.243 E45.96955
G1 X102.559 Y116.206 F7800.000
G1 X31.849 Y45.496 E56.45062 F378.000
G1 X31.887 Y45.457 E56.45637
G1 X30.927 Y44.496 E56.59876
G1 X29.828 Y42.805 E56.81017
G1 X29.105 Y40.922 E57.02157
G1 X28.790 Y38.930 E57.23297
G1 X28.895 Y36.915 E57.44437
G1 X29.417 Y34.967 E57.65578
G1 X30.333 Y33.170 E57.86718
G1 X31.602 Y31.602 E58.07858
G1 X33.170 Y30.333 E58.28998
G1 X34.967 Y29.417 E58.50139
G1 X36.915 Y28.895 E58.71279
G1 X38.930 Y28.790 E58.92420
G1 X40.922 Y29.105 E59.13560
G1 X42.805 Y29.828 E59.34700
G1 X44.496 Y30.927 E59.55840
G1 X45.457 Y31.887 E59.70080
G1 X45.496 Y31.849 E59.70654
G1 X116.206 Y102.559 E70.18761
G1 X123.277 Y95.488 E71.23572
G1 X151.067 Y123.277 E75.35479
G1 X123.277 Y151.067 E79.47385
G1 X95.488 Y123.277 E83.59292
G1 X102.522 Y116.243 E84.63552
G1 X102.807 Y115.959 F7800.000
G1 X98.187 Y124.480 F7800.000
G1 X117.535 Y124.480 E86.66337 F1080.000
G1 X116.908 Y125.107 E86.75624
G1 X98.814 Y125.107 E88.65274
G1 X99.440 Y125.734 E88.74561
G1 X116.282 Y125.734 E90.51078
G1 X116.067 Y126.360 E90.58019
G1 X100.067 Y126.360 E92.25720
G1 X100.694 Y126.987 E92.35007
G1 X116.138 Y126.987 E93.96882
G1 X116.209 Y127.613 E94.03490
G1 X101.320 Y127.613 E95.59538
G1 X101.947 Y128.240 E95.68824
G1 X116.279 Y128.240 E97.19045
G1 X116.350 Y128.866 E97.25653
G1 X102.573 Y128.866 E98.70047
G1 X103.200 Y129.493 E98.79334
G1 X117.057 Y129.493 E100.24578
G1 X118.055 Y130.119 E100.36922
G1 X103.826 Y130.119 E101.86051
G1 X104.453 Y130.746 E101.95338
G1 X142.102 Y130.746 E105.89943
G1 X142.729 Y130.119 E105.99230
G1 X120.668 Y130.119 E108.30448
G1 X121.975 Y129.493 F7800.000
G1 X143.355 Y129.493 E110.54536 F1080.000
G1 X143.982 Y128.866 E110.63823
G1 X122.194 Y128.866 E112.92179
G1 X122.413 Y128.240 E112.99136
G1 X144.608 Y128.240 E115.31762
G1 X145.235 Y127.613 E115.41049
G1 X122.633 Y127.613 E117.77943
G1 X122.852 Y126.987 E117.84900
G1 X145.861 Y126.987 E120.26063
G1 X146.488 Y126.360 E120.35350
G1 X122.673 Y126.360 E122.84961
G1 X122.279 Y125.734 E122.92716
G1 X147.114 Y125.734 E125.53020
G1 X147.741 Y125.107 E125.62307
G1 X121.885 Y125.107 E128.33303
G1 X121.492 Y124.480 E128.41059
G1 X148.368 Y124.480 E131.22748
G1 X148.994 Y123.854 E131.32035
G1 X97.561 Y123.854 E136.71112
G1 X97.034 Y123.227 E136.79690
G1 X149.521 Y123.227 E142.29803
G1 X148.894 Y122.601 E142.39090
G1 X127.704 Y122.601 E144.61182
G1 X126.246 Y122.601 F7800.000
G1 X97.661 Y122.601 E147.60786 F1080.000
G1 X98.287 Y121.974 E147.70073
G1 X125.249 Y121.974 E150.52659
G1 X124.252 Y121.348 E150.65002
G1 X98.914 Y121.348 E153.30570
G1 X99.540 Y120.721 E153.39857
G1 X124.087 Y120.721 E155.97127
G1 X124.016 Y120.095 E156.03735
G1 X100.167 Y120.095 E158.53698
G1 X100.794 Y119.468 E158.62985
G1 X123.945 Y119.468 E161.05641
G1 X123.875 Y118.842 E161.12250
G1 X101.420 Y118.842 E163.47599
G1 X102.047 Y118.215 E163.56886
G1 X123.804 Y118.215 E165.84929
G1 X124.427 Y117.588 E165.94188
G1 X102.673 Y117.588 E168.22191
G1 X103.300 Y116.962 E168.31478
G1 X125.054 Y116.962 E170.59482
G1 X125.680 Y116.335 E170.68769
G1 X103.926 Y116.335 E172.96772
G1 X103.558 Y115.709 E173.04390
G1 X142.002 Y115.709 E177.07327
G1 X141.375 Y115.082 E177.16614
G1 X102.931 Y115.082 E181.19551
G1 X102.305 Y114.456 E181.28838
G1 X140.749 Y114.456 E185.31775
G1 X140.122 Y113.829 E185.41062
G1 X101.678 Y113.829 E189.43999
G1 X101.052 Y113.203 E189.53286
G1 X139.496 Y113.203 E193.56223
G1 X138.869 Y112.576 E193.65510
G1 X100.425 Y112.576 E197.68447
G1 X99.799 Y111.950 E197.77734
G1 X138.243 Y111.950 E201.80671
G1 X137.616 Y111.323 E201.89958
G1 X99.172 Y111.323 E205.92895
G1 X98.545 Y110.696 E206.02182
G1 X136.990 Y110.696 E210.05119
G1 X136.363 Y110.070 E210.14406
G1 X97.919 Y110.070 E214.17343
G1 X97.292 Y109.443 E214.26630
G1 X135.737 Y109.443 E218.29567
G1 X135.110 Y108.817 E218.38854
G1 X96.666 Y108.817 E222.41791
G1 X96.039 Y108.190 E222.51078
G1 X134.483 Y108.190 E226.54015
G1 X133.857 Y107.564 E226.63302
G1 X95.413 Y107.564 E230.66239
G1 X94.786 Y106.937 E230.75526
G1 X133.230 Y106.937 E234.78463
G1 X132.604 Y106.311 E234.87750
G1 X94.160 Y106.311 E238.90686
G1 X93.533 Y105.684 E238.99973
G1 X131.977 Y105.684 E243.02910
G1 X131.351 Y105.058 E243.12197
G1 X92.907 Y105.058 E247.15134
G1 X92.280 Y104.431 E247.24421
G1 X130.724 Y104.431 E251.27358
G1 X123.832 Y97.539 F7800.000
G1 X122.723 Y97.539 E251.38988 F1080.000
G1 X122.096 Y98.166 E251.48275
G1 X124.459 Y98.166 E251.73039
G1 X125.085 Y98.792 E251.82326
G1 X121.470 Y98.792 E252.20223
G1 X120.843 Y99.419 E252.29510
G1 X125.712 Y99.419 E252.80541
G1 X126.338 Y100.045 E252.89828
G1 X120.216 Y100.045 E253.53993
G1 X119.590 Y100.672 E253.63280
G1 X126.965 Y100.672 E254.40578
G1 X127.591 Y101.298 E254.49865
G1 X118.963 Y101.298 E255.40297
G1 X118.337 Y101.925 E255.49584
G1 X128.218 Y101.925 E256.53150
G1 X128.845 Y102.551 E256.62437
G1 X117.710 Y102.551 E257.79137
G1 X117.084 Y103.178 E257.88424
G1 X129.471 Y103.178 E259.18258
G1 X130.098 Y103.804 E259.27545
G1 X91.653 Y103.804 E263.30482
G1 X91.027 Y103.178 E263.39768
G1 X115.329 Y103.178 E265.94481
G1 X114.702 Y102.551 E266.03768
G1 X90.400 Y102.551 E268.58480
G1 X89.774 Y101.925 E268.67767
G1 X114.076 Y101.925 E271.22479
G1 X113.449 Y101.298 E271.31766
G1 X89.147 Y101.298 E273.86478
G1 X88.521 Y100.672 E273.95765
G1 X112.823 Y100.672 E276.50477
G1 X112.196 Y100.045 E276.59764
G1 X87.894 Y100.045 E279.14476
G1 X87.268 Y99.419 E279.23763
G1 X111.570 Y99.419 E281.78475
G1 X110.943 Y98.792 E281.87762
G1 X86.641 Y98.792 E284.42474
G1 X86.015 Y98.166 E284.51761
G1 X110.317 Y98.166 E287.06473
G1 X109.690 Y97.539 E287.15760
G1 X85.388 Y97.539 E289.70472
G1 X84.761 Y96.912 E289.79759
G1 X109.064 Y96.912 E292.34471
G1 X108.437 Y96.286 E292.43758
G1 X84.135 Y96.286 E294.98470
G1 X83.508 Y95.659 E295.07757
G1 X107.810 Y95.659 E297.62470
G1 X107.184 Y95.033 E297.71756
G1 X82.882 Y95.033 E300.26469
G1 X82.255 Y94.406 E300.35756
G1 X106.557 Y94.406 E302.90468
G1 X105.931 Y93.780 E302.99755
G1 X81.629 Y93.780 E305.54467
G1 X81.002 Y93.153 E305.63754
G1 X105.304 Y93.153 E308.18466
G1 X104.678 Y92.527 E308.27753
G1 X80.376 Y92.527 E310.82465
G1 X79.749 Y91.900 E310.91752
G1 X104.051 Y91.900 E313.46464
G1 X103.425 Y91.274 E313.55751
G1 X79.123 Y91.274 E316.10463
G1 X78.496 Y90.647 E316.19750
G1 X102.798 Y90.647 E318.74462
G1 X102.172 Y90.020 E318.83749
G1 X77.869 Y90.020 E321.38461
G1 X77.243 Y89.394 E321.47748
G1 X101.545 Y89.394 E324.02460
G1 X100.918 Y88.767 E324.11747
G1 X76.616 Y88.767 E326.66459
G1 X75.990 Y88.141 E326.75746
G1 X100.292 Y88.141 E329.30458
G1 X99.665 Y87.514 E329.39745
G1 X75.363 Y87.514 E331.94458
G1 X74.737 Y86.888 E332.03745
G1 X99.039 Y86.888 E334.58457
G1 X98.412 Y86.261 E334.67744
G1 X74.110 Y86.261 E337.22456
G1 X73.484 Y85.635 E337.31743
G1 X97.786 Y85.635 E339.86455
G1 X97.159 Y85.008 E339.95742
G1 X72.857 Y85.008 E342.50454
G1 X72.231 Y84.382 E342.59741
G1 X96.533 Y84.382 E345.14453
G1 X95.906 Y83.755 E345.23740
G1 X71.604 Y83.755 E347.78452
G1 X70.977 Y83.128 E347.87739
G1 X95.280 Y83.128 E350.42451
G1 X94.653 Y82.502 E350.51738
G1 X70.351 Y82.502 E353.06450
G1 X69.724 Y81.875 E353.15737
G1 X94.026 Y81.875 E355.70449
G1 X93.400 Y81.249 E355.79736
G1 X69.098 Y81.249 E358.34448
G1 X68.471 Y80.622 E358.43735
G1 X92.773 Y80.622 E360.98448
G1 X92.147 Y79.996 E361.07734
G1 X67.845 Y79.996 E363.62447
G1 X67.218 Y79.369 E363.71734
G1 X91.520 Y79.369 E366.26446
G1 X90.894 Y78.743 E366.35733
G1 X66.592 Y78.743 E368.90445
G1 X65.965 Y78.116 E368.99732
G1 X90.267 Y78.116 E371.54444
G1 X89.641 Y77.490 E371.63731
G1 X65.339 Y77.490 E374.18443
G1 X64.712 Y76.863 E374.27730
G1 X89.014 Y76.863 E376.82442
G1 X88.388 Y76.236 E376.91729
G1 X64.085 Y76.236 E379.46441
G1 X63.459 Y75.610 E379.55728
G1 X87.761 Y75.610 E382.10440
G1 X87.134 Y74.983 E382.19727
G1 X62.832 Y74.983 E384.74439
G1 X62.206 Y74.357 E384.83726
G1 X86.508 Y74.357 E387.38438
G1 X85.881 Y73.730 E387.47725
G1 X61.579 Y73.730 E390.02437
G1 X60.953 Y73.104 E390.11724
G1 X85.255 Y73.104 E392.66437
G1 X84.628 Y72.477 E392.75724
G1 X60.326 Y72.477 E395.30436
G1 X59.700 Y71.851 E395.39723
G1 X84.002 Y71.851 E397.94435
G1 X83.375 Y71.224 E398.03722
G1 X59.073 Y71.224 E400.58434
G1 X58.447 Y70.598 E400.67721
G1 X82.749 Y70.598 E403.22433
G1 X82.122 Y69.971 E403.31720
G1 X57.820 Y69.971 E405.86432
G1 X57.193 Y69.344 E405.95719
G1 X81.496 Y69.344 E408.50431
G1 X80.869 Y68.718 E408.59718
G1 X56.567 Y68.718 E411.14430
G1 X55.940 Y68.091 E411.23717
G1 X80.242 Y68.091 E413.78429
G1 X79.616 Y67.465 E413.87716
G1 X55.314 Y67.465 E416.42428
G1 X54.687 Y66.838 E416.51715
G1 X78.989 Y66.838 E419.06428
G1 X78.363 Y66.212 E419.15714
G1 X54.061 Y66.212 E421.70427
G1 X53.434 Y65.585 E421.79714
G1 X77.736 Y65.585 E424.34426
G1 X77.110 Y64.959 E424.43713
G1 X52.808 Y64.959 E426.98425
G1 X52.181 Y64.332 E427.07712
G1 X76.483 Y64.332 E429.62424
G1 X75.857 Y63.706 E429.71711
G1 X51.555 Y63.706 E432.26423
G1 X50.928 Y63.079 E432.35710
G1 X75.230 Y63.079 E434.90422
G1 X74.604 Y62.452 E434.99709
G1 X50.301 Y62.452 E437.54421
G1 X49.675 Y61.826 E437.63708
G1 X73.977 Y61.826 E440.18420
G1 X73.350 Y61.199 E440.27707
G1 X49.048 Y61.199 E442.82419
G1 X48.422 Y60.573 E442.91706
G1 X72.724 Y60.573 E445.46418
G1 X72.097 Y59.946 E445.55705
G1 X47.795 Y59.946 E448.10418
G1 X47.169 Y59.320 E448.19705
G1 X71.471 Y59.320 E450.74417
G1 X70.844 Y58.693 E450.83704
G1 X46.542 Y58.693 E453.38416
G1 X45.916 Y58.067 E453.47703
G1 X70.218 Y58.067 E456.02415
G1 X69.591 Y57.440 E456.11702
G1 X45.289 Y57.440 E458.66414
G1 X44.663 Y56.814 E458.75701
G1 X68.965 Y56.814 E461.30413
G1 X68.338 Y56.187 E461.39700
G1 X44.036 Y56.187 E463.94412
G1 X43.409 Y55.560 E464.03699
G1 X67.712 Y55.560 E466.58411
G1 X67.085 Y54.934 E466.67698
G1 X42.783 Y54.934 E469.22410
G1 X42.156 Y54.307 E469.31697
G1 X66.458 Y54.307 E471.86409
G1 X65.832 Y53.681 E471.95696
G1 X41.530 Y53.681 E474.50409
G1 X40.903 Y53.054 E474.59696
G1 X65.205 Y53.054 E477.14408
G1 X64.579 Y52.428 E477.23695
G1 X40.277 Y52.428 E479.78407
G1 X39.650 Y51.801 E479.87694
G1 X63.952 Y51.801 E482.42406
G1 X63.326 Y51.175 E482.51693
G1 X39.024 Y51.175 E485.06405
G1 X38.397 Y50.548 E485.15692
G1 X62.699 Y50.548 E487.70404
G1 X62.073 Y49.922 E487.79691
G1 X37.771 Y49.922 E490.34403
G1 X37.144 Y49.295 E490.43690
G1 X61.446 Y49.295 E492.98402
G1 X60.820 Y48.668 E493.07689
G1 X36.517 Y48.668 E495.62401
G1 X35.891 Y48.042 E495.71688
G1 X60.193 Y48.042 E498.26401
G1 X59.566 Y47.415 E498.35688
G1 X35.264 Y47.415 E500.90400
G1 X34.638 Y46.789 E500.99687
G1 X58.940 Y46.789 E503.54399
G1 X58.313 Y46.162 E503.63686
G1 X34.011 Y46.162 E506.18398
G1 X33.385 Y45.536 E506.27685
G1 X57.687 Y45.536 E508.82397
G1 X57.060 Y44.909 E508.91684
G1 X32.836 Y44.909 E511.45584
G1 X32.209 Y44.283 E511.54871
G1 X56.434 Y44.283 E514.08771
G1 X45.782 Y33.631 F7800.000
G1 X40.887 Y33.631 E514.60082 F1080.000
G1 X41.687 Y34.258 E514.70730
G1 X46.409 Y34.258 E515.20226
G1 X47.036 Y34.884 E515.29513
G1 X42.486 Y34.884 E515.77193
G1 X42.916 Y35.511 E515.85157
G1 X47.662 Y35.511 E516.34899
G1 X48.289 Y36.138 E516.44186
G1 X43.198 Y36.138 E516.97538
G1 X43.480 Y36.764 E517.04740
G1 X48.915 Y36.764 E517.61704
G1 X49.542 Y37.391 E517.70991
G1 X43.762 Y37.391 E518.31566
G1 X43.751 Y38.017 E518.38134
