; generated by Slic3r 1.1.7 on 2015-04-16 at 21:52:36

; perimeters extrusion width = 0.35mm
; infill extrusion width = 0.44mm
; solid infill extrusion width = 0.44mm
; top infill extrusion width = 0.44mm

G21 ; set units to millimeters
M107
M190 S65 ; wait for bed temperature to be reached
M104 S185 ; set temperature
G28 ; home all axes
G1 Z5 F5000 ; lift nozzle

M109 S185 ; wait for temperature to be reached
G90 ; use absolute coordinates
G92 E0
M82 ; use absolute distances for extrusion
G1 F1800.000 E-1.00000
G92 E0
G1 Z0.350 F7800.000
G1 X31.668 Y76.774 F7800.000
G1 E1.00000 F1800.000
G1 X33.820 Y75.981 E1.24038 F1080.000
G1 X35.000 Y75.875 E1.36453
G1 X145.000 Y75.875 E12.89372
G1 X147.259 Y76.272 E13.13410
G1 X149.247 Y77.415 E13.37448 F1080.000
G1 X150.726 Y79.168 E13.61485
G1 X151.519 Y81.320 E13.85523
G1 X151.625 Y82.500 E13.97938
G1 X151.625 Y97.500 E15.55155
G1 X151.228 Y99.759 E15.79192
G1 X150.085 Y101.747 E16.03230
G1 X148.332 Y103.226 E16.27268
G1 X146.180 Y104.019 E16.51306
G1 X145.000 Y104.125 E16.63721
G1 X35.000 Y104.125 E28.16640
G1 X32.741 Y103.728 E28.40678
G1 X30.753 Y102.585 E28.64716
G1 X29.274 Y100.832 E28.88753
G1 X28.481 Y98.680 E29.12791
G1 X28.375 Y97.500 E29.25206
G1 X28.375 Y82.500 E30.82423
G1 X28.772 Y80.241 E31.06460
G1 X29.915 Y78.253 E31.30498
G1 X31.628 Y76.808 E31.53986
G1 F1800.000 E30.53986
G92 E0
G1 X135.975 Y93.975 F7800.000
G1 E1.00000 F1800.000
G1 X124.025 Y93.975 E2.25247 F540.000
G1 X124.025 Y86.025 E3.08569
G1 X135.975 Y86.025 E4.33815
G1 X135.975 Y93.922 E5.16587
G1 X135.350 Y93.350 F7800.000
G1 X124.650 Y93.350 E6.28735 F378.000
G1 X124.650 Y86.650 E6.98958
G1 X135.350 Y86.650 E8.11106
G1 X135.350 Y93.297 E8.80779
G1 X135.350 Y93.700 F7800.000
G1 X115.975 Y93.975 F7800.000
G1 X104.025 Y93.975 E10.06025 F540.000
G1 X104.025 Y86.025 E10.89348
G1 X115.975 Y86.025 E12.14594
G1 X115.975 Y93.922 E12.97366
G1 X115.350 Y93.350 F7800.000
G1 X104.650 Y93.350 E14.09514 F378.000
G1 X104.650 Y86.650 E14.79737
G1 X115.350 Y86.650 E15.91884
G1 X115.350 Y93.297 E16.61557
G1 X115.350 Y93.700 F7800.000
G1 X95.975 Y93.975 F7800.000
G1 X84.025 Y93.975 E17.86804 F540.000
G1 X84.025 Y86.025 E18.70126
G1 X95.975 Y86.025 E19.95373
G1 X95.975 Y93.922 E20.78145
G1 X95.350 Y93.350 F7800.000
G1 X84.650 Y93.350 E21.90292 F378.000
G1 X84.650 Y86.650 E22.60516
G1 X95.350 Y86.650 E23.72663
G1 X95.350 Y93.297 E24.42336
G1 X95.350 Y93.700 F7800.000
G1 X75.975 Y93.975 F7800.000
G1 X64.025 Y93.975 E25.67583 F540.000
G1 X64.025 Y86.025 E26.50905
G1 X75.975 Y86.025 E27.76152
G1 X75.975 Y93.922 E28.58924
G1 X75.350 Y93.350 F7800.000
G1 X64.650 Y93.350 E29.71071 F378.000
G1 X64.650 Y86.650 E30.41294
G1 X75.350 Y86.650 E31.53442
G1 X75.350 Y93.297 E32.23115
G1 X75.350 Y93.700 F7800.000
G1 X55.975 Y93.975 F7800.000
G1 X44.025 Y93.975 E33.48362 F540.000
G1 X44.025 Y86.025 E34.31684
G1 X55.975 Y86.025 E35.56930
G1 X55.975 Y93.922 E36.39702
G1 X55.350 Y93.350 F7800.000
G1 X44.650 Y93.350 E37.51850 F378.000
G1 X44.650 Y86.650 E38.22073
G1 X55.350 Y86.650 E39.34221
G1 X55.350 Y93.297 E40.03894
G1 X55.350 Y93.700 F7800.000
G1 X35.975 Y96.525 F7800.000
G1 X35.975 Y83.475 E41.40674 F540.000
G1 X144.025 Y83.475 E52.73157
G1 X144.025 Y96.525 E54.09938
G1 X36.027 Y96.525 E65.41870
G1 X35.350 Y97.150 F7800.000
G1 X35.350 Y82.850 E66.91750 F378.000
G1 X144.650 Y82.850 E78.37332
G1 X144.650 Y97.150 E79.87212
G1 X35.403 Y97.150 E91.32243
G1 X35.525 Y96.847 F7800.000
G1 X36.448 Y96.092 F7800.000
G1 X36.408 Y96.052 E91.32836 F1080.000
G1 X36.408 Y95.162 E91.42167
G1 X37.338 Y96.092 E91.55955
G1 X38.228 Y96.092 E91.65285
G1 X36.408 Y94.272 E91.92268
G1 X36.408 Y93.381 E92.01599
G1 X39.119 Y96.092 E92.41777
G1 X40.009 Y96.092 E92.51107
G1 X36.408 Y92.491 E93.04481
G1 X36.408 Y91.601 E93.13811
G1 X40.899 Y96.092 E93.80380
G1 X41.789 Y96.092 E93.89710
G1 X36.408 Y90.711 E94.69474
G1 X36.408 Y89.821 E94.78804
G1 X42.679 Y96.092 E95.71763
G1 X43.570 Y96.092 E95.81094
G1 X36.408 Y88.930 E96.87248
G1 X36.408 Y88.040 E96.96578
G1 X44.460 Y96.092 E98.15927
G1 X45.350 Y96.092 E98.25258
G1 X43.666 Y94.408 E98.50221
G1 X44.556 Y94.408 E98.59552
G1 X46.240 Y96.092 E98.84515
G1 X47.130 Y96.092 E98.93846
G1 X45.446 Y94.408 E99.18809
G1 X46.336 Y94.408 E99.28140
G1 X48.021 Y96.092 E99.53103
G1 X48.911 Y96.092 E99.62434
G1 X47.227 Y94.408 E99.87397
G1 X48.117 Y94.408 E99.96728
G1 X49.801 Y96.092 E100.21691
G1 X50.691 Y96.092 E100.31022
G1 X49.007 Y94.408 E100.55985
G1 X49.897 Y94.408 E100.65316
G1 X51.582 Y96.092 E100.90279
G1 X52.472 Y96.092 E100.99610
G1 X50.788 Y94.408 E101.24573
G1 X51.678 Y94.408 E101.33904
G1 X53.362 Y96.092 E101.58867
G1 X54.252 Y96.092 E101.68198
G1 X52.568 Y94.408 E101.93161
G1 X53.458 Y94.408 E102.02492
G1 X55.142 Y96.092 E102.27455
G1 X56.033 Y96.092 E102.36786
G1 X54.348 Y94.408 E102.61749
G1 X55.239 Y94.408 E102.71079
G1 X56.923 Y96.092 E102.96043
G1 X57.813 Y96.092 E103.05373
G1 X56.129 Y94.408 E103.30337
G1 X56.408 Y93.797 E103.37379
G1 X58.703 Y96.092 E103.71400
G1 X59.593 Y96.092 E103.80731
G1 X56.408 Y92.907 E104.27948
G1 X56.408 Y92.016 E104.37278
G1 X60.484 Y96.092 E104.97690
G1 X61.374 Y96.092 E105.07021
G1 X56.408 Y91.126 E105.80628
G1 X56.408 Y90.236 E105.89958
G1 X62.264 Y96.092 E106.76761
G1 X63.154 Y96.092 E106.86091
G1 X56.408 Y89.346 E107.86089
G1 X56.408 Y88.456 E107.95419
G1 X64.044 Y96.092 E109.08612
G1 X55.325 Y85.592 F7800.000
G1 X53.641 Y83.908 E109.33576 F1080.000
G1 X52.751 Y83.908 E109.42906
G1 X54.435 Y85.592 E109.67870
G1 X53.544 Y85.592 E109.77200
G1 X51.860 Y83.908 E110.02164
G1 X50.970 Y83.908 E110.11494
G1 X52.654 Y85.592 E110.36458
G1 X51.764 Y85.592 E110.45788
G1 X50.080 Y83.908 E110.70752
G1 X49.190 Y83.908 E110.80082
G1 X50.874 Y85.592 E111.05046
G1 X49.984 Y85.592 E111.14376
G1 X48.299 Y83.908 E111.39340
G1 X47.409 Y83.908 E111.48670
G1 X49.093 Y85.592 E111.73634
G1 X48.203 Y85.592 E111.82964
G1 X46.519 Y83.908 E112.07928
G1 X45.629 Y83.908 E112.17258
G1 X47.313 Y85.592 E112.42222
G1 X46.423 Y85.592 E112.51552
G1 X44.739 Y83.908 E112.76516
G1 X43.848 Y83.908 E112.85846
G1 X45.533 Y85.592 E113.10810
G1 X44.642 Y85.592 E113.20140
G1 X42.958 Y83.908 E113.45104
G1 X42.068 Y83.908 E113.54434
G1 X43.752 Y85.592 E113.79397
G1 X43.592 Y86.322 E113.87232
G1 X41.178 Y83.908 E114.23018
G1 X40.288 Y83.908 E114.32349
G1 X43.592 Y87.212 E114.81330
G1 X43.592 Y88.103 E114.90661
G1 X39.397 Y83.908 E115.52837
G1 X38.507 Y83.908 E115.62167
G1 X43.592 Y88.993 E116.37539
G1 X43.592 Y89.883 E116.46870
G1 X37.617 Y83.908 E117.35437
G1 X36.727 Y83.908 E117.44767
G1 X43.592 Y90.773 E118.46529
G1 X43.592 Y91.664 E118.55859
G1 X36.408 Y84.479 E119.62347
G1 X36.408 Y85.370 E119.71677
G1 X43.592 Y92.554 E120.78164
G1 X43.592 Y93.444 E120.87495
G1 X36.408 Y86.260 E121.93982
G1 X36.408 Y87.150 E122.03312
G1 X43.592 Y94.334 E123.09800
G1 X83.592 Y94.275 F7800.000
G1 X76.408 Y87.090 E124.16287 F1080.000
G1 X76.408 Y86.200 E124.25617
G1 X83.592 Y93.384 E125.32105
G1 X83.592 Y92.494 E125.41435
G1 X75.006 Y83.908 E126.68705
G1 X74.116 Y83.908 E126.78036
G1 X75.800 Y85.592 E127.02999
G1 X74.910 Y85.592 E127.12330
G1 X73.225 Y83.908 E127.37293
G1 X72.335 Y83.908 E127.46624
G1 X74.019 Y85.592 E127.71587
G1 X73.129 Y85.592 E127.80918
G1 X71.445 Y83.908 E128.05881
G1 X70.555 Y83.908 E128.15212
G1 X72.239 Y85.592 E128.40175
G1 X71.349 Y85.592 E128.49506
G1 X69.665 Y83.908 E128.74469
G1 X68.774 Y83.908 E128.83800
G1 X70.458 Y85.592 E129.08763
G1 X69.568 Y85.592 E129.18093
G1 X67.884 Y83.908 E129.43057
G1 X66.994 Y83.908 E129.52388
G1 X68.678 Y85.592 E129.77351
G1 X67.788 Y85.592 E129.86682
G1 X66.104 Y83.908 E130.11645
G1 X65.213 Y83.908 E130.20976
G1 X66.898 Y85.592 E130.45939
G1 X66.007 Y85.592 E130.55270
G1 X64.323 Y83.908 E130.80233
G1 X63.433 Y83.908 E130.89564
G1 X65.117 Y85.592 E131.14527
G1 X64.227 Y85.592 E131.23858
G1 X62.543 Y83.908 E131.48821
G1 X61.653 Y83.908 E131.58152
G1 X63.592 Y85.847 E131.86899
G1 X63.592 Y86.738 E131.96230
G1 X60.762 Y83.908 E132.38172
G1 X59.872 Y83.908 E132.47503
G1 X63.592 Y87.628 E133.02641
G1 X63.592 Y88.518 E133.11971
G1 X58.982 Y83.908 E133.80304
G1 X58.092 Y83.908 E133.89634
G1 X63.592 Y89.408 E134.71163
G1 X63.592 Y90.298 E134.80493
G1 X57.202 Y83.908 E135.75216
G1 X56.311 Y83.908 E135.84547
G1 X63.592 Y91.189 E136.92465
G1 X63.592 Y92.079 E137.01796
G1 X55.421 Y83.908 E138.22909
G1 X54.531 Y83.908 E138.32240
G1 X63.592 Y92.969 E139.66549
G1 X63.592 Y93.859 E139.75879
G1 X56.408 Y86.675 E140.82366
G1 X56.408 Y87.565 E140.91697
G1 X64.935 Y96.092 E142.18085
G1 X65.825 Y96.092 E142.27415
G1 X64.141 Y94.408 E142.52379
G1 X65.031 Y94.408 E142.61709
G1 X66.715 Y96.092 E142.86673
G1 X67.605 Y96.092 E142.96003
G1 X65.921 Y94.408 E143.20967
G1 X66.811 Y94.408 E143.30297
G1 X68.496 Y96.092 E143.55261
G1 X69.386 Y96.092 E143.64591
G1 X67.702 Y94.408 E143.89555
G1 X68.592 Y94.408 E143.98885
G1 X70.276 Y96.092 E144.23849
G1 X71.166 Y96.092 E144.33179
G1 X69.482 Y94.408 E144.58143
G1 X70.372 Y94.408 E144.67473
G1 X72.056 Y96.092 E144.92437
G1 X72.947 Y96.092 E145.01767
G1 X71.262 Y94.408 E145.26731
G1 X72.153 Y94.408 E145.36061
G1 X73.837 Y96.092 E145.61025
G1 X74.727 Y96.092 E145.70355
G1 X73.043 Y94.408 E145.95319
G1 X73.933 Y94.408 E146.04649
G1 X75.617 Y96.092 E146.29613
G1 X76.507 Y96.092 E146.38943
G1 X74.823 Y94.408 E146.63907
G1 X75.713 Y94.408 E146.73237
G1 X77.398 Y96.092 E146.98201
G1 X78.288 Y96.092 E147.07531
G1 X76.408 Y94.212 E147.35396
G1 X76.408 Y93.322 E147.44727
G1 X79.178 Y96.092 E147.85787
G1 X80.068 Y96.092 E147.95118
G1 X76.408 Y92.432 E148.49373
G1 X76.408 Y91.542 E148.58704
G1 X80.958 Y96.092 E149.26155
G1 X81.849 Y96.092 E149.35485
G1 X76.408 Y90.651 E150.16131
G1 X76.408 Y89.761 E150.25461
G1 X82.739 Y96.092 E151.19302
G1 X83.629 Y96.092 E151.28633
G1 X76.408 Y88.871 E152.35669
G1 X76.408 Y87.981 E152.44999
G1 X84.519 Y96.092 E153.65231
G1 X85.410 Y96.092 E153.74561
G1 X83.725 Y94.408 E153.99525
G1 X84.616 Y94.408 E154.08855
G1 X86.300 Y96.092 E154.33819
G1 X87.190 Y96.092 E154.43149
G1 X85.506 Y94.408 E154.68113
G1 X86.396 Y94.408 E154.77443
G1 X88.080 Y96.092 E155.02407
G1 X88.970 Y96.092 E155.11737
G1 X87.286 Y94.408 E155.36701
G1 X88.176 Y94.408 E155.46031
G1 X89.861 Y96.092 E155.70995
G1 X90.751 Y96.092 E155.80325
G1 X89.067 Y94.408 E156.05289
G1 X89.957 Y94.408 E156.14619
G1 X91.641 Y96.092 E156.39583
G1 X92.531 Y96.092 E156.48913
G1 X90.847 Y94.408 E156.73877
G1 X91.737 Y94.408 E156.83207
G1 X93.421 Y96.092 E157.08171
G1 X94.312 Y96.092 E157.17501
G1 X92.627 Y94.408 E157.42465
G1 X93.518 Y94.408 E157.51795
G1 X95.202 Y96.092 E157.76759
G1 X96.092 Y96.092 E157.86089
G1 X94.408 Y94.408 E158.11053
G1 X95.298 Y94.408 E158.20383
G1 X96.982 Y96.092 E158.45347
G1 X97.873 Y96.092 E158.54677
G1 X96.188 Y94.408 E158.79641
G1 X96.408 Y93.737 E158.87037
G1 X98.763 Y96.092 E159.21941
G1 X99.653 Y96.092 E159.31271
G1 X96.408 Y92.847 E159.79371
G1 X96.408 Y91.957 E159.88701
G1 X100.543 Y96.092 E160.49995
G1 X101.433 Y96.092 E160.59326
G1 X96.408 Y91.067 E161.33815
G1 X96.408 Y90.176 E161.43146
G1 X102.324 Y96.092 E162.30830
G1 X103.214 Y96.092 E162.40161
G1 X96.408 Y89.286 E163.41040
G1 X96.408 Y88.396 E163.50371
G1 X104.104 Y96.092 E164.64446
G1 X104.994 Y96.092 E164.73776
G1 X96.408 Y87.506 E166.01046
G1 X96.408 Y86.616 E166.10377
G1 X103.592 Y93.800 E167.16864
G1 X104.200 Y94.408 F7800.000
G1 X105.884 Y96.092 E167.41827 F1080.000
G1 X106.775 Y96.092 E167.51158
G1 X105.090 Y94.408 E167.76121
G1 X105.981 Y94.408 E167.85452
G1 X107.665 Y96.092 E168.10415
G1 X108.555 Y96.092 E168.19746
G1 X106.871 Y94.408 E168.44709
G1 X107.761 Y94.408 E168.54040
G1 X109.445 Y96.092 E168.79003
G1 X110.335 Y96.092 E168.88334
G1 X108.651 Y94.408 E169.13297
G1 X109.542 Y94.408 E169.22628
G1 X111.226 Y96.092 E169.47592
G1 X112.116 Y96.092 E169.56922
G1 X110.432 Y94.408 E169.81886
G1 X111.322 Y94.408 E169.91216
G1 X113.006 Y96.092 E170.16180
G1 X113.896 Y96.092 E170.25510
G1 X112.212 Y94.408 E170.50474
G1 X113.102 Y94.408 E170.59804
G1 X114.787 Y96.092 E170.84767
G1 X115.677 Y96.092 E170.94098
G1 X113.993 Y94.408 E171.19061
G1 X114.883 Y94.408 E171.28392
G1 X116.567 Y96.092 E171.53355
G1 X117.457 Y96.092 E171.62686
G1 X115.773 Y94.408 E171.87650
G1 X116.408 Y94.153 E171.94822
G1 X118.347 Y96.092 E172.23570
G1 X119.238 Y96.092 E172.32900
G1 X116.408 Y93.262 E172.74843
G1 X116.408 Y92.372 E172.84173
G1 X120.128 Y96.092 E173.39311
G1 X121.018 Y96.092 E173.48641
G1 X116.408 Y91.482 E174.16974
G1 X116.408 Y90.592 E174.26305
G1 X121.908 Y96.092 E175.07833
G1 X122.798 Y96.092 E175.17163
G1 X116.408 Y89.702 E176.11887
G1 X116.408 Y88.811 E176.21217
G1 X123.689 Y96.092 E177.29136
G1 F1800.000 E176.29136
G92 E0
G1 X133.760 Y83.908 F7800.000
G1 E1.00000 F1800.000
G1 X135.444 Y85.592 E1.24964 F1080.000
G1 X134.554 Y85.592 E1.34294
G1 X132.870 Y83.908 E1.59258
G1 X131.979 Y83.908 E1.68588
G1 X133.664 Y85.592 E1.93552
G1 X132.773 Y85.592 E2.02882
G1 X131.089 Y83.908 E2.27846
G1 X130.199 Y83.908 E2.37176
G1 X131.883 Y85.592 E2.62140
G1 X130.993 Y85.592 E2.71470
G1 X129.309 Y83.908 E2.96434
G1 X128.418 Y83.908 E3.05764
G1 X130.103 Y85.592 E3.30728
G1 X129.212 Y85.592 E3.40058
G1 X127.528 Y83.908 E3.65022
G1 X126.638 Y83.908 E3.74352
G1 X128.322 Y85.592 E3.99316
G1 X127.432 Y85.592 E4.08646
G1 X125.748 Y83.908 E4.33610
G1 X124.858 Y83.908 E4.42940
G1 X126.542 Y85.592 E4.67904
G1 X125.652 Y85.592 E4.77234
G1 X123.967 Y83.908 E5.02198
G1 X123.077 Y83.908 E5.11528
G1 X124.761 Y85.592 E5.36492
G1 X123.871 Y85.592 E5.45822
G1 X122.187 Y83.908 E5.70786
G1 X121.297 Y83.908 E5.80116
G1 X123.592 Y86.203 E6.14138
G1 X123.592 Y87.093 E6.23468
G1 X120.407 Y83.908 E6.70686
G1 X119.516 Y83.908 E6.80016
G1 X123.592 Y87.984 E7.40428
G1 X123.592 Y88.874 E7.49759
G1 X118.626 Y83.908 E8.23366
G1 X117.736 Y83.908 E8.32696
G1 X123.592 Y89.764 E9.19499
G1 X123.592 Y90.654 E9.28829
G1 X116.846 Y83.908 E10.28827
G1 X115.956 Y83.908 E10.38157
G1 X123.592 Y91.544 E11.51350
G1 X123.592 Y92.435 E11.60681
G1 X115.065 Y83.908 E12.87068
G1 X114.175 Y83.908 E12.96399
G1 X123.592 Y93.325 E14.35982
G1 X123.592 Y94.215 E14.45312
G1 X116.408 Y87.031 E15.51800
G1 X116.408 Y87.921 E15.61130
G1 X124.579 Y96.092 E16.82244
G1 X125.469 Y96.092 E16.91574
G1 X123.785 Y94.408 E17.16538
G1 X124.675 Y94.408 E17.25868
G1 X126.359 Y96.092 E17.50832
G1 X127.249 Y96.092 E17.60162
G1 X125.565 Y94.408 E17.85126
G1 X126.456 Y94.408 E17.94456
G1 X128.140 Y96.092 E18.19420
G1 X129.030 Y96.092 E18.28750
G1 X127.346 Y94.408 E18.53714
G1 X128.236 Y94.408 E18.63044
G1 X129.920 Y96.092 E18.88008
G1 X130.810 Y96.092 E18.97338
G1 X129.126 Y94.408 E19.22302
G1 X130.016 Y94.408 E19.31632
G1 X131.701 Y96.092 E19.56596
G1 X132.591 Y96.092 E19.65926
G1 X130.907 Y94.408 E19.90890
G1 X131.797 Y94.408 E20.00220
G1 X133.481 Y96.092 E20.25184
G1 X134.371 Y96.092 E20.34514
G1 X132.687 Y94.408 E20.59478
G1 X133.577 Y94.408 E20.68808
G1 X135.261 Y96.092 E20.93772
G1 X136.152 Y96.092 E21.03102
G1 X134.467 Y94.408 E21.28066
G1 X135.358 Y94.408 E21.37396
G1 X137.042 Y96.092 E21.62360
G1 X137.932 Y96.092 E21.71690
G1 X136.248 Y94.408 E21.96654
G1 X136.408 Y93.678 E22.04488
G1 X138.822 Y96.092 E22.40275
G1 X139.712 Y96.092 E22.49605
G1 X136.408 Y92.788 E22.98587
G1 X136.408 Y91.897 E23.07917
G1 X140.603 Y96.092 E23.70094
G1 X141.493 Y96.092 E23.79424
G1 X136.408 Y91.007 E24.54796
G1 X136.408 Y90.117 E24.64126
G1 X142.383 Y96.092 E25.52693
G1 X143.273 Y96.092 E25.62023
G1 X136.408 Y89.227 E26.63785
G1 X136.408 Y88.336 E26.73116
G1 X143.592 Y95.521 E27.79603
G1 X143.592 Y94.630 E27.88934
G1 X136.408 Y87.446 E28.95421
G1 X136.408 Y86.556 E29.04751
G1 X143.592 Y93.740 E30.11239
G1 X143.592 Y92.850 E30.20569
G1 X134.650 Y83.908 E31.53113
G1 X135.540 Y83.908 E31.62444
G1 X143.592 Y91.960 E32.81793
G1 X143.592 Y91.070 E32.91123
G1 X136.430 Y83.908 E33.97277
G1 X137.321 Y83.908 E34.06608
G1 X143.592 Y90.179 E34.99567
G1 X143.592 Y89.289 E35.08897
G1 X138.211 Y83.908 E35.88661
G1 X139.101 Y83.908 E35.97991
G1 X143.592 Y88.399 E36.64560
G1 X143.592 Y87.509 E36.73890
G1 X139.991 Y83.908 E37.27264
G1 X140.881 Y83.908 E37.36594
G1 X143.592 Y86.619 E37.76773
