; generated by Slic3r 1.1.7 on 2015-04-20 at 20:10:21

; perimeters extrusion width = 0.35mm
; infill extrusion width = 0.44mm
; solid infill extrusion width = 0.44mm
; top infill extrusion width = 0.44mm

G21 ; set units to millimeters
M107
M190 S60 ; wait for bed temperature to be reached
M104 S185 ; set temperature
G28 ; home all axes
G1 Z5 F5000 ; lift nozzle

M109 S185 ; wait for temperature to be reached
G90 ; use absolute coordinates
G92 E0
M82 ; use absolute distances for extrusion
G1 F1800.000 E-1.00000
G92 E0
G1 Z0.350 F7800.000
G1 X20.532 Y74.009 F7800.000
G1 E1.00000 F1800.000
G1 X22.526 Y73.585 E1.21365 F1080.000
G1 X23.299 Y73.462 E1.29563
G1 X125.000 Y63.375 E12.00733
G1 X165.000 Y63.375 E16.19976
G1 X167.259 Y63.772 E16.44014
G1 X169.247 Y64.915 E16.68052 F1080.000
G1 X170.726 Y66.668 E16.92090
G1 X171.519 Y68.820 E17.16128
G1 X171.625 Y70.000 E17.28543
G1 X171.625 Y110.000 E21.47786
G1 X171.228 Y112.259 E21.71824
G1 X170.085 Y114.247 E21.95862
G1 X168.332 Y115.726 E22.19899
G1 X166.180 Y116.519 E22.43937
G1 X165.000 Y116.625 E22.56352
G1 X124.344 Y116.592 E26.82471
G1 X22.577 Y106.425 E37.54406
G1 X20.532 Y105.991 E37.76318
G1 X19.167 Y105.541 E37.91379
G1 X17.305 Y104.712 E38.12742
G1 X16.106 Y104.020 E38.27258
G1 X14.415 Y102.791 E38.49169
G1 X13.386 Y101.865 E38.63681
G1 X11.987 Y100.311 E38.85596
G1 X11.146 Y99.145 E39.00658
G1 X10.127 Y97.380 E39.22021
G1 X9.564 Y96.115 E39.36536
G1 X8.918 Y94.126 E39.58450
G1 X8.630 Y92.772 E39.72965
G1 X8.411 Y90.692 E39.94878
G1 X8.411 Y89.308 E40.09392
G1 X8.624 Y87.280 E40.30757
G1 X8.918 Y85.874 E40.45817
G1 X9.564 Y83.885 E40.67731
G1 X10.127 Y82.620 E40.82245
G1 X11.173 Y80.809 E41.04159
G1 X11.987 Y79.689 E41.18673
G1 X13.351 Y78.174 E41.40041
G1 X14.415 Y77.209 E41.55097
G1 X16.106 Y75.980 E41.77009
G1 X17.305 Y75.288 E41.91524
G1 X19.215 Y74.437 E42.13436
G1 X20.482 Y74.026 E42.27401
G1 F1800.000 E41.27401
G92 E0
G1 X27.843 Y94.118 F7800.000
G1 E1.00000 F1800.000
G1 X25.603 Y94.968 E1.25104 F540.000
G1 X23.226 Y94.679 E1.50207
G1 X21.254 Y93.318 E1.75310
G1 X20.141 Y91.198 E2.00413
G1 X20.141 Y88.802 E2.25517
G1 X21.254 Y86.682 E2.50621
G1 X23.226 Y85.321 E2.75723
G1 X25.603 Y85.032 E3.00826
G1 X27.573 Y85.780 E3.22910
G1 X27.843 Y85.882 E3.25930 F540.000
G1 X29.431 Y87.674 E3.51033
G1 X30.004 Y90.000 E3.76136
G1 X29.431 Y92.325 E4.01239
G1 X27.878 Y94.079 E4.25792
G1 X27.477 Y93.589 F7800.000
G1 X25.526 Y94.329 E4.47667 F378.000
G1 X23.454 Y94.077 E4.69541
G1 X21.736 Y92.892 E4.91416
G1 X20.766 Y91.044 E5.13291
G1 X20.766 Y88.956 E5.35166
G1 X21.736 Y87.108 E5.57041
G1 X23.454 Y85.923 E5.78915
G1 X25.392 Y85.687 E5.99383
G1 X25.526 Y85.671 E6.00789 F378.000
G1 X27.477 Y86.411 E6.22665
G1 X28.861 Y87.974 E6.44538
G1 X29.360 Y90.000 E6.66413
G1 X28.861 Y92.026 E6.88288
G1 X27.512 Y93.549 E7.09612
G1 F1800.000 E6.09612
G92 E0
G1 X25.360 Y85.557 F7800.000
G1 X142.223 Y83.837 F7800.000
G1 E1.00000 F1800.000
G1 X142.223 Y81.163 E1.28032 F540.000
G1 X144.314 Y79.495 E1.56063
G1 X146.422 Y79.976 E1.78720
G1 X146.922 Y80.090 E1.84095 F540.000
G1 X148.082 Y82.500 E2.12126
G1 X146.922 Y84.910 E2.40158
G1 X144.314 Y85.505 E2.68189
G1 X142.264 Y83.870 E2.95671
G1 X142.848 Y83.536 F7800.000
G1 X142.848 Y81.464 E3.17394 F378.000
G1 X144.303 Y80.304 E3.36896
G1 X144.469 Y80.171 E3.39118 F378.000
G1 X146.489 Y80.633 E3.60841
G1 X147.388 Y82.500 E3.82564
G1 X146.489 Y84.367 E4.04287
G1 X144.469 Y84.829 E4.26011
G1 X142.889 Y83.569 E4.47184
G1 F1800.000 E3.47184
G92 E0
G1 X144.209 Y80.114 F7800.000
G1 X144.314 Y94.495 F7800.000
G1 E1.00000 F1800.000
G1 X146.922 Y95.090 E1.28031 F540.000
G1 X148.082 Y97.500 E1.56063 F540.000
G1 X146.922 Y99.910 E1.84094
G1 X144.314 Y100.505 E2.12125
G1 X142.223 Y98.837 E2.40157
G1 X142.223 Y96.163 E2.68189
G1 X144.273 Y94.528 E2.95670
G1 X144.469 Y95.171 F7800.000
G1 X146.489 Y95.633 E3.17394 F378.000
G1 X147.388 Y97.500 E3.39117
G1 X146.489 Y99.367 E3.60840
G1 X144.469 Y99.829 E3.82563
G1 X142.848 Y98.536 E4.04287
G1 X142.848 Y96.464 E4.26011
G1 X144.303 Y95.304 E4.45513
G1 X144.428 Y95.204 E4.47184 F378.000
G1 X144.234 Y95.160 F7800.000
G1 X125.975 Y99.025 F7800.000
G1 X25.975 Y99.025 E14.95292 F540.000
G1 X25.975 Y98.970 E14.95866
G1 X24.057 Y98.970 E15.15966
G1 X22.213 Y98.578 E15.35730
G1 X20.490 Y97.811 E15.55493
G1 X18.965 Y96.703 E15.75257
G1 X17.703 Y95.302 E15.95020
G1 X16.760 Y93.669 E16.14784
G1 X16.177 Y91.875 E16.34547
G1 X15.980 Y90.000 E16.54311
G1 X16.177 Y88.125 E16.74074
G1 X16.760 Y86.331 E16.93838
G1 X17.703 Y84.698 E17.13601
G1 X18.965 Y83.297 E17.33365
G1 X20.490 Y82.189 E17.53129
G1 X22.213 Y81.422 E17.72892
G1 X24.057 Y81.030 E17.92655
G1 X25.975 Y81.030 E18.12755
G1 X25.975 Y80.975 E18.13329
G1 X125.975 Y80.975 E28.61438
G1 X125.975 Y70.975 E29.66248
G1 X164.025 Y70.975 E33.65056
G1 X164.025 Y109.025 E37.63863
G1 X125.975 Y109.025 E41.62671
G1 X125.975 Y99.078 E42.66931
G1 X125.350 Y99.650 F7800.000
G1 X25.350 Y99.650 E53.15039 F378.000
G1 X25.350 Y99.595 E53.15613
G1 X23.991 Y99.595 E53.29852
G1 X22.019 Y99.176 E53.50993
G1 X20.176 Y98.355 E53.72133
G1 X18.544 Y97.170 E53.93273
G1 X17.195 Y95.671 E54.14414
G1 X16.186 Y93.924 E54.35554
G1 X15.563 Y92.006 E54.56694
G1 X15.352 Y90.000 E54.77834
G1 X15.563 Y87.994 E54.98975
G1 X16.186 Y86.076 E55.20115
G1 X17.195 Y84.329 E55.41255
G1 X18.544 Y82.830 E55.62396
G1 X20.176 Y81.645 E55.83536
G1 X22.019 Y80.824 E56.04676
G1 X23.991 Y80.405 E56.25816
G1 X25.350 Y80.405 E56.40055
G1 X25.350 Y80.350 E56.40629
G1 X125.350 Y80.350 E66.88737
G1 X125.350 Y70.350 E67.93548
G1 X164.650 Y70.350 E72.05455
G1 X164.650 Y109.650 E76.17361
G1 X125.350 Y109.650 E80.29268
G1 X125.350 Y99.703 E81.33528
G1 X125.350 Y99.300 F7800.000
G1 X126.408 Y99.833 F7800.000
G1 X135.167 Y108.592 E82.63362 F1080.000
G1 X134.281 Y108.592 E82.72649
G1 X126.408 Y100.719 E83.89348
G1 X126.408 Y101.605 E83.98635
G1 X133.395 Y108.592 E85.02201
G1 X132.509 Y108.592 E85.11488
G1 X126.408 Y102.491 E86.01921
G1 X126.408 Y103.377 E86.11208
G1 X131.623 Y108.592 E86.88506
G1 X130.737 Y108.592 E86.97793
G1 X126.408 Y104.263 E87.61958
G1 X126.408 Y105.149 E87.71245
G1 X129.851 Y108.592 E88.22276
G1 X128.965 Y108.592 E88.31563
G1 X126.408 Y106.035 E88.69460
G1 X126.408 Y106.921 E88.78747
G1 X128.079 Y108.592 E89.03511
G1 X127.193 Y108.592 E89.12798
G1 X126.408 Y107.807 E89.24428
G1 X144.351 Y100.941 F7800.000
G1 X152.002 Y108.592 E90.37842 F1080.000
G1 X152.889 Y108.592 E90.47129
G1 X145.072 Y100.776 E91.62985
G1 X145.794 Y100.611 E91.70740
G1 X153.775 Y108.592 E92.89036
G1 X154.661 Y108.592 E92.98323
G1 X146.515 Y100.447 E94.19060
G1 X147.227 Y100.273 E94.26744
G1 X155.547 Y108.592 E95.50057
G1 X156.433 Y108.592 E95.59344
G1 X147.515 Y99.675 E96.91522
G1 X147.803 Y99.077 E96.98480
G1 X157.319 Y108.592 E98.39522
G1 X158.205 Y108.592 E98.48809
G1 X148.091 Y98.479 E99.98717
G1 X148.379 Y97.880 E100.05674
G1 X159.091 Y108.592 E101.64447
G1 X159.977 Y108.592 E101.73734
G1 X148.263 Y96.878 E103.47362
G1 X141.790 Y83.317 F7800.000
G1 X129.881 Y71.408 E105.23879 F1080.000
G1 X130.768 Y71.408 E105.33166
G1 X141.790 Y82.431 E106.96549
G1 X141.790 Y81.545 E107.05836
G1 X131.654 Y71.408 E108.56085
G1 X132.540 Y71.408 E108.65372
G1 X141.955 Y80.823 E110.04927
G1 X142.448 Y80.430 E110.11536
G1 X133.426 Y71.408 E111.45263
G1 X134.312 Y71.408 E111.54550
G1 X142.941 Y80.037 E112.82451
G1 X143.434 Y79.644 E112.89060
G1 X135.198 Y71.408 E114.11134
G1 X136.084 Y71.408 E114.20421
G1 X143.927 Y79.251 E115.36668
G1 X144.702 Y79.139 E115.44874
G1 X136.970 Y71.408 E116.59475
G1 X137.856 Y71.408 E116.68762
G1 X145.850 Y79.402 E117.87247
G1 X163.552 Y71.408 F7800.000
G1 X163.592 Y71.448 E117.87840 F1080.000
G1 X163.592 Y72.334 E117.97127
G1 X162.666 Y71.408 E118.10854
G1 X161.780 Y71.408 E118.20141
G1 X163.592 Y73.220 E118.47001
G1 X163.592 Y74.106 E118.56288
G1 X160.894 Y71.408 E118.96282
G1 X160.008 Y71.408 E119.05569
G1 X163.592 Y74.992 E119.58697
G1 X163.592 Y75.878 E119.67984
G1 X159.122 Y71.408 E120.34246
G1 X158.236 Y71.408 E120.43533
G1 X163.592 Y76.764 E121.22928
G1 X163.592 Y77.650 E121.32215
G1 X157.350 Y71.408 E122.24744
G1 X156.464 Y71.408 E122.34031
G1 X163.592 Y78.536 E123.39694
G1 X163.592 Y79.423 E123.48981
G1 X155.577 Y71.408 E124.67778
G1 X154.691 Y71.408 E124.77065
G1 X163.592 Y80.309 E126.08995
G1 X163.592 Y81.195 E126.18282
G1 X153.805 Y71.408 E127.63346
G1 X152.919 Y71.408 E127.72633
G1 X163.592 Y82.081 E129.30831
G1 X163.592 Y82.967 E129.40118
G1 X152.033 Y71.408 E131.11449
G1 X151.147 Y71.408 E131.20736
G1 X163.592 Y83.853 E133.05202
G1 X163.592 Y84.739 E133.14489
G1 X150.261 Y71.408 E135.12088
G1 X149.375 Y71.408 E135.21375
G1 X163.592 Y85.625 E137.32108
G1 X163.592 Y86.511 E137.41395
G1 X148.489 Y71.408 E139.65261
G1 X147.603 Y71.408 E139.74548
G1 X163.592 Y87.397 E142.11549
G1 X163.592 Y88.283 E142.20836
G1 X146.717 Y71.408 E144.70970
G1 X145.831 Y71.408 E144.80257
G1 X163.592 Y89.169 E147.43525
G1 X163.592 Y90.055 E147.52812
G1 X144.945 Y71.408 E150.29213
G1 X144.059 Y71.408 E150.38500
G1 X163.592 Y90.941 E153.28035
G1 X163.592 Y91.828 E153.37322
G1 X143.172 Y71.408 E156.39992
G1 X142.286 Y71.408 E156.49278
G1 X163.592 Y92.714 E159.65081
G1 X163.592 Y93.600 E159.74368
G1 X141.400 Y71.408 E163.03305
G1 X140.514 Y71.408 E163.12592
G1 X163.592 Y94.486 E166.54662
G1 X163.592 Y95.372 E166.63949
G1 X139.628 Y71.408 E170.19153
G1 X138.742 Y71.408 E170.28440
G1 X163.592 Y96.258 E173.96778
G1 X163.592 Y97.144 E174.06065
G1 X148.205 Y81.756 E176.34146
G1 X148.400 Y82.838 E176.45664
G1 X163.592 Y98.030 E178.70849
G1 X163.592 Y98.916 E178.80136
G1 X148.112 Y83.436 E181.09590
G1 X147.824 Y84.034 E181.16548
G1 X163.592 Y99.802 E183.50271
G1 X163.592 Y100.688 E183.59558
G1 X147.536 Y84.632 E185.97550
G1 X147.248 Y85.230 E186.04507
G1 X163.592 Y101.574 E188.46768
G1 X163.592 Y102.460 E188.56055
G1 X146.567 Y85.435 E191.08415
G1 X145.845 Y85.599 E191.16171
G1 X163.592 Y103.346 E193.79224
G1 X163.592 Y104.232 E193.88511
G1 X145.124 Y85.764 E196.62257
G1 X144.402 Y85.929 E196.70013
G1 X163.592 Y105.119 E199.54452
G1 X163.592 Y106.005 E199.63739
G1 X128.995 Y71.408 E204.76548
G1 X128.109 Y71.408 E204.85835
G1 X163.592 Y106.891 E210.11778
G1 X163.592 Y107.777 E210.21065
G1 X127.223 Y71.408 E215.60142
G1 X126.408 Y71.479 E215.68719
G1 X163.521 Y108.592 E221.18833
G1 X162.635 Y108.592 E221.28120
G1 X126.408 Y72.365 E226.65100
G1 X126.408 Y73.251 E226.74387
G1 X161.749 Y108.592 E231.98233
G1 X160.863 Y108.592 E232.07519
G1 X126.408 Y74.137 E237.18232
G1 X126.408 Y75.023 E237.27519
G1 X145.768 Y94.383 E240.14481
G1 X144.620 Y94.121 E240.26824
G1 X126.408 Y75.909 E242.96768
G1 X126.408 Y76.795 E243.06055
G1 X143.891 Y94.279 E245.65204
G1 X143.398 Y94.672 E245.71813
G1 X126.408 Y77.681 E248.23655
G1 X126.408 Y78.567 E248.32942
G1 X142.905 Y95.065 E250.77477
G1 X142.413 Y95.458 E250.84085
G1 X126.408 Y79.453 E253.21314
G1 X126.408 Y80.339 E253.30601
G1 X141.920 Y95.851 E255.60522
G1 X141.790 Y96.608 E255.68568
G1 X126.408 Y81.225 E257.96572
G1 X125.704 Y81.408 E258.04190
G1 X141.790 Y97.494 E260.42622
G1 X141.790 Y98.380 E260.51909
G1 X124.818 Y81.408 E263.03474
G1 X123.932 Y81.408 E263.12761
G1 X151.116 Y108.592 E267.15698
G1 X150.230 Y108.592 E267.24985
G1 X123.046 Y81.408 E271.27922
G1 X122.160 Y81.408 E271.37209
G1 X149.344 Y108.592 E275.40146
G1 X148.458 Y108.592 E275.49433
G1 X121.274 Y81.408 E279.52370
G1 X120.388 Y81.408 E279.61657
G1 X147.572 Y108.592 E283.64594
G1 X146.686 Y108.592 E283.73881
G1 X119.502 Y81.408 E287.76818
G1 X118.616 Y81.408 E287.86105
G1 X145.800 Y108.592 E291.89042
G1 X144.914 Y108.592 E291.98329
G1 X117.730 Y81.408 E296.01266
G1 X116.844 Y81.408 E296.10553
G1 X144.028 Y108.592 E300.13490
G1 X143.142 Y108.592 E300.22777
G1 X115.958 Y81.408 E304.25714
G1 X115.072 Y81.408 E304.35001
G1 X142.256 Y108.592 E308.37938
G1 X141.370 Y108.592 E308.47225
G1 X114.185 Y81.408 E312.50162
G1 X113.299 Y81.408 E312.59449
G1 X140.484 Y108.592 E316.62386
G1 X139.597 Y108.592 E316.71673
G1 X112.413 Y81.408 E320.74610
G1 X111.527 Y81.408 E320.83897
G1 X138.711 Y108.592 E324.86834
G1 X137.825 Y108.592 E324.96121
G1 X110.641 Y81.408 E328.99058
G1 X109.755 Y81.408 E329.08345
G1 X136.939 Y108.592 E333.11282
G1 X136.053 Y108.592 E333.20569
G1 X108.869 Y81.408 E337.23506
G1 X107.983 Y81.408 E337.32793
G1 X125.167 Y98.592 E339.87505
G1 X124.281 Y98.592 E339.96792
G1 X107.097 Y81.408 E342.51504
G1 X106.211 Y81.408 E342.60791
G1 X123.395 Y98.592 E345.15503
G1 X122.509 Y98.592 E345.24790
G1 X105.325 Y81.408 E347.79503
G1 X104.439 Y81.408 E347.88790
G1 X121.623 Y98.592 E350.43502
G1 X120.737 Y98.592 E350.52789
G1 X103.553 Y81.408 E353.07501
G1 X102.667 Y81.408 E353.16788
G1 X119.851 Y98.592 E355.71500
G1 X118.965 Y98.592 E355.80787
G1 X101.780 Y81.408 E358.35499
G1 X100.894 Y81.408 E358.44786
G1 X118.079 Y98.592 E360.99498
G1 X117.193 Y98.592 E361.08785
G1 X100.008 Y81.408 E363.63497
G1 X99.122 Y81.408 E363.72784
G1 X116.306 Y98.592 E366.27496
G1 X115.420 Y98.592 E366.36783
G1 X98.236 Y81.408 E368.91495
G1 X97.350 Y81.408 E369.00782
G1 X114.534 Y98.592 E371.55495
G1 X113.648 Y98.592 E371.64782
G1 X96.464 Y81.408 E374.19494
G1 X95.578 Y81.408 E374.28781
G1 X112.762 Y98.592 E376.83493
G1 X111.876 Y98.592 E376.92780
G1 X94.692 Y81.408 E379.47492
G1 X93.806 Y81.408 E379.56779
G1 X110.990 Y98.592 E382.11491
G1 X110.104 Y98.592 E382.20778
G1 X92.920 Y81.408 E384.75490
G1 X92.034 Y81.408 E384.84777
G1 X109.218 Y98.592 E387.39489
G1 X108.332 Y98.592 E387.48776
G1 X91.148 Y81.408 E390.03488
G1 X90.262 Y81.408 E390.12775
G1 X107.446 Y98.592 E392.67488
G1 X106.560 Y98.592 E392.76774
G1 X89.376 Y81.408 E395.31487
G1 X88.489 Y81.408 E395.40774
G1 X105.674 Y98.592 E397.95486
G1 X104.788 Y98.592 E398.04773
G1 X87.603 Y81.408 E400.59485
G1 X86.717 Y81.408 E400.68772
G1 X103.901 Y98.592 E403.23484
G1 X103.015 Y98.592 E403.32771
G1 X85.831 Y81.408 E405.87483
G1 X84.945 Y81.408 E405.96770
G1 X102.129 Y98.592 E408.51482
G1 X101.243 Y98.592 E408.60769
G1 X84.059 Y81.408 E411.15481
G1 X83.173 Y81.408 E411.24768
G1 X100.357 Y98.592 E413.79480
G1 X99.471 Y98.592 E413.88767
G1 X82.287 Y81.408 E416.43480
G1 X81.401 Y81.408 E416.52767
G1 X98.585 Y98.592 E419.07479
G1 X97.699 Y98.592 E419.16766
G1 X80.515 Y81.408 E421.71478
G1 X79.629 Y81.408 E421.80765
G1 X96.813 Y98.592 E424.35477
G1 X95.927 Y98.592 E424.44764
G1 X78.743 Y81.408 E426.99476
G1 X77.857 Y81.408 E427.08763
G1 X95.041 Y98.592 E429.63475
G1 X94.155 Y98.592 E429.72762
G1 X76.971 Y81.408 E432.27474
G1 X76.084 Y81.408 E432.36761
G1 X93.269 Y98.592 E434.91473
G1 X92.383 Y98.592 E435.00760
G1 X75.198 Y81.408 E437.55473
G1 X74.312 Y81.408 E437.64760
G1 X91.497 Y98.592 E440.19472
G1 X90.610 Y98.592 E440.28759
G1 X73.426 Y81.408 E442.83471
G1 X72.540 Y81.408 E442.92758
G1 X89.724 Y98.592 E445.47470
G1 X88.838 Y98.592 E445.56757
G1 X71.654 Y81.408 E448.11469
G1 X70.768 Y81.408 E448.20756
G1 X87.952 Y98.592 E450.75468
G1 X87.066 Y98.592 E450.84755
G1 X69.882 Y81.408 E453.39467
G1 X68.996 Y81.408 E453.48754
G1 X86.180 Y98.592 E456.03466
G1 X85.294 Y98.592 E456.12753
G1 X68.110 Y81.408 E458.67465
G1 X67.224 Y81.408 E458.76752
G1 X84.408 Y98.592 E461.31465
G1 X83.522 Y98.592 E461.40752
G1 X66.338 Y81.408 E463.95464
G1 X65.452 Y81.408 E464.04751
G1 X82.636 Y98.592 E466.59463
G1 X81.750 Y98.592 E466.68750
G1 X64.566 Y81.408 E469.23462
G1 X63.680 Y81.408 E469.32749
G1 X80.864 Y98.592 E471.87461
G1 X79.978 Y98.592 E471.96748
G1 X62.793 Y81.408 E474.51460
G1 X61.907 Y81.408 E474.60747
G1 X79.092 Y98.592 E477.15459
G1 X78.205 Y98.592 E477.24746
G1 X61.021 Y81.408 E479.79458
G1 X60.135 Y81.408 E479.88745
G1 X77.319 Y98.592 E482.43458
G1 X76.433 Y98.592 E482.52745
G1 X59.249 Y81.408 E485.07457
G1 X58.363 Y81.408 E485.16744
G1 X75.547 Y98.592 E487.71456
G1 X74.661 Y98.592 E487.80743
G1 X57.477 Y81.408 E490.35455
G1 X56.591 Y81.408 E490.44742
G1 X73.775 Y98.592 E492.99454
G1 X72.889 Y98.592 E493.08741
G1 X55.705 Y81.408 E495.63453
G1 X54.819 Y81.408 E495.72740
G1 X72.003 Y98.592 E498.27452
G1 X71.117 Y98.592 E498.36739
G1 X53.933 Y81.408 E500.91451
G1 X53.047 Y81.408 E501.00738
