; generated by Slic3r 1.1.7 on 2015-04-19 at 23:56:03

; perimeters extrusion width = 0.35mm
; infill extrusion width = 0.44mm
; solid infill extrusion width = 0.44mm
; top infill extrusion width = 0.44mm

G21 ; set units to millimeters
M107
M190 S60 ; wait for bed temperature to be reached
M104 S185 ; set temperature
G28 ; home all axes
G1 Z5 F5000 ; lift nozzle

M109 S185 ; wait for temperature to be reached
G90 ; use absolute coordinates
G92 E0
M82 ; use absolute distances for extrusion
G1 F1800.000 E-1.00000
G92 E0
G1 Z0.350 F7800.000
G1 X13.820 Y63.481 F7800.000
G1 E1.00000 F1800.000
G1 X15.000 Y63.375 E1.12415 F1080.000
G1 X55.656 Y63.408 E5.38534
G1 X157.422 Y73.575 E16.10466 F1080.000
G1 X159.468 Y74.009 E16.32381
G1 X160.785 Y74.437 E16.46896
G1 X162.695 Y75.288 E16.68808
G1 X163.936 Y76.011 E16.83869
G1 X165.585 Y77.209 E17.05232
G1 X166.614 Y78.136 E17.19747
G1 X168.013 Y79.689 E17.41659
G1 X168.828 Y80.810 E17.56176
G1 X169.873 Y82.620 E17.78087
G1 X170.436 Y83.885 E17.92604
G1 X171.082 Y85.874 E18.14516
G1 X171.376 Y87.280 E18.29577
G1 X171.589 Y89.308 E18.50940
G1 X171.589 Y90.692 E18.65455
G1 X171.370 Y92.772 E18.87367
G1 X171.082 Y94.126 E19.01882
G1 X170.436 Y96.115 E19.23794
G1 X169.873 Y97.380 E19.38311
G1 X168.828 Y99.190 E19.60222
G1 X168.013 Y100.311 E19.74739
G1 X166.614 Y101.864 E19.96651
G1 X165.585 Y102.791 E20.11166
G1 X163.894 Y104.020 E20.33079
G1 X162.695 Y104.712 E20.47593
G1 X160.832 Y105.541 E20.68957
G1 X159.468 Y105.991 E20.84018
G1 X156.701 Y106.538 E21.13573
G1 X55.000 Y116.625 E31.84742
G1 X15.000 Y116.625 E36.03986
G1 X12.741 Y116.228 E36.28024
G1 X10.753 Y115.085 E36.52061
G1 X9.274 Y113.332 E36.76099
G1 X8.481 Y111.180 E37.00137
G1 X8.375 Y110.000 E37.12552
G1 X8.375 Y70.000 E41.31795
G1 X8.772 Y67.741 E41.55833
G1 X9.915 Y65.753 E41.79871
G1 X11.668 Y64.274 E42.03909
G1 X13.771 Y63.499 E42.27396
G1 F1800.000 E41.27396
G92 E0
G1 X154.397 Y94.968 F7800.000
G1 E1.00000 F1800.000
G1 X152.157 Y94.118 E1.25104 F540.000
G1 X150.569 Y92.325 E1.50207
G1 X149.996 Y90.000 E1.75310
G1 X150.569 Y87.675 E2.00414
G1 X152.157 Y85.882 E2.25516
G1 X154.397 Y85.032 E2.50620
G1 X154.683 Y85.067 E2.53640
G1 X156.774 Y85.321 E2.75724 F540.000
G1 X158.746 Y86.682 E3.00826
G1 X159.859 Y88.802 E3.25930
G1 X159.859 Y91.198 E3.51033
G1 X158.746 Y93.318 E3.76137
G1 X156.774 Y94.679 E4.01240
G1 X154.449 Y94.961 E4.25792
G1 X154.474 Y94.329 F7800.000
G1 X152.523 Y93.589 E4.47668 F378.000
G1 X151.139 Y92.026 E4.69542
G1 X150.640 Y90.000 E4.91416
G1 X151.139 Y87.974 E5.13291
G1 X152.523 Y86.411 E5.35165
G1 X152.648 Y86.364 E5.36571
G1 X154.474 Y85.671 E5.57041 F378.000
G1 X156.546 Y85.923 E5.78915
G1 X158.264 Y87.108 E6.00789
G1 X159.234 Y88.956 E6.22664
G1 X159.234 Y91.044 E6.44539
G1 X158.264 Y92.892 E6.66414
G1 X156.546 Y94.077 E6.88288
G1 X154.527 Y94.322 E7.09612
G1 F1800.000 E6.09612
G92 E0
G1 X152.513 Y86.041 F7800.000
G1 X37.777 Y85.837 F7800.000
G1 E1.00000 F1800.000
G1 X35.686 Y87.505 E1.28031 F540.000
G1 X33.078 Y86.910 E1.56064
G1 X31.918 Y84.500 E1.84095
G1 X33.078 Y82.090 E2.12126
G1 X35.686 Y81.495 E2.40158
G1 X36.087 Y81.815 E2.45534
G1 X37.777 Y83.163 E2.68189 F540.000
G1 X37.777 Y85.785 E2.95671
G1 X37.152 Y85.536 F7800.000
G1 X35.531 Y86.829 E3.17394 F378.000
G1 X33.511 Y86.367 E3.39118
G1 X32.612 Y84.500 E3.60841
G1 X33.511 Y82.633 E3.82564
G1 X33.717 Y82.585 E3.84785
G1 X35.531 Y82.171 E4.04288 F378.000
G1 X37.152 Y83.464 E4.26011
G1 X37.152 Y85.484 E4.47184
G1 F1800.000 E3.47184
G92 E0
G1 X33.523 Y82.295 F7800.000
G1 X35.686 Y92.495 F7800.000
G1 E1.00000 F1800.000
G1 X36.087 Y92.815 E1.05375 F540.000
G1 X37.777 Y94.163 E1.28032 F540.000
G1 X37.777 Y96.837 E1.56063
G1 X35.686 Y98.505 E1.84095
G1 X33.078 Y97.910 E2.12127
G1 X31.918 Y95.500 E2.40158
G1 X33.078 Y93.090 E2.68189
G1 X35.635 Y92.507 E2.95670
G1 X35.531 Y93.171 F7800.000
G1 X37.152 Y94.464 E3.17394 F378.000
G1 X37.152 Y96.536 E3.39117
G1 X35.531 Y97.829 E3.60841
G1 X33.511 Y97.367 E3.82564
G1 X32.612 Y95.500 E4.04287
G1 X33.511 Y93.633 E4.26011
G1 X33.717 Y93.585 E4.28232
G1 X35.480 Y93.183 E4.47184 F378.000
G1 X33.665 Y93.239 F7800.000
G1 F1800.000 E3.47184
G92 E0
G1 X54.025 Y99.025 F7800.000
G1 E1.00000 F1800.000
G1 X54.025 Y109.025 E2.04811 F540.000
G1 X15.975 Y109.025 E6.03618
G1 X15.975 Y70.975 E10.02426
G1 X54.025 Y70.975 E14.01233
G1 X54.025 Y80.975 E15.06044
G1 X154.025 Y80.975 E25.54152
G1 X154.025 Y81.030 E25.54726
G1 X155.943 Y81.030 E25.74826
G1 X157.787 Y81.422 E25.94590
G1 X159.510 Y82.189 E26.14353
G1 X161.035 Y83.297 E26.34116
G1 X162.297 Y84.698 E26.53880
G1 X163.240 Y86.331 E26.73644
G1 X163.823 Y88.125 E26.93407
G1 X164.020 Y90.000 E27.13171
G1 X163.823 Y91.875 E27.32934
G1 X163.240 Y93.669 E27.52698
G1 X162.297 Y95.302 E27.72461
G1 X161.035 Y96.703 E27.92225
G1 X159.510 Y97.811 E28.11989
G1 X157.787 Y98.578 E28.31752
G1 X155.943 Y98.970 E28.51516
G1 X154.025 Y98.970 E28.71615
G1 X154.025 Y99.025 E28.72190
G1 X54.078 Y99.025 E39.19747
G1 X54.650 Y99.650 F7800.000
G1 X54.650 Y109.650 E40.24558 F378.000
G1 X15.350 Y109.650 E44.36465
G1 X15.350 Y70.350 E48.48371
G1 X54.650 Y70.350 E52.60278
G1 X54.650 Y80.350 E53.65088
G1 X154.650 Y80.350 E64.13196
G1 X154.650 Y80.405 E64.13771
G1 X156.009 Y80.405 E64.28009
G1 X157.981 Y80.824 E64.49150
G1 X159.824 Y81.645 E64.70290
G1 X161.456 Y82.830 E64.91430
G1 X162.805 Y84.329 E65.12571
G1 X163.814 Y86.076 E65.33711
G1 X164.437 Y87.994 E65.54851
G1 X164.648 Y90.000 E65.75991
G1 X164.437 Y92.006 E65.97132
G1 X163.814 Y93.924 E66.18272
G1 X162.805 Y95.671 E66.39412
G1 X161.456 Y97.170 E66.60553
G1 X159.824 Y98.355 E66.81693
G1 X157.981 Y99.176 E67.02833
G1 X156.009 Y99.595 E67.23974
G1 X154.650 Y99.595 E67.38212
G1 X154.650 Y99.650 E67.38786
G1 X54.703 Y99.650 E77.86344
G1 X54.300 Y99.650 F7800.000
G1 X35.412 Y92.114 F7800.000
G1 X16.408 Y73.109 E80.68034 F1080.000
G1 X16.408 Y73.995 E80.77321
G1 X34.691 Y92.278 E83.48317
G1 X33.969 Y92.443 E83.56073
G1 X16.408 Y74.881 E86.16376
G1 X16.408 Y75.768 E86.25663
G1 X33.248 Y92.608 E88.75274
G1 X32.678 Y92.924 E88.82104
G1 X16.408 Y76.654 E91.23268
G1 X16.408 Y77.540 E91.32555
G1 X32.390 Y93.522 E93.69449
G1 X32.102 Y94.120 E93.76406
G1 X16.408 Y78.426 E96.09031
G1 X16.408 Y79.312 E96.18318
G1 X31.814 Y94.718 E98.46675
G1 X31.526 Y95.316 E98.53632
G1 X16.408 Y80.198 E100.77719
G1 X16.408 Y81.084 E100.87006
G1 X32.007 Y96.683 E103.18225
G1 X34.527 Y87.685 F7800.000
G1 X53.592 Y106.749 E106.00811 F1080.000
G1 X53.592 Y105.863 E106.10098
G1 X35.676 Y87.947 E108.75666
G1 X36.235 Y87.620 F7800.000
G1 X53.592 Y104.977 E111.32935 F1080.000
G1 X53.592 Y104.091 E111.42222
G1 X36.728 Y87.227 E113.92185
G1 X37.221 Y86.834 E113.98793
G1 X53.592 Y103.205 E116.41449
G1 X53.592 Y102.319 E116.50736
G1 X37.714 Y86.441 E118.86086
G1 X38.207 Y86.048 E118.92694
G1 X53.592 Y101.433 E121.20737
G1 X53.592 Y100.547 E121.30024
G1 X38.210 Y85.164 E123.58027
G1 X38.210 Y84.278 E123.67314
G1 X53.592 Y99.661 E125.95318
G1 X53.592 Y98.775 E126.04605
G1 X38.210 Y83.392 E128.32608
G1 F1800.000 E127.32608
G92 E0
G1 X33.379 Y87.422 F7800.000
G1 E1.00000 F1800.000
G1 X53.592 Y107.635 E3.99604 F1080.000
G1 X53.592 Y108.521 E4.08891
G1 X16.479 Y71.408 E9.59005
G1 X16.408 Y72.223 E9.67583
G1 X52.777 Y108.592 E15.06659
G1 X51.891 Y108.592 E15.15946
G1 X38.210 Y94.911 E17.18731
G1 X38.210 Y95.797 E17.28018
G1 X51.005 Y108.592 E19.17668
G1 X50.119 Y108.592 E19.26955
G1 X38.210 Y96.683 E21.03472
G1 X37.918 Y97.278 E21.10413
G1 X49.232 Y108.592 E22.78115
G1 X48.346 Y108.592 E22.87402
G1 X37.426 Y97.671 E24.49276
G1 X36.933 Y98.064 E24.55884
G1 X47.460 Y108.592 E26.11932
G1 X46.574 Y108.592 E26.21219
G1 X36.440 Y98.457 E27.71439
G1 X35.947 Y98.851 E27.78048
G1 X45.688 Y108.592 E29.22441
G1 X44.802 Y108.592 E29.31728
G1 X35.003 Y98.793 E30.76973
G1 X33.855 Y98.531 E30.89316
G1 X43.916 Y108.592 E32.38445
G1 X43.030 Y108.592 E32.47732
G1 X16.408 Y81.970 E36.42338
G1 X16.408 Y82.856 E36.51625
G1 X42.144 Y108.592 E40.33096
G1 X41.258 Y108.592 E40.42383
G1 X16.408 Y83.742 E44.10721
G1 X16.408 Y84.628 E44.20008
G1 X40.372 Y108.592 E47.75212
G1 X39.486 Y108.592 E47.84499
G1 X16.408 Y85.514 E51.26569
G1 X16.408 Y86.400 E51.35856
G1 X38.600 Y108.592 E54.64793
G1 X37.714 Y108.592 E54.74080
G1 X16.408 Y87.286 E57.89883
G1 X16.408 Y88.172 E57.99170
G1 X36.828 Y108.592 E61.01839
G1 X35.941 Y108.592 E61.11126
G1 X16.408 Y89.059 E64.00661
G1 X16.408 Y89.945 E64.09948
G1 X35.055 Y108.592 E66.86350
G1 X34.169 Y108.592 E66.95637
G1 X16.408 Y90.831 E69.58904
G1 X16.408 Y91.717 E69.68191
G1 X33.283 Y108.592 E72.18326
G1 X32.397 Y108.592 E72.27612
G1 X16.408 Y92.603 E74.64613
G1 X16.408 Y93.489 E74.73900
G1 X31.511 Y108.592 E76.97766
G1 X30.625 Y108.592 E77.07053
G1 X16.408 Y94.375 E79.17786
G1 X16.408 Y95.261 E79.27073
G1 X29.739 Y108.592 E81.24672
G1 X28.853 Y108.592 E81.33959
G1 X16.408 Y96.147 E83.18425
G1 X16.408 Y97.033 E83.27712
G1 X27.967 Y108.592 E84.99043
G1 X27.081 Y108.592 E85.08330
G1 X16.408 Y97.919 E86.66528
G1 X16.408 Y98.805 E86.75815
G1 X26.195 Y108.592 E88.20879
G1 X25.309 Y108.592 E88.30166
G1 X16.408 Y99.691 E89.62096
G1 X16.408 Y100.577 E89.71383
G1 X24.423 Y108.592 E90.90180
G1 X23.536 Y108.592 E90.99467
G1 X16.408 Y101.464 E92.05130
G1 X16.408 Y102.350 E92.14417
G1 X22.650 Y108.592 E93.06946
G1 X21.764 Y108.592 E93.16233
G1 X16.408 Y103.236 E93.95628
G1 X16.408 Y104.122 E94.04915
G1 X20.878 Y108.592 E94.71177
G1 X19.992 Y108.592 E94.80464
G1 X16.408 Y105.008 E95.33592
G1 X16.408 Y105.894 E95.42879
G1 X19.106 Y108.592 E95.82873
G1 X18.220 Y108.592 E95.92160
G1 X16.408 Y106.780 E96.19020
G1 X16.408 Y107.666 E96.28307
G1 X17.334 Y108.592 E96.42034
G1 X16.448 Y108.592 E96.51321
G1 X16.408 Y108.552 E96.51914
G1 X32.348 Y86.391 F7800.000
G1 X17.365 Y71.408 E98.74005 F1080.000
G1 X18.251 Y71.408 E98.83292
G1 X31.525 Y84.682 E100.80050
G1 X31.695 Y83.966 E100.87768
G1 X19.137 Y71.408 E102.73905
G1 X20.023 Y71.408 E102.83192
G1 X31.983 Y83.368 E104.60465
G1 X32.271 Y82.770 E104.67422
G1 X20.909 Y71.408 E106.35830
G1 X21.795 Y71.408 E106.45117
G1 X32.559 Y82.172 E108.04661
G1 X32.949 Y81.676 E108.11274
G1 X22.681 Y71.408 E109.63469
G1 X23.567 Y71.408 E109.72756
G1 X33.670 Y81.511 E111.22510
G1 X34.392 Y81.346 E111.30266
G1 X24.453 Y71.408 E112.77579
G1 X25.339 Y71.408 E112.86866
G1 X35.113 Y81.182 E114.31739
G1 X36.046 Y81.229 E114.41531
G1 X26.225 Y71.408 E115.87102
G1 X27.111 Y71.408 E115.96389
G1 X54.296 Y98.592 E119.99326
G1 X55.182 Y98.592 E120.08613
G1 X27.998 Y71.408 E124.11550
G1 X28.884 Y71.408 E124.20837
G1 X56.068 Y98.592 E128.23774
G1 X56.954 Y98.592 E128.33061
G1 X29.770 Y71.408 E132.35998
G1 X30.656 Y71.408 E132.45285
G1 X57.840 Y98.592 E136.48222
G1 X58.726 Y98.592 E136.57509
G1 X31.542 Y71.408 E140.60446
G1 X32.428 Y71.408 E140.69733
G1 X59.612 Y98.592 E144.72670
G1 X60.498 Y98.592 E144.81957
G1 X33.314 Y71.408 E148.84894
G1 X34.200 Y71.408 E148.94181
G1 X61.384 Y98.592 E152.97118
G1 X62.270 Y98.592 E153.06405
G1 X35.086 Y71.408 E157.09342
G1 X35.972 Y71.408 E157.18629
G1 X63.156 Y98.592 E161.21566
G1 X64.042 Y98.592 E161.30853
G1 X36.858 Y71.408 E165.33790
G1 X37.744 Y71.408 E165.43077
G1 X64.928 Y98.592 E169.46014
G1 X65.815 Y98.592 E169.55301
G1 X38.630 Y71.408 E173.58238
G1 X39.516 Y71.408 E173.67525
G1 X66.701 Y98.592 E177.70462
G1 X67.587 Y98.592 E177.79749
G1 X40.403 Y71.408 E181.82686
G1 X41.289 Y71.408 E181.91973
G1 X68.473 Y98.592 E185.94910
G1 X69.359 Y98.592 E186.04197
G1 X42.175 Y71.408 E190.07134
G1 X43.061 Y71.408 E190.16421
G1 X70.245 Y98.592 E194.19358
G1 X71.131 Y98.592 E194.28645
G1 X53.947 Y81.408 E196.83357
G1 X54.833 Y81.408 E196.92644
G1 X72.017 Y98.592 E199.47356
G1 X72.903 Y98.592 E199.56643
G1 X55.719 Y81.408 E202.11355
G1 X56.605 Y81.408 E202.20642
G1 X73.789 Y98.592 E204.75354
G1 X74.675 Y98.592 E204.84641
G1 X57.491 Y81.408 E207.39353
G1 X58.377 Y81.408 E207.48640
G1 X75.561 Y98.592 E210.03352
G1 X76.447 Y98.592 E210.12639
G1 X59.263 Y81.408 E212.67352
G1 X60.149 Y81.408 E212.76638
G1 X77.333 Y98.592 E215.31351
G1 X78.220 Y98.592 E215.40638
G1 X61.035 Y81.408 E217.95350
G1 X61.921 Y81.408 E218.04637
G1 X79.106 Y98.592 E220.59349
G1 X79.992 Y98.592 E220.68636
G1 X62.807 Y81.408 E223.23348
G1 X63.694 Y81.408 E223.32635
G1 X80.878 Y98.592 E225.87347
G1 X81.764 Y98.592 E225.96634
G1 X64.580 Y81.408 E228.51346
G1 X65.466 Y81.408 E228.60633
G1 X82.650 Y98.592 E231.15345
G1 X83.536 Y98.592 E231.24632
G1 X66.352 Y81.408 E233.79344
G1 X67.238 Y81.408 E233.88631
G1 X84.422 Y98.592 E236.43344
G1 X85.308 Y98.592 E236.52631
G1 X68.124 Y81.408 E239.07343
G1 X69.010 Y81.408 E239.16630
G1 X86.194 Y98.592 E241.71342
G1 X87.080 Y98.592 E241.80629
G1 X69.896 Y81.408 E244.35341
G1 X70.782 Y81.408 E244.44628
G1 X87.966 Y98.592 E246.99340
G1 X88.852 Y98.592 E247.08627
G1 X71.668 Y81.408 E249.63339
G1 X72.554 Y81.408 E249.72626
G1 X89.738 Y98.592 E252.27338
G1 X90.624 Y98.592 E252.36625
G1 X73.440 Y81.408 E254.91337
G1 X74.326 Y81.408 E255.00624
G1 X91.511 Y98.592 E257.55337
G1 X92.397 Y98.592 E257.64624
G1 X75.212 Y81.408 E260.19336
G1 X76.099 Y81.408 E260.28623
G1 X93.283 Y98.592 E262.83335
G1 X94.169 Y98.592 E262.92622
G1 X76.985 Y81.408 E265.47334
G1 X77.871 Y81.408 E265.56621
G1 X95.055 Y98.592 E268.11333
G1 X95.941 Y98.592 E268.20620
G1 X78.757 Y81.408 E270.75332
G1 X79.643 Y81.408 E270.84619
G1 X96.827 Y98.592 E273.39331
G1 X97.713 Y98.592 E273.48618
G1 X80.529 Y81.408 E276.03330
G1 X81.415 Y81.408 E276.12617
G1 X98.599 Y98.592 E278.67330
G1 X99.485 Y98.592 E278.76617
G1 X82.301 Y81.408 E281.31329
G1 X83.187 Y81.408 E281.40616
G1 X100.371 Y98.592 E283.95328
G1 X101.257 Y98.592 E284.04615
G1 X84.073 Y81.408 E286.59327
G1 X84.959 Y81.408 E286.68614
G1 X102.143 Y98.592 E289.23326
G1 X103.029 Y98.592 E289.32613
G1 X85.845 Y81.408 E291.87325
G1 X86.731 Y81.408 E291.96612
G1 X103.916 Y98.592 E294.51324
G1 X104.802 Y98.592 E294.60611
G1 X87.617 Y81.408 E297.15323
G1 X88.503 Y81.408 E297.24610
G1 X105.688 Y98.592 E299.79323
G1 X106.574 Y98.592 E299.88610
G1 X89.390 Y81.408 E302.43322
G1 X90.276 Y81.408 E302.52609
G1 X107.460 Y98.592 E305.07321
G1 X108.346 Y98.592 E305.16608
G1 X91.162 Y81.408 E307.71320
G1 X92.048 Y81.408 E307.80607
G1 X109.232 Y98.592 E310.35319
G1 X110.118 Y98.592 E310.44606
G1 X92.934 Y81.408 E312.99318
G1 X93.820 Y81.408 E313.08605
G1 X111.004 Y98.592 E315.63317
G1 X111.890 Y98.592 E315.72604
G1 X94.706 Y81.408 E318.27316
G1 X95.592 Y81.408 E318.36603
G1 X112.776 Y98.592 E320.91316
G1 X113.662 Y98.592 E321.00603
G1 X96.478 Y81.408 E323.55315
G1 X97.364 Y81.408 E323.64602
G1 X114.548 Y98.592 E326.19314
G1 X115.434 Y98.592 E326.28601
G1 X98.250 Y81.408 E328.83313
G1 X99.136 Y81.408 E328.92600
G1 X116.320 Y98.592 E331.47312
G1 X117.207 Y98.592 E331.56599
G1 X100.022 Y81.408 E334.11311
G1 X100.908 Y81.408 E334.20598
G1 X118.093 Y98.592 E336.75310
G1 X118.979 Y98.592 E336.84597
G1 X101.795 Y81.408 E339.39309
G1 X102.681 Y81.408 E339.48596
G1 X119.865 Y98.592 E342.03309
G1 X120.751 Y98.592 E342.12596
G1 X103.567 Y81.408 E344.67308
G1 X104.453 Y81.408 E344.76595
G1 X121.637 Y98.592 E347.31307
G1 X122.523 Y98.592 E347.40594
G1 X105.339 Y81.408 E349.95306
G1 X106.225 Y81.408 E350.04593
G1 X123.409 Y98.592 E352.59305
G1 X124.295 Y98.592 E352.68592
G1 X107.111 Y81.408 E355.23304
G1 X107.997 Y81.408 E355.32591
G1 X125.181 Y98.592 E357.87303
G1 X126.067 Y98.592 E357.96590
G1 X108.883 Y81.408 E360.51302
G1 X109.769 Y81.408 E360.60589
G1 X126.953 Y98.592 E363.15302
G1 X127.839 Y98.592 E363.24589
G1 X110.655 Y81.408 E365.79301
G1 X111.541 Y81.408 E365.88588
G1 X128.725 Y98.592 E368.43300
G1 X129.612 Y98.592 E368.52587
G1 X112.427 Y81.408 E371.07299
G1 X113.313 Y81.408 E371.16586
G1 X130.498 Y98.592 E373.71298
G1 X131.384 Y98.592 E373.80585
G1 X114.199 Y81.408 E376.35297
G1 X115.086 Y81.408 E376.44584
G1 X132.270 Y98.592 E378.99296
G1 X133.156 Y98.592 E379.08583
G1 X115.972 Y81.408 E381.63295
G1 X116.858 Y81.408 E381.72582
G1 X134.042 Y98.592 E384.27295
G1 X134.928 Y98.592 E384.36582
G1 X117.744 Y81.408 E386.91294
G1 X118.630 Y81.408 E387.00581
G1 X135.814 Y98.592 E389.55293
G1 X136.700 Y98.592 E389.64580
