; generated by Slic3r 1.1.7 on 2015-04-19 at 18:50:52

; perimeters extrusion width = 0.35mm
; infill extrusion width = 0.44mm
; solid infill extrusion width = 0.44mm
; top infill extrusion width = 0.44mm

G21 ; set units to millimeters
M107
M190 S65 ; wait for bed temperature to be reached
M104 S185 ; set temperature
G28 ; home all axes
G1 Z5 F5000 ; lift nozzle

M109 S185 ; wait for temperature to be reached
G90 ; use absolute coordinates
G92 E0
M82 ; use absolute distances for extrusion
G1 F1800.000 E-1.00000
G92 E0
G1 Z0.350 F7800.000
G1 X28.773 Y28.773 F7800.000
G1 E1.00000 F1800.000
G1 X29.262 Y28.283 E1.07257 F1080.000
G1 X30.887 Y26.967 E1.29172
G1 X32.048 Y26.213 E1.43685
G1 X33.911 Y25.264 E1.65596
G1 X35.204 Y24.768 E1.80114
G1 X37.224 Y24.226 E2.02025
G1 X38.592 Y24.010 E2.16541
G1 X40.679 Y23.900 E2.38453
G1 X42.062 Y23.973 E2.52968
G1 X44.127 Y24.300 E2.74880 F1080.000
G1 X45.465 Y24.658 E2.89395
G1 X47.417 Y25.408 E3.11306
G1 X48.651 Y26.036 E3.25823
G1 X51.229 Y27.808 E3.58608
G1 X52.258 Y28.747 E3.73213
G1 X151.492 Y127.993 E18.44198
G1 X152.825 Y129.596 E18.66048
G1 X153.964 Y131.349 E18.87960
G1 X154.592 Y132.583 E19.02476
G1 X155.342 Y134.535 E19.24387
G1 X155.700 Y135.873 E19.38903
G1 X156.027 Y137.938 E19.60814
G1 X156.100 Y139.321 E19.75330
G1 X155.990 Y141.408 E19.97241
G1 X155.774 Y142.776 E20.11758
G1 X155.232 Y144.796 E20.33669
G1 X154.736 Y146.089 E20.48186
G1 X153.787 Y147.952 E20.70098
G1 X153.033 Y149.113 E20.84614
G1 X151.717 Y150.738 E21.06526
G1 X150.738 Y151.717 E21.21040
G1 X149.113 Y153.033 E21.42951
G1 X147.952 Y153.787 E21.57468
G1 X146.089 Y154.736 E21.79379
G1 X144.796 Y155.232 E21.93896
G1 X142.776 Y155.774 E22.15808
G1 X141.408 Y155.990 E22.30324
G1 X139.321 Y156.100 E22.52236
G1 X137.938 Y156.027 E22.66751
G1 X135.873 Y155.700 E22.88662
G1 X134.535 Y155.342 E23.03178
G1 X132.583 Y154.592 E23.25089
G1 X131.349 Y153.964 E23.39606
G1 X128.771 Y152.192 E23.72391
G1 X127.742 Y151.253 E23.86996
G1 X28.508 Y52.007 E38.57981
G1 X27.175 Y50.404 E38.79831
G1 X26.036 Y48.651 E39.01743
G1 X25.408 Y47.417 E39.16259
G1 X24.658 Y45.465 E39.38170
G1 X24.300 Y44.127 E39.52686
G1 X23.973 Y42.062 E39.74597
G1 X23.900 Y40.679 E39.89112
G1 X24.010 Y38.592 E40.11024
G1 X24.226 Y37.224 E40.25540
G1 X24.768 Y35.204 E40.47452
G1 X25.264 Y33.911 E40.61969
G1 X26.213 Y32.048 E40.83880
G1 X26.967 Y30.887 E40.98394
G1 X28.283 Y29.262 E41.20308
G1 X28.735 Y28.810 E41.27015
G1 F1800.000 E40.27015
G92 E0
G1 X44.041 Y44.041 F7800.000
G1 E1.00000 F1800.000
G1 X41.991 Y45.280 E1.25103 F540.000
G1 X39.601 Y45.425 E1.50206
G1 X37.416 Y44.442 E1.75310
G1 X35.939 Y42.556 E2.00413
G1 X35.508 Y40.200 E2.25516
G1 X36.220 Y37.914 E2.50619
G1 X37.914 Y36.220 E2.75723
G1 X40.200 Y35.508 E3.00826
G1 X42.273 Y35.887 E3.22909
G1 X42.556 Y35.939 E3.25929 F540.000
G1 X44.442 Y37.416 E3.51033
G1 X45.425 Y39.601 E3.76136
G1 X45.280 Y41.991 E4.01239
G1 X44.068 Y43.996 E4.25792
G1 X43.586 Y43.586 F7800.000
G1 X41.800 Y44.666 E4.47667 F378.000
G1 X39.717 Y44.792 E4.69541
G1 X37.813 Y43.935 E4.91416
G1 X36.526 Y42.292 E5.13291
G1 X36.150 Y40.239 E5.35165
G1 X36.771 Y38.247 E5.57040
G1 X38.247 Y36.771 E5.78915
G1 X40.111 Y36.190 E5.99384
G1 X40.239 Y36.150 E6.00789 F378.000
G1 X42.292 Y36.526 E6.22664
G1 X43.935 Y37.813 E6.44538
G1 X44.792 Y39.717 E6.66413
G1 X44.666 Y41.800 E6.88287
G1 X43.613 Y43.541 E7.09612
G1 F1800.000 E6.09612
G92 E0
G1 X40.055 Y36.068 F7800.000
G1 X136.062 Y136.062 F7800.000
G1 E1.00000 F1800.000
G1 X136.909 Y135.215 E1.12552 F540.000
G1 X139.195 Y134.503 E1.37655
G1 X141.268 Y134.882 E1.59738
G1 X141.551 Y134.934 E1.62758 F540.000
G1 X143.437 Y136.411 E1.87861
G1 X144.420 Y138.595 E2.12965
G1 X144.275 Y140.986 E2.38068
G1 X143.036 Y143.036 E2.63171
G1 X140.986 Y144.275 E2.88274
G1 X138.595 Y144.420 E3.13377
G1 X136.411 Y143.437 E3.38481
G1 X134.934 Y141.551 E3.63584
G1 X134.503 Y139.195 E3.88687
G1 X135.215 Y136.909 E4.13790
G1 X136.025 Y136.099 E4.25792
G1 X136.504 Y136.504 F7800.000
G1 X137.242 Y135.766 E4.36729 F378.000
G1 X139.106 Y135.185 E4.57199
G1 X139.234 Y135.145 E4.58604 F378.000
G1 X141.287 Y135.521 E4.80479
G1 X142.930 Y136.808 E5.02353
G1 X143.787 Y138.712 E5.24228
G1 X143.660 Y140.795 E5.46102
G1 X142.581 Y142.581 E5.67977
G1 X140.795 Y143.660 E5.89852
G1 X138.711 Y143.787 E6.11726
G1 X136.808 Y142.930 E6.33601
G1 X135.521 Y141.287 E6.55475
G1 X135.145 Y139.234 E6.77350
G1 X135.766 Y137.242 E6.99225
G1 X136.467 Y136.541 E7.09612
G1 X139.125 Y135.052 F7800.000
G1 X142.885 Y130.122 F7800.000
G1 X145.190 Y132.426 E7.43768 F540.000
G1 X145.151 Y132.465 E7.44343
G1 X146.507 Y133.821 E7.64443
G1 X147.534 Y135.403 E7.84206
G1 X148.210 Y137.163 E8.03970
G1 X148.505 Y139.025 E8.23733
G1 X148.406 Y140.909 E8.43497
G1 X147.918 Y142.730 E8.63261
G1 X147.062 Y144.410 E8.83024
G1 X145.875 Y145.875 E9.02787
G1 X144.410 Y147.062 E9.22551
G1 X142.730 Y147.918 E9.42314
G1 X140.909 Y148.406 E9.62078
G1 X139.025 Y148.505 E9.81842
G1 X137.163 Y148.210 E10.01605
G1 X135.403 Y147.534 E10.21369
G1 X133.821 Y146.507 E10.41132
G1 X132.465 Y145.151 E10.61233
G1 X132.426 Y145.190 E10.61807
G1 X34.810 Y47.574 E25.08722
G1 X34.849 Y47.535 E25.09296
G1 X33.493 Y46.179 E25.29396
G1 X32.466 Y44.597 E25.49159
G1 X31.790 Y42.837 E25.68923
G1 X31.495 Y40.975 E25.88686
G1 X31.594 Y39.092 E26.08450
G1 X32.082 Y37.270 E26.28214
G1 X32.938 Y35.590 E26.47977
G1 X34.125 Y34.125 E26.67741
G1 X35.590 Y32.938 E26.87504
G1 X37.270 Y32.082 E27.07268
G1 X39.092 Y31.594 E27.27031
G1 X40.975 Y31.495 E27.46795 F540.000
G1 X42.837 Y31.790 E27.66559
G1 X44.597 Y32.466 E27.86322
G1 X46.179 Y33.493 E28.06085
G1 X47.535 Y34.849 E28.26185
G1 X47.574 Y34.810 E28.26759
G1 X142.848 Y130.085 E42.38968
G1 X143.327 Y129.680 F7800.000
G1 X146.074 Y132.426 E42.79674 F378.000
G1 X146.035 Y132.465 E42.80248
G1 X146.995 Y133.426 E42.94487
G1 X148.094 Y135.117 E43.15628
G1 X148.817 Y137.000 E43.36767
G1 X149.132 Y138.993 E43.57908
G1 X149.027 Y141.007 E43.79048
G1 X148.505 Y142.955 E44.00189
G1 X147.589 Y144.752 E44.21329
G1 X146.320 Y146.320 E44.42469
G1 X144.752 Y147.589 E44.63609
G1 X142.955 Y148.505 E44.84750
G1 X141.007 Y149.027 E45.05890
G1 X138.993 Y149.132 E45.27031
G1 X137.000 Y148.817 E45.48171
G1 X135.117 Y148.094 E45.69311
G1 X133.426 Y146.995 E45.90451
G1 X132.465 Y146.035 E46.04690
G1 X132.426 Y146.074 E46.05264
G1 X33.926 Y47.574 E60.65279
G1 X33.965 Y47.535 E60.65853
G1 X33.005 Y46.574 E60.80092
G1 X31.906 Y44.883 E61.01232
G1 X31.183 Y43.000 E61.22372
G1 X30.868 Y41.007 E61.43512
G1 X30.973 Y38.993 E61.64653
G1 X31.495 Y37.045 E61.85793
G1 X32.411 Y35.248 E62.06933
G1 X33.680 Y33.680 E62.28074
G1 X35.248 Y32.411 E62.49214
G1 X37.045 Y31.495 E62.70354
G1 X38.993 Y30.973 E62.91495
G1 X41.007 Y30.868 E63.12635
G1 X43.000 Y31.183 E63.33775
G1 X44.883 Y31.906 E63.54915 F378.000
G1 X46.574 Y33.005 E63.76056
G1 X47.535 Y33.965 E63.90295
G1 X47.574 Y33.926 E63.90869
G1 X143.290 Y129.643 E78.09627
G1 X43.319 Y31.327 F7800.000
G1 X43.879 Y32.654 F7800.000
G1 X147.346 Y136.121 E93.43275 F1080.000
G1 X147.824 Y137.498 F7800.000
G1 X42.502 Y32.176 E109.04411 F1080.000
G1 X41.435 Y32.007 E109.15733
G1 X147.993 Y138.565 E124.95189
G1 X148.046 Y139.515 E125.05162
G1 X40.485 Y31.954 E140.99474
G1 X47.559 Y35.437 F7800.000
G1 X144.563 Y132.441 E155.37312 F1080.000
G1 X143.702 Y136.069 F7800.000
G1 X39.632 Y31.999 E170.79893 F1080.000
G1 X38.843 Y32.109 E170.88237
G1 X42.162 Y35.427 E171.37420
G1 X41.062 Y35.225 E171.49136
G1 X38.135 Y32.298 E171.92521
G1 X37.427 Y32.488 E172.00205
G1 X40.042 Y35.103 E172.38970
G1 X39.358 Y35.317 E172.46486
G1 X36.832 Y32.791 E172.83922
G1 X36.237 Y33.094 E172.90919
G1 X38.673 Y35.530 E173.27024
G1 X37.988 Y35.743 E173.34541
G1 X35.673 Y33.428 E173.68860
G1 X35.177 Y33.830 E173.75552
G1 X37.434 Y36.087 E174.09013
G1 X36.985 Y36.536 E174.15668
G1 X34.681 Y34.232 E174.49828
G1 X34.232 Y34.681 E174.56484
G1 X36.536 Y36.985 E174.90644
G1 X36.087 Y37.434 E174.97299
G1 X33.830 Y35.177 E175.30760
G1 X33.428 Y35.673 E175.37452
G1 X35.743 Y37.988 E175.71771
G1 X35.530 Y38.673 E175.79288
G1 X33.094 Y36.237 E176.15393
G1 X32.791 Y36.832 E176.22390
G1 X35.317 Y39.358 E176.59826
G1 X35.103 Y40.042 E176.67342
G1 X32.488 Y37.427 E177.06107
G1 X32.298 Y38.135 E177.13791
G1 X35.225 Y41.062 E177.57176
G1 X35.427 Y42.162 E177.68891
G1 X32.109 Y38.843 E178.18075
G1 X31.999 Y39.632 E178.26419
G1 X37.175 Y44.808 E179.03137
G1 X140.368 Y148.001 E194.32715
G1 X141.157 Y147.891 E194.41059
G1 X137.803 Y144.538 E194.90769
G1 X138.993 Y144.829 E195.03608
G1 X141.865 Y147.702 E195.46182
G1 X142.573 Y147.512 E195.53866
G1 X139.839 Y144.778 E195.94387
G1 X140.686 Y144.727 E196.03278
G1 X143.168 Y147.209 E196.40068
G1 X143.763 Y146.906 E196.47065
G1 X141.392 Y144.535 E196.82202
G1 X141.952 Y144.197 E196.89056
G1 X144.327 Y146.572 E197.24259
G1 X144.823 Y146.170 E197.30951
G1 X142.512 Y143.859 E197.65213
G1 X143.071 Y143.520 E197.72068
G1 X145.319 Y145.768 E198.05389
G1 X145.768 Y145.319 E198.12044
G1 X143.520 Y143.071 E198.45365
G1 X143.859 Y142.512 E198.52220
G1 X146.170 Y144.823 E198.86482
G1 X146.572 Y144.327 E198.93174
G1 X144.197 Y141.952 E199.28377
G1 X144.535 Y141.392 E199.35231
G1 X146.906 Y143.763 E199.70367
G1 X147.209 Y143.168 E199.77365
G1 X144.727 Y140.686 E200.14154
G1 X144.778 Y139.839 E200.23045
G1 X147.512 Y142.573 E200.63566
G1 X147.702 Y141.865 E200.71251
G1 X144.829 Y138.993 E201.13825
G1 X144.538 Y137.803 E201.26664
G1 X147.891 Y141.157 E201.76374
G1 X148.001 Y140.368 E201.84718
G1 X143.803 Y136.170 E202.46945
G1 X141.157 Y134.422 F7800.000
G1 X45.543 Y38.808 E216.64180 F1080.000
G1 X45.834 Y39.998 E216.77018
G1 X140.057 Y134.220 E230.73632
G1 X139.037 Y134.098 E230.84399
G1 X45.783 Y40.844 E244.66655
G1 X45.732 Y41.691 E244.75546
G1 X138.353 Y134.312 E258.48413
G1 X137.668 Y134.525 E258.55929
G1 X45.540 Y42.397 E272.21487
G1 X45.202 Y42.957 E272.28341
G1 X136.983 Y134.738 E285.88766
G1 X136.429 Y135.082 E285.95601
G1 X44.864 Y43.517 E299.52828
G1 X44.525 Y44.076 E299.59682
G1 X135.980 Y135.531 E313.15268
G1 X135.531 Y135.980 E313.21924
G1 X44.076 Y44.525 E326.77510
G1 X43.517 Y44.864 E326.84364
G1 X135.082 Y136.429 E340.41591
G1 X134.738 Y136.983 E340.48426
G1 X42.957 Y45.202 E354.08850
G1 X42.397 Y45.540 E354.15705
G1 X134.525 Y137.668 E367.81263
G1 X134.312 Y138.353 E367.88779
G1 X41.691 Y45.732 E381.61646
G1 X40.844 Y45.783 E381.70537
G1 X134.098 Y139.037 E395.52793
G1 X134.220 Y140.057 E395.63559
G1 X39.998 Y45.834 E409.60174
G1 X38.808 Y45.543 E409.73012
G1 X134.422 Y141.157 E423.90246
G1 X132.441 Y144.563 F7800.000
G1 X35.437 Y47.559 E438.28084 F1080.000
G1 X32.654 Y43.879 F7800.000
G1 X136.121 Y147.346 E453.61733 F1080.000
G1 X137.498 Y147.824 F7800.000
G1 X32.176 Y42.502 E469.22868 F1080.000
G1 X32.007 Y41.435 E469.34191
G1 X138.565 Y147.993 E485.13646
G1 X139.515 Y148.046 E485.23620
G1 X31.954 Y40.485 E501.17931
M104 S180 ; set temperature
M140 S60 ; set bed temperature
G1 F1800.000 E500.17931
G92 E0
G1 Z0.580 F7800.000
G1 X43.713 Y43.713 F7800.000
G1 E1.00000 F1800.000
G1 X41.853 Y44.838 E1.08384 F1800.000
G1 X39.684 Y44.969 E1.16768
G1 X37.702 Y44.077 E1.25152
G1 X36.362 Y42.366 E1.33536
G1 X35.970 Y40.228 E1.41920
G1 X36.617 Y38.153 E1.50304
G1 X38.153 Y36.617 E1.58689
G1 X40.228 Y35.970 E1.67073
G1 X42.114 Y36.316 E1.74467
G1 X42.366 Y36.362 E1.75457 F1800.000
G1 X44.077 Y37.702 E1.83841
G1 X44.969 Y39.684 E1.92225
G1 X44.838 Y41.853 E2.00609
G1 X43.740 Y43.668 E2.08791
G1 X43.458 Y43.458 F7800.000
G1 X41.746 Y44.493 E2.16509 F1260.000
G1 X39.749 Y44.614 E2.24227
G1 X37.924 Y43.793 E2.31946
G1 X36.691 Y42.218 E2.39664
G1 X36.330 Y40.250 E2.47383
G1 X36.925 Y38.340 E2.55102
G1 X38.340 Y36.925 E2.62820
G1 X40.088 Y36.381 E2.69882
G1 X40.250 Y36.330 E2.70539 F1260.000
G1 X42.218 Y36.691 E2.78257
G1 X43.793 Y37.924 E2.85975
G1 X44.614 Y39.749 E2.93694
G1 X44.493 Y41.746 E3.01412
G1 X43.486 Y43.413 E3.08928
G1 F1800.000 E2.08928
G92 E0
G1 X40.016 Y36.226 F7800.000
G1 X136.380 Y136.380 F7800.000
G1 E1.00000 F1800.000
G1 X137.148 Y135.612 E1.04192 F1800.000
G1 X139.223 Y134.965 E1.12576
G1 X141.109 Y135.311 E1.19970
G1 X141.361 Y135.357 E1.20960 F1800.000
G1 X143.072 Y136.697 E1.29344
G1 X143.964 Y138.679 E1.37729
G1 X143.833 Y140.848 E1.46112
G1 X142.708 Y142.708 E1.54497
G1 X140.848 Y143.833 E1.62881
G1 X138.679 Y143.964 E1.71265
G1 X136.697 Y143.072 E1.79649
G1 X135.357 Y141.361 E1.88033
G1 X134.965 Y139.223 E1.96417
G1 X135.612 Y137.148 E2.04801
G1 X136.343 Y136.417 E2.08791
G1 X136.627 Y136.627 F7800.000
G1 X137.335 Y135.920 E2.12650 F1260.000
G1 X139.083 Y135.376 E2.19711
G1 X139.245 Y135.325 E2.20368 F1260.000
G1 X141.213 Y135.686 E2.28087
G1 X142.788 Y136.919 E2.35805
G1 X143.609 Y138.744 E2.43524
G1 X143.488 Y140.741 E2.51242
G1 X142.453 Y142.453 E2.58961
G1 X140.741 Y143.488 E2.66679
G1 X138.744 Y143.609 E2.74398
G1 X136.919 Y142.788 E2.82116
G1 X135.686 Y141.213 E2.89835
G1 X135.325 Y139.245 E2.97553
G1 X135.920 Y137.335 E3.05272
G1 X136.590 Y136.665 E3.08928
G1 F1800.000 E2.08928
G92 E0
G1 X139.106 Y135.207 F7800.000
G1 X143.327 Y129.928 F7800.000
G1 E1.00000 F1800.000
G1 X145.826 Y132.426 E1.13632 F1800.000
G1 X145.787 Y132.465 E1.13844
G1 X146.859 Y133.536 E1.19689
G1 X147.937 Y135.197 E1.27328
G1 X148.647 Y137.046 E1.34967
G1 X148.957 Y139.002 E1.42606
G1 X148.853 Y140.979 E1.50245
G1 X148.340 Y142.892 E1.57884
G1 X147.441 Y144.656 E1.65523
G1 X146.195 Y146.195 E1.73162
G1 X144.656 Y147.441 E1.80801
G1 X142.892 Y148.340 E1.88441
G1 X140.979 Y148.853 E1.96080
G1 X139.002 Y148.957 E2.03719
G1 X137.046 Y148.647 E2.11358
G1 X135.197 Y147.937 E2.18997
G1 X133.536 Y146.859 E2.26636
G1 X132.465 Y145.787 E2.32481
G1 X132.426 Y145.826 E2.32692
G1 X34.174 Y47.574 E7.68723
G1 X34.213 Y47.535 E7.68934
G1 X33.141 Y46.464 E7.74779
G1 X32.063 Y44.803 E7.82418
G1 X31.353 Y42.954 E7.90057
G1 X31.340 Y42.871 E7.90380
G1 X31.043 Y40.998 E7.97696
G1 X31.147 Y39.021 E8.05335
G1 X31.660 Y37.108 E8.12974
G1 X32.559 Y35.344 E8.20613
G1 X33.805 Y33.805 E8.28253
G1 X35.344 Y32.559 E8.35892
G1 X37.108 Y31.660 E8.43531
G1 X39.021 Y31.147 E8.51170
G1 X40.915 Y31.048 E8.58486
G1 X40.998 Y31.043 E8.58809 F1800.000
G1 X42.954 Y31.353 E8.66448
G1 X44.803 Y32.063 E8.74087
G1 X46.464 Y33.141 E8.81726
G1 X47.535 Y34.213 E8.87571
G1 X47.574 Y34.174 E8.87782
G1 X143.290 Y129.891 E14.09978
G1 X143.575 Y129.680 F7800.000
G1 X146.321 Y132.426 E14.24960 F1260.000
G1 X146.282 Y132.465 E14.25172
G1 X147.132 Y133.315 E14.29808
G1 X148.251 Y135.037 E14.37731
G1 X148.987 Y136.955 E14.45654
G1 X149.308 Y138.983 E14.53577
G1 X149.201 Y141.034 E14.61500
G1 X148.669 Y143.018 E14.69423
G1 X147.737 Y144.848 E14.77346
G1 X146.444 Y146.444 E14.85269
G1 X144.848 Y147.737 E14.93192
G1 X143.018 Y148.669 E15.01115
G1 X141.034 Y149.201 E15.09038
G1 X138.983 Y149.308 E15.16961
G1 X136.955 Y148.987 E15.24883
G1 X135.037 Y148.251 E15.32806
G1 X133.315 Y147.132 E15.40729
G1 X132.465 Y146.282 E15.45366
G1 X132.426 Y146.321 E15.45577
G1 X33.679 Y47.574 E20.84308
G1 X33.718 Y47.535 E20.84519
G1 X32.868 Y46.685 E20.89156
G1 X31.749 Y44.963 E20.97079
G1 X31.706 Y44.850 E20.97544
G1 X31.013 Y43.045 E21.05002
G1 X30.692 Y41.017 E21.12925
G1 X30.799 Y38.966 E21.20848
G1 X31.331 Y36.982 E21.28771
G1 X32.263 Y35.152 E21.36693
G1 X33.556 Y33.556 E21.44616
G1 X35.152 Y32.263 E21.52539
G1 X36.982 Y31.331 E21.60462
G1 X38.966 Y30.799 E21.68385
G1 X41.017 Y30.692 E21.76308
G1 X42.926 Y30.994 E21.83766
G1 X43.045 Y31.013 E21.84231 F1260.000
G1 X44.963 Y31.749 E21.92154
G1 X46.685 Y32.868 E22.00077
G1 X47.535 Y33.718 E22.04713
G1 X47.574 Y33.679 E22.04925
G1 X143.538 Y129.643 E27.28470
G1 X43.042 Y31.028 F7800.000
G1 X36.165 Y32.419 F7800.000
G1 X32.419 Y36.165 E27.52896 F3600.000
G1 X31.862 Y37.316 F7800.000
G1 X37.316 Y31.862 E27.88457 F3600.000
G1 X38.125 Y31.645 E27.92321
G1 X31.645 Y38.125 E28.34576
G1 X31.428 Y38.935 E28.38440
G1 X38.935 Y31.428 E28.87387
G1 X39.589 Y31.367 E28.90415
G1 X31.367 Y39.589 E29.44025
G1 X31.334 Y40.214 E29.46913
G1 X40.214 Y31.334 E30.04814
G1 X40.839 Y31.301 E30.07702
G1 X31.301 Y40.839 E30.69895
G1 X31.356 Y41.378 E30.72389
