; generated by Slic3r 1.1.7 on 2014-10-23 at 00:59:46

; perimeters extrusion width = 0.35mm
; infill extrusion width = 0.44mm
; solid infill extrusion width = 0.44mm
; top infill extrusion width = 0.44mm

G21 ; set units to millimeters
M104 S185 ; set temperature
G28 ; home all axes
M109 S185 ; wait for temperature to be reached
G90 ; use absolute coordinates
G92 E0
M82 ; use absolute distances for extrusion
G1 F1800.000 E-1.00000
G92 E0
G1 Z0.230 F7800.000
G1 X50.551 Y60.318 F7800.000
G1 E1.00000 F1800.000
G1 X52.931 Y59.055 E1.13283 F1080.000
G1 X86.983 Y51.873 E2.84860
G1 X88.655 Y51.814 E2.93108
G1 X111.577 Y54.978 E4.07189
G1 X113.428 Y55.633 E4.16873 F1080.000
G1 X114.871 Y56.966 E4.26557
G1 X115.770 Y59.442 E4.39543
G1 X117.566 Y83.685 E5.59396
G1 X117.566 Y99.147 E6.35627
G1 X117.170 Y101.071 E6.45311
G1 X116.047 Y102.683 E6.54995
G1 X113.559 Y103.943 E6.68747
G1 X90.211 Y108.155 E7.85715
G1 X88.638 Y108.180 E7.93472
G1 X48.382 Y102.268 E9.94071
G1 X46.536 Y101.597 E10.03755
G1 X45.105 Y100.252 E10.13439
G1 X44.230 Y97.810 E10.26225
G1 X42.447 Y73.930 E11.44288
G1 X42.699 Y71.981 E11.53973
G1 X43.149 Y71.025 E11.59184
G1 X48.135 Y62.869 E12.06313
G1 X48.907 Y61.906 E12.12399
G1 X50.513 Y60.354 E12.23410
G1 X50.854 Y60.632 F7800.000
G1 X53.021 Y59.482 E12.35503 F1080.000
G1 X87.073 Y52.300 E14.07080
G1 X88.595 Y52.246 E14.14589
G1 X111.517 Y55.410 E15.28671
G1 X113.277 Y56.052 E15.37906 F1080.000
G1 X114.615 Y57.363 E15.47142
G1 X115.335 Y59.474 E15.58138
G1 X117.130 Y83.685 E16.77831
G1 X117.130 Y99.147 E17.54061
G1 X116.734 Y100.978 E17.63297
G1 X115.618 Y102.483 E17.72533
G1 X113.481 Y103.513 E17.84230
G1 X90.133 Y107.725 E19.01199
G1 X88.701 Y107.749 E19.08261
G1 X48.445 Y101.837 E21.08860
G1 X46.691 Y101.179 E21.18096
G1 X45.364 Y99.857 E21.27331
G1 X44.665 Y97.778 E21.38144
G1 X42.882 Y73.897 E22.56208
G1 X43.521 Y71.253 E22.69620
G1 X48.507 Y63.097 E23.16750
G1 X49.210 Y62.220 E23.22291
G1 X50.817 Y60.668 E23.33301
G1 F1800.000 E22.33301
G92 E0
G1 X73.597 Y96.017 F7800.000
G1 E1.00000 F1800.000
G1 X73.336 Y96.245 E1.01709 F540.000
G1 X73.023 Y96.397 E1.03425
G1 X72.681 Y96.463 E1.05144
G1 X72.337 Y96.436 E1.06843
G1 X72.011 Y96.325 E1.08543
G1 X71.721 Y96.131 E1.10260
G1 X71.496 Y95.869 E1.11964
G1 X71.344 Y95.558 E1.13673
G1 X71.276 Y95.217 E1.15383
G1 X71.302 Y94.871 E1.17097
G1 X71.414 Y94.544 E1.18797
G1 X71.608 Y94.256 E1.20511
G1 X71.870 Y94.027 E1.22226
G1 X72.183 Y93.877 E1.23938
G1 X72.524 Y93.812 E1.25649
G1 X72.867 Y93.836 E1.27346
G1 X73.197 Y93.948 E1.29065 F540.000
G1 X73.484 Y94.144 E1.30778
G1 X73.711 Y94.405 E1.32485
G1 X73.861 Y94.716 E1.34184
G1 X73.929 Y95.058 E1.35903
G1 X73.903 Y95.402 E1.37605
G1 X73.791 Y95.731 E1.39316
G1 X73.627 Y95.974 E1.40764
G1 F1800.000 E0.40764
G92 E0
G1 X72.890 Y93.488 F7800.000
G1 X72.174 Y90.847 F7800.000
G1 E1.00000 F1800.000
G1 X70.155 Y88.806 E1.14153 F540.000
G1 X79.016 Y88.806 E1.57839
G1 X86.916 Y83.685 E2.04258
G1 X87.114 Y83.853 E2.05537
G1 X84.986 Y88.729 E2.31765
G1 X106.669 Y90.185 E3.38907
G1 X110.049 Y87.346 E3.60670
G1 X110.273 Y87.526 E3.62086
G1 X108.257 Y91.366 E3.83467
G1 X110.154 Y95.170 E4.04421
G1 X109.929 Y95.345 E4.05826
G1 X106.605 Y92.515 E4.27351
G1 X92.154 Y95.475 E5.00076
G1 X89.032 Y101.555 E5.33774
G1 X83.465 Y96.345 E5.71368
G1 X74.505 Y96.345 E6.15543
G1 X74.764 Y95.578 E6.19532
G1 X74.809 Y95.005 E6.22364
G1 X74.696 Y94.436 E6.25227
G1 X74.446 Y93.920 E6.28051
G1 X74.069 Y93.487 E6.30879
G1 X73.592 Y93.160 E6.33736
G1 X73.041 Y92.973 E6.36604
G1 X72.471 Y92.933 E6.39417
G1 X71.907 Y93.041 E6.42249
G1 X71.386 Y93.292 E6.45101
G1 X70.948 Y93.673 E6.47965
G1 X70.625 Y94.153 E6.50818
G1 X70.441 Y94.694 E6.53632
G1 X70.396 Y95.270 E6.56484
G1 X70.510 Y95.839 E6.59344
G1 X70.757 Y96.345 E6.62116
G1 X51.690 Y96.345 E7.56120
G1 X54.643 Y93.290 E7.77066
G1 X55.886 Y94.591 E7.85937
G1 X57.175 Y93.321 E7.94856
G1 X58.363 Y94.639 E8.03606
G1 X59.635 Y93.312 E8.12672
G1 X60.853 Y94.597 E8.21403
G1 X62.151 Y93.309 E8.30414
G1 X63.355 Y94.627 E8.39217
G1 X64.631 Y93.313 E8.48249
G1 X65.846 Y94.603 E8.56987
G1 X67.130 Y93.318 E8.65942
G1 X68.346 Y94.586 E8.74604
G1 X72.137 Y90.883 E9.00728
G1 X71.555 Y90.841 F7800.000
G1 X69.109 Y88.370 E9.17872 F540.000
G1 X78.887 Y88.370 E9.66077
G1 X87.897 Y82.530 E10.19012
G1 X88.094 Y82.698 E10.20292
G1 X85.634 Y88.335 E10.50615
G1 X106.523 Y89.738 E11.53832
G1 X111.466 Y85.587 E11.85656
G1 X111.689 Y85.767 E11.87072
G1 X108.747 Y91.372 E12.18279
G1 X111.498 Y96.887 E12.48669
G1 X111.274 Y97.063 E12.50074
G1 X106.484 Y92.985 E12.81087
G1 X92.447 Y95.861 E13.51731
G1 X89.156 Y102.269 E13.87249
G1 X83.293 Y96.781 E14.26844
G1 X73.384 Y96.781 E14.75695
G1 X73.926 Y96.309 E14.79238
G1 X74.186 Y95.926 E14.81517
G1 X74.334 Y95.490 E14.83790
G1 X74.369 Y95.031 E14.86057
G1 X74.279 Y94.576 E14.88347
G1 X74.079 Y94.163 E14.90609
G1 X73.777 Y93.816 E14.92877
G1 X73.395 Y93.554 E14.95161
G1 X72.954 Y93.405 E14.97455
G1 X72.498 Y93.372 E14.99710
G1 X72.045 Y93.459 E15.01982
G1 X71.628 Y93.660 E15.04264
G1 X71.278 Y93.964 E15.06553
G1 X71.019 Y94.349 E15.08836
G1 X70.872 Y94.782 E15.11093
G1 X70.836 Y95.244 E15.13376
G1 X70.927 Y95.698 E15.15662
G1 X71.128 Y96.111 E15.17925
G1 X71.429 Y96.460 E15.20197
G1 X71.538 Y96.534 E15.20846
G1 X71.463 Y96.781 E15.22121
G1 X50.661 Y96.781 E16.24679
G1 X54.645 Y92.661 E16.52936
G1 X55.896 Y93.969 E16.61859
G1 X57.193 Y92.689 E16.70844
G1 X58.372 Y93.998 E16.79530
G1 X59.637 Y92.679 E16.88538
G1 X60.863 Y93.973 E16.97325
G1 X62.166 Y92.679 E17.06376
G1 X63.365 Y93.991 E17.15137
G1 X64.636 Y92.682 E17.24135
G1 X65.856 Y93.976 E17.32904
G1 X67.136 Y92.694 E17.41839
G1 X68.356 Y93.966 E17.50528
G1 X71.517 Y90.878 E17.72316
G1 F1800.000 E16.72316
G92 E0
G1 X69.027 Y88.370 F7800.000
G1 E1.00000 F1800.000
G1 X67.799 Y89.714 E1.08976 F540.000
G1 X66.696 Y88.370 E1.17547
G1 X68.974 Y88.370 E1.28780
G1 F1800.000 E0.28780
G92 E0
G1 X66.513 Y88.370 F7800.000
G1 E1.00000 F1800.000
G1 X65.298 Y89.708 E1.08912 F540.000
G1 X64.213 Y88.370 E1.17408
G1 X66.460 Y88.370 E1.28489
G1 F1800.000 E0.28489
G92 E0
G1 X64.023 Y88.370 F7800.000
G1 E1.00000 F1800.000
G1 X62.827 Y89.693 E1.08796 F540.000
G1 X61.683 Y88.370 E1.17421
G1 X63.971 Y88.370 E1.28701
G1 F1800.000 E0.28701
G92 E0
G1 X61.534 Y88.370 F7800.000
G1 E1.00000 F1800.000
G1 X60.290 Y89.698 E1.08969 F540.000
G1 X59.165 Y88.370 E1.17551
G1 X61.481 Y88.370 E1.28970
G1 F1800.000 E0.28970
G92 E0
G1 X58.989 Y88.370 F7800.000
G1 E1.00000 F1800.000
G1 X57.842 Y89.651 E1.08481 F540.000
G1 X56.666 Y88.370 E1.17056
G1 X58.937 Y88.370 E1.28252
G1 F1800.000 E0.28252
G92 E0
G1 X56.571 Y88.370 F7800.000
G1 E1.00000 F1800.000
G1 X55.295 Y89.644 E1.08891 F540.000
G1 X55.003 Y89.322 E1.11034
G1 X55.989 Y88.370 E1.17791
G1 X56.519 Y88.370 E1.20404
G1 X56.607 Y88.951 F7800.000
G1 X55.280 Y90.276 E1.29650 F540.000
G1 X54.396 Y89.302 E1.36136
G1 X55.812 Y87.933 E1.45848
G1 X78.758 Y87.933 E2.58972
G1 X88.877 Y81.375 E3.18423
G1 X89.075 Y81.543 E3.19703
G1 X86.282 Y87.941 E3.54120
G1 X106.377 Y89.291 E4.53414
G1 X112.464 Y84.179 E4.92604
G1 X112.464 Y85.231 E4.97789
G1 X109.237 Y91.377 E5.32012
G1 X112.464 Y97.845 E5.67651
G1 X112.464 Y98.649 E5.71615
G1 X106.363 Y93.455 E6.11115
G1 X92.739 Y96.246 E6.79678
G1 X89.280 Y102.983 E7.17015
G1 X83.120 Y97.217 E7.58613
G1 X49.632 Y97.217 E9.23718
G1 X54.647 Y92.031 E9.59285
G1 X55.905 Y93.347 E9.68261
G1 X57.212 Y92.058 E9.77312
G1 X58.382 Y93.357 E9.85933
G1 X59.639 Y92.047 E9.94883
G1 X60.873 Y93.348 E10.03726
G1 X62.181 Y92.049 E10.12817
G1 X63.375 Y93.355 E10.21536
G1 X64.641 Y92.050 E10.30500
G1 X65.865 Y93.350 E10.39301
G1 X67.142 Y92.070 E10.48215
G1 X68.366 Y93.346 E10.56932
G1 X70.936 Y90.836 E10.74642
G1 X69.079 Y88.960 E10.87657
G1 X67.781 Y90.380 E10.97144
G1 X66.592 Y88.931 E11.06383
G1 X65.279 Y90.378 E11.16015
G1 X64.105 Y88.930 E11.25208
G1 X62.819 Y90.352 E11.34661
G1 X61.598 Y88.939 E11.43868
G1 X60.274 Y90.353 E11.53419
G1 X59.070 Y88.933 E11.62597
G1 X57.845 Y90.301 E11.71649
G1 X56.642 Y88.990 E11.80422
G1 X56.363 Y88.700 F7800.000
G1 F1800.000 E10.80422
G92 E0
G1 X52.436 Y96.048 F7800.000
G1 E1.00000 F1800.000
G1 X52.436 Y95.999 E1.00240 F1080.000
G1 X52.874 Y95.546 E1.03350
G1 X52.874 Y96.048 E1.05827
G1 X53.313 Y96.048 E1.07989
G1 X53.313 Y95.092 E1.12701
G1 X53.751 Y94.639 E1.15811
G1 X53.751 Y96.048 E1.22758
G1 X54.190 Y96.048 E1.24920
G1 X54.190 Y94.185 E1.34104
G1 X54.628 Y93.732 E1.37214
G1 X54.628 Y96.048 E1.48633
G1 X55.067 Y96.048 E1.50795
G1 X55.067 Y94.163 E1.60091
G1 X55.505 Y94.621 E1.63220
G1 X55.505 Y96.048 E1.70255
G1 X55.944 Y96.048 E1.72417
G1 X55.944 Y94.951 E1.77828
G1 X56.382 Y94.518 E1.80864
G1 X56.382 Y96.048 E1.88407
G1 X56.821 Y96.048 E1.90569
G1 X56.821 Y94.086 E2.00244
G1 X57.259 Y93.857 E2.02682
G1 X57.259 Y96.048 E2.13483
G1 X57.698 Y96.048 E2.15645
G1 X57.698 Y94.344 E2.24047
G1 X58.136 Y94.831 E2.27276
G1 X58.136 Y96.048 E2.33279
G1 X58.575 Y96.048 E2.35441
G1 X58.575 Y94.846 E2.41369
G1 X59.013 Y94.388 E2.44493
G1 X59.013 Y96.048 E2.52676
G1 X59.452 Y96.048 E2.54838
G1 X59.452 Y93.931 E2.65275
G1 X59.890 Y94.012 E2.67473
G1 X59.890 Y96.048 E2.77514
G1 X60.329 Y96.048 E2.79676
G1 X60.329 Y94.474 E2.87437
G1 X60.767 Y94.937 E2.90579
G1 X60.767 Y96.048 E2.96059
G1 X61.206 Y96.048 E2.98221
G1 X61.206 Y94.665 E3.05041
G1 X61.644 Y94.230 E3.08087
G1 X61.644 Y96.048 E3.17052
G1 X62.083 Y96.048 E3.19214
G1 X62.083 Y93.795 E3.30325
G1 X62.521 Y94.154 E3.33121
G1 X62.521 Y96.048 E3.42459
G1 X62.960 Y96.048 E3.44621
G1 X62.960 Y94.634 E3.51594
G1 X63.398 Y95.009 E3.54438
G1 X63.398 Y96.048 E3.59562
G1 X63.837 Y96.048 E3.61724
G1 X63.837 Y94.557 E3.69075
G1 X64.275 Y94.105 E3.72179
G1 X64.275 Y96.048 E3.81757
G1 X64.714 Y96.048 E3.83919
G1 X64.714 Y93.833 E3.94842
G1 X65.152 Y94.298 E3.97995
G1 X65.152 Y96.048 E4.06622
G1 X65.591 Y96.048 E4.08784
G1 X65.591 Y94.764 E4.15114
G1 X66.029 Y94.840 E4.17308
G1 X66.029 Y96.048 E4.23266
G1 X66.468 Y96.048 E4.25428
G1 X66.468 Y94.401 E4.33551
G1 X66.906 Y93.961 E4.36611
G1 X66.906 Y96.048 E4.46899
G1 X67.345 Y96.048 E4.49061
G1 X67.345 Y93.970 E4.59307
G1 X67.783 Y94.427 E4.62430
G1 X67.783 Y96.048 E4.70423
G1 X68.222 Y96.048 E4.72585
G1 X68.222 Y94.884 E4.78324
G1 X68.660 Y94.693 E4.80681
G1 X68.660 Y96.048 E4.87361
G1 X69.099 Y96.048 E4.89523
G1 X69.099 Y94.265 E4.98314
G1 X69.537 Y93.837 E5.01336
G1 X69.537 Y96.048 E5.12239
G1 X69.976 Y96.048 E5.14401
G1 X69.976 Y93.408 E5.27415
G1 X70.414 Y93.936 E5.30796
G1 X70.414 Y92.980 E5.35507
G1 X70.853 Y92.552 E5.38529
G1 X70.853 Y93.363 E5.42528
G1 X71.291 Y93.008 E5.45308
G1 X71.291 Y92.123 E5.49672
G1 X71.730 Y91.695 E5.52694
G1 X71.730 Y92.798 E5.58130
G1 X72.168 Y92.689 E5.60356
G1 X72.168 Y91.267 E5.67370
G1 X71.291 Y89.533 F7800.000
G1 X71.291 Y89.102 E5.69492 F1080.000
G1 X71.730 Y89.102 E5.71654
G1 X71.730 Y89.976 E5.75960
G1 X72.168 Y90.419 E5.79034
G1 X72.168 Y89.102 E5.85525
G1 X72.607 Y89.102 E5.87686
G1 X72.607 Y92.646 E6.05155
G1 X73.045 Y92.676 E6.07322
G1 X73.045 Y89.102 E6.24942
G1 X73.484 Y89.102 E6.27104
G1 X73.484 Y92.810 E6.45384
G1 X73.922 Y93.027 E6.47795
G1 X73.922 Y89.102 E6.67144
G1 X74.360 Y89.102 E6.69306
G1 X74.360 Y93.371 E6.90349
G1 X74.799 Y93.969 E6.94007
G1 X74.799 Y89.102 E7.18001
G1 X75.237 Y89.102 E7.20163
G1 X75.237 Y96.048 E7.54407
G1 X75.676 Y96.048 E7.56569
G1 X75.676 Y89.102 E7.90812
G1 X76.114 Y89.102 E7.92974
G1 X76.114 Y96.048 E8.27218
G1 X76.553 Y96.048 E8.29380
G1 X76.553 Y89.102 E8.63624
G1 X76.991 Y89.102 E8.65785
G1 X76.991 Y96.048 E9.00029
G1 X77.430 Y96.048 E9.02191
G1 X77.430 Y89.102 E9.36435
G1 X77.868 Y89.102 E9.38597
G1 X77.868 Y96.048 E9.72840
G1 X78.307 Y96.048 E9.75002
G1 X78.307 Y89.102 E10.09246
G1 X78.745 Y89.102 E10.11408
G1 X78.745 Y96.048 E10.45651
G1 X79.184 Y96.048 E10.47813
G1 X79.184 Y89.050 E10.82314
G1 X79.622 Y88.766 E10.84891
G1 X79.622 Y96.048 E11.20793
G1 X80.061 Y96.048 E11.22955
G1 X80.061 Y88.482 E11.60258
G1 X80.499 Y88.198 E11.62835
G1 X80.499 Y96.048 E12.01540
G1 X80.938 Y96.048 E12.03701
G1 X80.938 Y87.913 E12.43808
G1 X81.376 Y87.629 E12.46384
G1 X81.376 Y96.048 E12.87892
G1 X81.815 Y96.048 E12.90054
G1 X81.815 Y87.345 E13.32963
G1 X82.253 Y87.061 E13.35539
G1 X82.253 Y96.048 E13.79849
G1 X82.692 Y96.048 E13.82011
G1 X82.692 Y86.776 E14.27723
G1 X83.130 Y86.492 E14.30299
G1 X83.130 Y96.048 E14.77412
G1 X83.569 Y96.048 E14.79574
G1 X83.569 Y86.208 E15.28089
G1 X84.007 Y85.924 E15.30665
G1 X84.007 Y96.446 E15.82543
G1 X84.446 Y96.857 E15.85504
G1 X84.446 Y85.639 E16.40806
G1 X85.761 Y86.211 F7800.000
G1 X85.761 Y84.787 E16.47830 F1080.000
G1 X86.200 Y84.502 E16.50406
G1 X86.200 Y85.207 E16.53878
G1 F1800.000 E15.53878
G92 E0
G1 X85.323 Y87.216 F7800.000
G1 E1.00000 F1800.000
G1 X85.323 Y85.071 E1.10575 F1080.000
G1 X84.884 Y85.355 E1.13151
G1 X84.884 Y88.220 E1.27277
G1 X84.884 Y89.019 F7800.000
G1 X84.884 Y97.267 E1.67943 F1080.000
G1 X85.323 Y97.677 E1.70904
G1 X85.323 Y89.048 E2.13448
G1 X85.761 Y89.078 E2.15614
G1 X85.761 Y98.088 E2.60036
G1 X86.200 Y98.498 E2.62998
G1 X86.200 Y89.107 E3.09298
G1 X86.638 Y89.137 E3.11465
G1 X86.638 Y98.909 E3.59643
G1 X87.077 Y99.319 E3.62605
G1 X87.077 Y89.166 E4.12661
G1 X87.515 Y89.196 E4.14828
G1 X87.515 Y99.730 E4.66764
G1 X87.954 Y100.140 E4.69725
G1 X87.954 Y89.225 E5.23538
G1 X88.392 Y89.254 E5.25705
G1 X88.392 Y100.551 E5.81397
G1 X88.831 Y100.961 E5.84358
G1 X88.831 Y89.284 E6.41928
G1 X89.269 Y89.313 E6.44095
G1 X89.269 Y100.445 E6.98975
G1 X89.708 Y99.591 E7.03708
G1 X89.708 Y89.343 E7.54233
G1 X90.146 Y89.372 E7.56400
G1 X90.146 Y98.737 E8.02569
G1 X90.585 Y97.883 E8.07302
G1 X90.585 Y89.402 E8.49115
G1 X91.023 Y89.431 E8.51282
G1 X91.023 Y97.029 E8.88739
G1 X91.462 Y96.175 E8.93472
G1 X91.462 Y89.461 E9.26574
G1 X91.900 Y89.490 E9.28741
G1 X91.900 Y95.321 E9.57488
G1 X92.339 Y95.135 E9.59836
G1 X92.339 Y89.520 E9.87520
G1 X92.777 Y89.549 E9.89686
G1 X92.777 Y95.045 E10.16782
G1 X93.216 Y94.955 E10.18989
G1 X93.216 Y89.579 E10.45496
G1 X93.654 Y89.608 E10.47663
G1 X93.654 Y94.865 E10.73582
G1 X94.093 Y94.775 E10.75789
G1 X94.093 Y89.637 E11.01120
G1 X94.531 Y89.667 E11.03287
G1 X94.531 Y94.686 E11.28030
G1 X94.970 Y94.596 E11.30237
G1 X94.970 Y89.696 E11.54392
G1 X95.408 Y89.726 E11.56559
G1 X95.408 Y94.506 E11.80126
G1 X95.847 Y94.416 E11.82333
G1 X95.847 Y89.755 E12.05312
G1 X96.285 Y89.785 E12.07478
G1 X96.285 Y94.326 E12.29869
G1 X96.724 Y94.237 E12.32076
G1 X96.724 Y89.814 E12.53879
G1 X97.162 Y89.844 E12.56045
G1 X97.162 Y94.147 E12.77260
G1 X97.601 Y94.057 E12.79467
G1 X97.601 Y89.873 E13.00094
G1 X98.039 Y89.903 E13.02260
G1 X98.039 Y93.967 E13.22299
G1 X98.478 Y93.877 E13.24506
G1 X98.478 Y89.932 E13.43956
G1 X98.916 Y89.962 E13.46123
G1 X98.916 Y93.787 E13.64985
G1 X99.355 Y93.698 E13.67192
G1 X99.355 Y89.991 E13.85467
G1 X99.793 Y90.020 E13.87633
G1 X99.793 Y93.608 E14.05320
G1 X100.232 Y93.518 E14.07526
G1 X100.232 Y90.050 E14.24625
G1 X100.670 Y90.079 E14.26791
G1 X100.670 Y93.428 E14.43301
G1 X101.109 Y93.338 E14.45508
G1 X101.109 Y90.109 E14.61430
G1 X101.547 Y90.138 E14.63597
G1 X101.547 Y93.249 E14.78931
G1 X101.985 Y93.159 E14.81138
G1 X101.985 Y90.168 E14.95884
G1 X102.424 Y90.197 E14.98050
G1 X102.424 Y93.069 E15.12208
G1 X102.862 Y92.979 E15.14415
G1 X102.862 Y90.227 E15.27985
G1 X103.301 Y90.256 E15.30151
G1 X103.301 Y92.889 E15.43133
G1 X103.739 Y92.799 E15.45340
G1 X103.739 Y90.286 E15.57733
G1 X104.178 Y90.315 E15.59900
G1 X104.178 Y92.710 E15.71706
G1 X104.616 Y92.620 E15.73912
G1 X104.616 Y90.345 E15.85130
G1 X105.055 Y90.374 E15.87297
G1 X105.055 Y92.530 E15.97926
