; generated by Slic3r 1.1.7 on 2015-01-11 at 15:16:05

; perimeters extrusion width = 0.35mm
; infill extrusion width = 0.67mm
; solid infill extrusion width = 0.59mm
; top infill extrusion width = 0.59mm

G21 ; set units to millimeters
M190 S60 ; wait for bed temperature to be reached
M104 S185 ; set temperature
G28 ; home all axes
M109 S185 ; wait for temperature to be reached
G90 ; use absolute coordinates
G92 E0
M82 ; use absolute distances for extrusion
G1 F1800.000 E-1.00000
G92 E0
G1 Z0.230 F5400.000
G1 X57.646 Y60.965 F5400.000
G1 E1.00000 F1800.000
G1 X59.315 Y59.928 E1.09684 F1800.000
G1 X61.000 Y59.627 E1.18124
G1 X99.000 Y59.627 E3.05472
G1 X100.924 Y60.023 E3.15156
G1 X102.535 Y61.146 E3.24840 F1800.000
G1 X103.572 Y62.815 E3.34524
G1 X103.873 Y64.500 E3.42964
G1 X103.873 Y72.500 E3.82405
G1 X103.469 Y74.443 E3.92189
G1 X93.469 Y97.443 E5.15838
G1 X92.339 Y99.049 E5.25522
G1 X90.666 Y100.079 E5.35206
G1 X89.000 Y100.373 E5.43546
G1 X70.100 Y100.373 E6.36727
G1 X68.139 Y99.961 E6.46605
G1 X59.039 Y95.961 E6.95613
G1 X57.437 Y94.824 E7.05297
G1 X56.414 Y93.147 E7.14981
G1 X56.127 Y91.500 E7.23226
G1 X56.127 Y64.500 E8.56341
G1 X56.523 Y62.576 E8.66025
G1 X57.616 Y61.008 E8.75450
G1 X58.018 Y61.241 F5400.000
G1 X58.075 Y61.164 E8.75919 F1800.000
G1 X59.713 Y60.255 E8.85154
G1 X61.000 Y60.064 E8.91571
G1 X99.000 Y60.064 E10.78919
G1 X100.831 Y60.459 E10.88154
G1 X102.336 Y61.575 E10.97390 F1800.000
G1 X103.245 Y63.213 E11.06626
G1 X103.436 Y64.500 E11.13043
G1 X103.436 Y72.500 E11.52484
G1 X103.068 Y74.269 E11.61392
G1 X93.068 Y97.269 E12.85041
G1 X91.976 Y98.790 E12.94276
G1 X90.352 Y99.725 E13.03512
G1 X89.000 Y99.936 E13.10260
G1 X70.100 Y99.936 E14.03441
G1 X68.315 Y99.561 E14.12435
G1 X59.215 Y95.561 E14.61442
G1 X57.698 Y94.462 E14.70678
G1 X56.769 Y92.835 E14.79914
G1 X56.564 Y91.500 E14.86575
G1 X56.564 Y64.500 E16.19691
G1 X56.959 Y62.669 E16.28926
G1 X57.987 Y61.283 E16.37435
G1 F1800.000 E15.37435
G92 E0
G1 X75.247 Y86.603 F5400.000
G1 E1.00000 F1800.000
G1 X71.525 Y86.603 E1.18352 F900.000
G1 X69.610 Y78.397 E1.59894
G1 X77.435 Y78.397 E1.98473
G1 X75.261 Y86.552 E2.40083
G1 X74.912 Y86.166 F5400.000
G1 X71.871 Y86.166 E2.55075 F900.000
G1 X70.160 Y78.834 E2.92198
G1 X76.867 Y78.834 E3.25266
G1 X74.926 Y86.116 E3.62422
G1 X74.577 Y85.730 F5400.000
G1 X72.217 Y85.730 E3.74054 F900.000
G1 X70.710 Y79.270 E4.06758
G1 X76.299 Y79.270 E4.34314
G1 X74.590 Y85.679 E4.67018
G1 X74.546 Y86.079 F5400.000
G1 F1800.000 E3.67018
G92 E0
G1 X69.079 Y89.666 F5400.000
G1 E1.00000 F1800.000
G1 X62.834 Y89.666 E1.30789 F900.000
G1 X62.834 Y83.334 E1.62011
G1 X67.305 Y83.334 E1.84058
G1 X69.064 Y89.616 E2.16222
G1 X68.503 Y89.230 F5400.000
G1 X63.270 Y89.230 E2.42023 F900.000
G1 X63.270 Y83.770 E2.68942
G1 X66.974 Y83.770 E2.87205
G1 X68.489 Y89.179 E3.14901
G1 X68.535 Y89.579 F5400.000
G1 F1800.000 E2.14901
G92 E0
G1 X80.167 Y82.513 F5400.000
G1 E1.00000 F1800.000
G1 X76.205 Y94.397 E1.61763 F900.000
G1 X70.940 Y94.397 E1.87719
G1 X69.840 Y90.397 E2.08172
G1 X69.736 Y90.397 E2.08685
G1 X67.636 Y82.897 E2.47084
G1 X67.560 Y82.897 E2.47458
G1 X62.474 Y65.603 E3.36335
G1 X68.189 Y65.603 E3.64513
G1 X70.689 Y73.603 E4.05835
G1 X76.311 Y73.603 E4.33551
G1 X78.811 Y65.603 E4.74873
G1 X97.897 Y65.603 E5.68973
G1 X97.897 Y71.397 E5.97541
G1 X87.897 Y71.397 E6.46843
G1 X87.897 Y94.397 E7.60238
G1 X82.103 Y94.397 E7.88806
G1 X82.103 Y82.827 E8.45850
G1 X80.219 Y82.521 E8.55261
G1 X80.463 Y83.003 F5400.000
G1 X76.520 Y94.834 E9.16745 F900.000
G1 X70.608 Y94.834 E9.45891
G1 X69.508 Y90.834 E9.66344
G1 X61.666 Y90.834 E10.05004
G1 X61.666 Y82.166 E10.47735
G1 X66.891 Y82.166 E10.73492
G1 X61.891 Y65.166 E11.60855
G1 X68.510 Y65.166 E11.93490
G1 X71.010 Y73.166 E12.34813
G1 X75.990 Y73.166 E12.59365
G1 X78.490 Y65.166 E13.00687
G1 X98.334 Y65.166 E13.98521
G1 X98.334 Y71.834 E14.31392
G1 X88.334 Y71.834 E14.80694
G1 X88.334 Y94.834 E15.94088
G1 X81.666 Y94.834 E16.26959
G1 X81.666 Y83.198 E16.84324
G1 X80.515 Y83.011 E16.90075
G1 X80.760 Y83.493 F5400.000
G1 X76.834 Y95.270 E17.51278 F900.000
G1 X70.275 Y95.270 E17.83615
G1 X69.175 Y91.270 E18.04068
G1 X61.230 Y91.270 E18.43240
G1 X61.230 Y81.730 E18.90274
G1 X66.307 Y81.730 E19.15307
G1 X61.307 Y64.730 E20.02670
G1 X68.831 Y64.730 E20.39763
G1 X71.331 Y72.730 E20.81085
G1 X75.669 Y72.730 E21.02473
G1 X78.169 Y64.730 E21.43796
G1 X98.770 Y64.730 E22.45363
G1 X98.770 Y72.270 E22.82536
G1 X88.770 Y72.270 E23.31838
G1 X88.770 Y95.270 E24.45233
G1 X81.230 Y95.270 E24.82407
G1 X81.230 Y83.569 E25.40093
G1 X80.812 Y83.501 E25.42183
G1 X80.422 Y83.400 F5400.000
G1 X79.580 Y83.335 F5400.000
G1 X79.580 Y65.919 E26.28046 F1800.000
G1 X80.019 Y65.919 E26.30210
G1 X80.019 Y82.188 E27.10421
G1 X80.458 Y82.260 E27.12614
G1 X80.458 Y65.919 E27.93176
G1 X80.897 Y65.919 E27.95341
G1 X80.897 Y82.331 E28.76254
G1 X81.336 Y82.402 E28.78447
G1 X81.336 Y65.919 E29.59712
G1 X81.775 Y65.919 E29.61876
G1 X81.775 Y82.473 E30.43492
G1 X82.214 Y82.545 E30.45685
G1 X82.214 Y65.919 E31.27652
G1 X82.653 Y65.919 E31.29817
G1 X82.653 Y94.081 E32.68660
G1 X83.093 Y94.081 E32.70824
G1 X83.093 Y65.919 E34.09667
G1 X83.532 Y65.919 E34.11832
G1 X83.532 Y94.081 E35.50675
G1 X83.971 Y94.081 E35.52839
G1 X83.971 Y65.919 E36.91682
G1 X84.410 Y65.919 E36.93847
G1 X84.410 Y94.081 E38.32690
G1 X84.849 Y94.081 E38.34854
G1 X84.849 Y65.919 E39.73697
G1 X85.288 Y65.919 E39.75862
G1 X85.288 Y94.081 E41.14704
G1 X85.727 Y94.081 E41.16869
G1 X85.727 Y65.919 E42.55712
G1 X86.166 Y65.919 E42.57876
G1 X86.166 Y94.081 E43.96719
G1 X86.605 Y94.081 E43.98884
G1 X86.605 Y65.919 E45.37727
G1 X87.044 Y65.919 E45.39891
G1 X87.044 Y94.081 E46.78734
G1 X87.483 Y94.081 E46.80899
G1 X87.483 Y65.919 E48.19742
G1 F1800.000 E47.19742
G92 E0
G1 X87.922 Y71.101 F5400.000
G1 E1.00000 F1800.000
G1 X87.922 Y65.919 E1.25547 F1800.000
G1 X88.361 Y65.919 E1.27711
G1 X88.361 Y71.101 E1.53258
G1 X88.800 Y71.101 E1.55423
G1 X88.800 Y65.919 E1.80970
G1 X89.239 Y65.919 E1.83134
G1 X89.239 Y71.101 E2.08681
G1 X89.678 Y71.101 E2.10846
G1 X89.678 Y65.919 E2.36392
G1 X90.117 Y65.919 E2.38557
G1 X90.117 Y71.101 E2.64104
G1 X90.556 Y71.101 E2.66268
G1 X90.556 Y65.919 E2.91815
G1 X90.995 Y65.919 E2.93980
G1 X90.995 Y71.101 E3.19527
G1 X91.434 Y71.101 E3.21691
G1 X91.434 Y65.919 E3.47238
G1 X91.873 Y65.919 E3.49403
G1 X91.873 Y71.101 E3.74949
G1 X92.312 Y71.101 E3.77114
G1 X92.312 Y65.919 E4.02661
G1 X92.751 Y65.919 E4.04825
G1 X92.751 Y71.101 E4.30372
G1 X93.190 Y71.101 E4.32537
G1 X93.190 Y65.919 E4.58084
G1 X93.629 Y65.919 E4.60248
G1 X93.629 Y71.101 E4.85795
G1 X94.069 Y71.101 E4.87960
G1 X94.069 Y65.919 E5.13506
G1 X94.508 Y65.919 E5.15671
G1 X94.508 Y71.101 E5.41218
G1 X94.947 Y71.101 E5.43382
G1 X94.947 Y65.919 E5.68929
G1 X95.386 Y65.919 E5.71094
G1 X95.386 Y71.101 E5.96641
G1 X95.825 Y71.101 E5.98805
G1 X95.825 Y65.919 E6.24352
G1 X96.264 Y65.919 E6.26517
G1 X96.264 Y71.101 E6.52063
G1 X96.703 Y71.101 E6.54228
G1 X96.703 Y65.919 E6.79775
G1 X97.142 Y65.919 E6.81939
G1 X97.142 Y71.101 E7.07486
G1 X97.581 Y71.101 E7.09651
G1 X97.581 Y65.919 E7.35198
G1 F1800.000 E6.35198
G92 E0
G1 X79.141 Y65.919 F5400.000
G1 E1.00000 F1800.000
G1 X79.141 Y84.652 E1.92357 F1800.000
G1 X78.702 Y85.969 F5400.000
G1 X78.702 Y66.944 E2.86155 F1800.000
G1 X78.263 Y68.349 F5400.000
G1 X78.263 Y87.286 E3.79519 F1800.000
G1 X77.824 Y88.603 F5400.000
G1 X77.824 Y69.754 E4.72451 F1800.000
G1 X77.385 Y71.159 F5400.000
G1 X77.385 Y78.101 E5.06677 F1800.000
G1 X77.385 Y79.736 F5400.000
G1 X77.385 Y89.921 E5.56886 F1800.000
G1 X76.946 Y91.238 F5400.000
G1 X76.946 Y81.383 E6.05472 F1800.000
G1 X76.507 Y83.029 F5400.000
G1 X76.507 Y92.555 E6.52435 F1800.000
G1 X76.068 Y93.872 F5400.000
G1 X76.068 Y84.676 E6.97774 F1800.000
G1 X75.629 Y86.322 F5400.000
G1 X75.629 Y94.081 E7.36027 F1800.000
G1 X75.190 Y94.081 E7.38191
G1 X75.190 Y86.899 E7.73598
G1 X74.751 Y86.899 E7.75763
G1 X74.751 Y94.081 E8.11170
G1 X74.312 Y94.081 E8.13335
G1 X74.312 Y86.899 E8.48742
G1 X73.873 Y86.899 E8.50907
G1 X73.873 Y94.081 E8.86314
G1 X73.434 Y94.081 E8.88478
G1 X73.434 Y86.899 E9.23886
G1 X72.995 Y86.899 E9.26050
G1 X72.995 Y94.081 E9.61457
G1 X72.556 Y94.081 E9.63622
G1 X72.556 Y86.899 E9.99029
G1 X72.117 Y86.899 E10.01194
G1 X72.117 Y94.081 E10.36601
G1 X71.677 Y94.081 E10.38766
G1 X71.677 Y86.899 E10.74173
G1 X71.238 Y86.679 E10.76594
G1 X71.238 Y94.081 E11.13085
G1 X70.799 Y92.767 F5400.000
G1 X70.799 Y84.798 E11.52372 F1800.000
G1 X70.360 Y82.916 F5400.000
G1 X70.360 Y91.170 E11.93066 F1800.000
G1 X69.921 Y89.958 F5400.000
G1 X69.921 Y81.034 E12.37063 F1800.000
G1 X69.482 Y79.153 F5400.000
G1 X69.482 Y88.390 E12.82606 F1800.000
G1 X69.043 Y86.822 F5400.000
G1 X69.043 Y69.329 E13.68852 F1800.000
G1 X69.482 Y70.734 F5400.000
G1 X69.482 Y78.101 E14.05172 F1800.000
G1 X69.921 Y78.101 E14.07336
G1 X69.921 Y72.139 E14.36730
G1 X70.360 Y73.544 F5400.000
G1 X70.360 Y78.101 E14.59196 F1800.000
G1 X70.799 Y78.101 E14.61361
G1 X70.799 Y73.899 E14.82076
G1 X71.238 Y73.899 E14.84241
G1 X71.238 Y78.101 E15.04956
G1 X71.677 Y78.101 E15.07120
G1 X71.677 Y73.899 E15.27836
G1 X72.117 Y73.899 E15.30000
G1 X72.117 Y78.101 E15.50715
G1 X72.556 Y78.101 E15.52880
G1 X72.556 Y73.899 E15.73595
G1 X72.995 Y73.899 E15.75760
G1 X72.995 Y78.101 E15.96475
G1 X73.434 Y78.101 E15.98639
G1 X73.434 Y73.899 E16.19355
G1 X73.873 Y73.899 E16.21519
G1 X73.873 Y78.101 E16.42235
G1 X74.312 Y78.101 E16.44399
G1 X74.312 Y73.899 E16.65114
G1 X74.751 Y73.899 E16.67279
G1 X74.751 Y78.101 E16.87994
G1 X75.190 Y78.101 E16.90159
G1 X75.190 Y73.899 E17.10874
G1 X75.629 Y73.899 E17.13038
G1 X75.629 Y78.101 E17.33754
G1 X76.068 Y78.101 E17.35918
G1 X76.068 Y73.899 E17.56634
G1 X76.507 Y73.899 E17.58798
G1 X76.507 Y78.101 E17.79513
G1 X76.946 Y78.101 E17.81678
G1 X76.946 Y72.564 E18.08977
G1 F1800.000 E17.08977
G92 E0
G1 X68.604 Y67.924 F5400.000
G1 E1.00000 F1800.000
G1 X68.604 Y85.254 E1.85441 F1800.000
G1 X68.165 Y83.686 F5400.000
G1 X68.165 Y66.519 E2.70079 F1800.000
G1 F1800.000 E1.70079
G92 E0
G1 X63.336 Y67.483 F5400.000
G1 E1.00000 F1800.000
G1 X63.336 Y65.919 E1.07709 F1800.000
G1 X62.897 Y65.919 E1.09873
G1 X62.897 Y65.990 E1.10223
G1 F1800.000 E0.10223
G92 E0
G1 X63.775 Y68.976 F5400.000
G1 E1.00000 F1800.000
G1 X63.775 Y65.919 E1.15068 F1800.000
G1 X64.214 Y65.919 E1.17233
G1 X64.214 Y70.468 E1.39661
G1 X64.653 Y71.961 F5400.000
G1 X64.653 Y65.919 E1.69448 F1800.000
G1 X65.092 Y65.919 E1.71613
G1 X65.092 Y73.454 E2.08760
G1 X65.531 Y74.946 F5400.000
G1 X65.531 Y65.919 E2.53266 F1800.000
G1 X65.970 Y65.919 E2.55431
G1 X65.970 Y76.439 E3.07297
G1 X66.409 Y77.932 F5400.000
G1 X66.409 Y65.919 E3.66522 F1800.000
G1 X66.848 Y65.919 E3.68686
G1 X66.848 Y79.425 E4.35271
G1 X67.287 Y80.917 F5400.000
G1 X67.287 Y65.919 E5.09216 F1800.000
G1 X67.726 Y65.919 E5.11380
G1 X67.726 Y82.410 E5.92684
G1 X67.290 Y82.750 F5400.000
G1 X62.615 Y82.750 E6.26515 F600.000
G1 X62.313 Y82.813 E6.28753
G1 X62.250 Y83.115 E6.30990
G1 X62.250 Y89.885 E6.79984
G1 X62.313 Y90.187 E6.82221
G1 X62.615 Y90.250 E6.84458
G1 X69.469 Y90.250 E7.34060
G1 F1800.000 E6.34060
G92 E0
G1 Z0.380 F5400.000
G1 X77.139 Y78.625 F5400.000
G1 E1.00000 F1800.000
G1 X75.072 Y86.375 E1.20684 F1800.000
G1 X71.706 Y86.375 E1.29366
G1 X69.897 Y78.625 E1.49888
G1 X77.086 Y78.625 E1.68428
G1 X76.683 Y78.975 F5400.000
G1 X74.803 Y86.025 E1.87243 F1800.000
G1 X71.983 Y86.025 E1.94515
G1 X70.338 Y78.975 E2.13184
G1 X76.631 Y78.975 E2.29411
G1 X76.228 Y79.325 F5400.000
G1 X74.534 Y85.675 E2.46359 F1800.000
G1 X72.261 Y85.675 E2.52221
G1 X70.779 Y79.325 E2.69037
G1 X76.175 Y79.325 E2.82951
G1 X76.573 Y79.386 F5400.000
G1 F1800.000 E1.82951
G92 E0
G1 X67.464 Y83.125 F5400.000
G1 E1.00000 F1800.000
G1 X69.354 Y89.875 E1.18076 F1800.000
G1 X62.625 Y89.875 E1.35428
G1 X62.625 Y83.125 E1.52835
G1 X67.411 Y83.125 E1.65178
G1 X67.198 Y83.475 F5400.000
G1 X68.892 Y89.525 E1.81379 F1800.000
G1 X62.975 Y89.525 E1.96639
G1 X62.975 Y83.475 E2.12240
G1 X67.146 Y83.475 E2.22996
G1 X66.933 Y83.825 F5400.000
G1 X68.431 Y89.175 E2.37323 F1800.000
G1 X63.325 Y89.175 E2.50490
G1 X63.325 Y83.825 E2.64286
G1 X66.880 Y83.825 E2.73454
G1 X67.277 Y83.762 F5400.000
G1 X67.169 Y82.375 F5400.000
G1 X62.169 Y65.375 E3.19151 F1800.000
G1 X68.357 Y65.375 E3.35107
G1 X70.857 Y73.375 E3.56721
G1 X76.143 Y73.375 E3.70354
G1 X78.643 Y65.375 E3.91968
G1 X98.125 Y65.375 E4.42208
G1 X98.125 Y71.625 E4.58325
G1 X88.125 Y71.625 E4.84113
G1 X88.125 Y94.625 E5.43426
G1 X81.875 Y94.625 E5.59543
G1 X81.875 Y83.021 E5.89469
G1 X80.322 Y82.768 E5.93527
G1 X76.369 Y94.625 E6.25757
G1 X70.767 Y94.625 E6.40204
G1 X69.667 Y90.625 E6.50902
G1 X61.875 Y90.625 E6.70996
G1 X61.875 Y82.375 E6.92271
G1 X67.117 Y82.375 E7.05789
G1 X66.702 Y82.025 F5400.000
G1 X61.702 Y65.025 E7.51486 F1800.000
G1 X68.614 Y65.025 E7.69311
G1 X71.114 Y73.025 E7.90925
G1 X75.886 Y73.025 E8.03231
G1 X78.386 Y65.025 E8.24846
G1 X98.475 Y65.025 E8.76651
G1 X98.475 Y71.975 E8.94574
G1 X88.475 Y71.975 E9.20362
G1 X88.475 Y94.975 E9.79674
G1 X81.525 Y94.975 E9.97597
G1 X81.525 Y83.318 E10.27657
G1 X80.559 Y83.162 E10.30180
G1 X76.622 Y94.975 E10.62292
G1 X70.500 Y94.975 E10.78078
G1 X69.400 Y90.975 E10.88776
G1 X61.525 Y90.975 E11.09084
G1 X61.525 Y82.025 E11.32165
G1 X66.649 Y82.025 E11.45379
G1 X66.234 Y81.675 F5400.000
G1 X61.234 Y64.675 E11.91075 F1800.000
G1 X68.871 Y64.675 E12.10771
G1 X71.371 Y72.675 E12.32385
G1 X75.629 Y72.675 E12.43364
G1 X78.129 Y64.675 E12.64978
G1 X98.825 Y64.675 E13.18350
G1 X98.825 Y72.325 E13.38078
G1 X88.825 Y72.325 E13.63866
G1 X88.825 Y95.325 E14.23178
G1 X81.175 Y95.325 E14.42906
G1 X81.175 Y83.616 E14.73101
G1 X80.797 Y83.555 E14.74088
G1 X76.874 Y95.325 E15.06082
G1 X70.233 Y95.325 E15.23207
G1 X69.133 Y91.325 E15.33905
G1 X61.175 Y91.325 E15.54428
G1 X61.175 Y81.675 E15.79313
G1 X66.181 Y81.675 E15.92224
G1 X66.578 Y81.609 F5400.000
G1 F1800.000 E14.92224
G92 E0
G1 X66.110 Y77.711 F5400.000
G1 E1.00000 F1800.000
G1 X87.826 Y77.711 E1.90052 F3600.000
G1 X87.826 Y77.139 E1.92425
G1 X65.941 Y77.139 E2.83174
G1 X65.773 Y76.567 E2.85648
G1 X87.826 Y76.567 E3.77095
G1 X87.826 Y75.994 E3.79468
G1 X65.605 Y75.994 E4.71614
G1 X65.436 Y75.422 E4.74087
G1 X87.826 Y75.422 E5.66931
G1 X87.826 Y74.850 E5.69304
G1 X65.268 Y74.850 E6.62845
G1 X65.100 Y74.278 E6.65318
G1 X87.826 Y74.278 E7.59557
G1 X87.826 Y73.705 E7.61930
G1 X64.932 Y73.705 E8.56868
G1 X64.763 Y73.133 E8.59341
G1 X70.468 Y73.133 E8.82996
G1 X70.289 Y72.561 E8.85482
G1 X64.595 Y72.561 E9.09093
G1 X64.427 Y71.989 E9.11566
G1 X70.110 Y71.989 E9.35134
G1 X69.931 Y71.417 E9.37620
G1 X64.258 Y71.417 E9.61144
G1 X64.090 Y70.844 E9.63617
G1 X69.752 Y70.844 E9.87098
G1 X69.573 Y70.272 E9.89584
G1 X63.922 Y70.272 E10.13020
G1 X63.753 Y69.700 E10.15494
G1 X69.395 Y69.700 E10.38887
G1 X69.216 Y69.128 E10.41373
G1 X63.585 Y69.128 E10.64722
G1 X63.417 Y68.555 E10.67196
G1 X69.037 Y68.555 E10.90502
G1 X68.858 Y67.983 E10.92988
G1 X63.249 Y67.983 E11.16250
G1 X63.080 Y67.411 E11.18723
G1 X68.679 Y67.411 E11.41942
G1 X68.501 Y66.839 E11.44428
G1 X62.912 Y66.839 E11.67603
G1 X62.744 Y66.267 E11.70076
G1 X68.322 Y66.267 E11.93208
G1 X68.143 Y65.694 E11.95694
G1 X62.596 Y65.694 E12.18695
G1 F1800.000 E11.18695
G92 E0
G1 X77.427 Y70.272 F5400.000
G1 E1.00000 F1800.000
G1 X97.806 Y70.272 E1.84508 F3600.000
G1 X97.806 Y70.844 E1.86881
G1 X77.248 Y70.844 E2.72131
G1 X77.069 Y71.417 E2.74617
G1 X87.826 Y71.417 E3.19223
G1 X87.826 Y71.989 E3.21596
G1 X76.890 Y71.989 E3.66944
G1 X76.711 Y72.561 E3.69430
G1 X87.826 Y72.561 E4.15519
G1 X87.826 Y73.133 E4.17892
