; generated by Slic3r 1.1.7 on 2015-01-11 at 16:19:16

; perimeters extrusion width = 0.35mm
; infill extrusion width = 0.67mm
; solid infill extrusion width = 0.59mm
; top infill extrusion width = 0.59mm

G21 ; set units to millimeters
M190 S60 ; wait for bed temperature to be reached
M104 S185 ; set temperature
G28 ; home all axes
M109 S185 ; wait for temperature to be reached
G90 ; use absolute coordinates
G92 E0
M82 ; use absolute distances for extrusion
G1 F1800.000 E-1.00000
G92 E0
G1 Z0.230 F5400.000
G1 X57.646 Y60.965 F5400.000
G1 E1.00000 F1800.000
G1 X59.315 Y59.928 E1.09684 F1800.000
G1 X61.000 Y59.627 E1.18124
G1 X99.000 Y59.627 E3.05472
G1 X100.924 Y60.023 E3.15156
G1 X102.535 Y61.146 E3.24840 F1800.000
G1 X103.572 Y62.815 E3.34524
G1 X103.873 Y64.500 E3.42964
G1 X103.873 Y91.500 E4.76079
G1 X103.477 Y93.424 E4.85763
G1 X102.354 Y95.035 E4.95447
G1 X100.961 Y95.961 E5.03692
G1 X91.861 Y99.961 E5.52700
G1 X89.900 Y100.373 E5.62578
G1 X71.000 Y100.373 E6.55759
G1 X69.076 Y99.977 E6.65443
G1 X67.465 Y98.854 E6.75127
G1 X66.531 Y97.443 E6.83467
G1 X56.531 Y74.443 E8.07115
G1 X56.127 Y72.500 E8.16899
G1 X56.127 Y64.500 E8.56341
G1 X56.523 Y62.576 E8.66025
G1 X57.616 Y61.008 E8.75450
G1 X58.018 Y61.241 F5400.000
G1 X58.075 Y61.164 E8.75919 F1800.000
G1 X59.713 Y60.255 E8.85154
G1 X61.000 Y60.064 E8.91571
G1 X99.000 Y60.064 E10.78919
G1 X100.831 Y60.459 E10.88154
G1 X102.336 Y61.575 E10.97390 F1800.000
G1 X103.245 Y63.213 E11.06626
G1 X103.436 Y64.500 E11.13043
G1 X103.436 Y91.500 E12.46158
G1 X103.041 Y93.331 E12.55394
G1 X101.925 Y94.836 E12.64629
G1 X100.785 Y95.561 E12.71291
G1 X91.685 Y99.561 E13.20299
G1 X89.900 Y99.936 E13.29292
G1 X71.000 Y99.936 E14.22473
G1 X69.169 Y99.541 E14.31709
G1 X67.664 Y98.425 E14.40944
G1 X66.932 Y97.269 E14.47692
G1 X56.932 Y74.269 E15.71341
G1 X56.564 Y72.500 E15.80249
G1 X56.564 Y64.500 E16.19691
G1 X56.959 Y62.669 E16.28926
G1 X57.987 Y61.283 E16.37435
G1 F1800.000 E15.37435
G92 E0
G1 X88.475 Y86.603 F5400.000
G1 E1.00000 F1800.000
G1 X84.753 Y86.603 E1.18352 F900.000
G1 X82.565 Y78.397 E1.60221
G1 X90.390 Y78.397 E1.98800
G1 X88.487 Y86.552 E2.40083
G1 X88.129 Y86.166 F5400.000
G1 X85.088 Y86.166 E2.55075 F900.000
G1 X83.133 Y78.834 E2.92490
G1 X89.840 Y78.834 E3.25558
G1 X88.141 Y86.115 E3.62422
G1 X87.783 Y85.730 F5400.000
G1 X85.423 Y85.730 E3.74054 F900.000
G1 X83.701 Y79.270 E4.07016
G1 X89.290 Y79.270 E4.34572
G1 X87.794 Y85.679 E4.67018
G1 X87.756 Y86.079 F5400.000
G1 F1800.000 E3.67018
G92 E0
G1 X90.921 Y89.666 F5400.000
G1 E1.00000 F1800.000
G1 X92.695 Y83.334 E1.32423 F900.000
G1 X97.166 Y83.334 E1.54470
G1 X97.166 Y89.666 E1.85692
G1 X90.974 Y89.666 E2.16222
G1 X91.497 Y89.230 F5400.000
G1 X93.026 Y83.770 E2.44176 F900.000
G1 X96.730 Y83.770 E2.62440
G1 X96.730 Y89.230 E2.89359
G1 X91.549 Y89.230 E3.14901
G1 X91.153 Y89.167 F5400.000
G1 F1800.000 E2.14901
G92 E0
G1 X79.833 Y82.513 F5400.000
G1 E1.00000 F1800.000
G1 X77.897 Y82.827 E1.09670 F900.000
G1 X77.897 Y94.397 E1.66715
G1 X72.103 Y94.397 E1.95282
G1 X72.103 Y71.397 E3.08677
G1 X62.103 Y71.397 E3.57979
G1 X62.103 Y65.603 E3.86547
G1 X81.189 Y65.603 E4.80647
G1 X83.689 Y73.603 E5.21970
G1 X89.311 Y73.603 E5.49685
G1 X91.811 Y65.603 E5.91007
G1 X97.526 Y65.603 E6.19186
G1 X92.440 Y82.897 E7.08062
G1 X92.364 Y82.897 E7.08437
G1 X90.264 Y90.397 E7.46835
G1 X90.160 Y90.397 E7.47348
G1 X89.060 Y94.397 E7.67801
G1 X83.795 Y94.397 E7.93757
G1 X79.850 Y82.562 E8.55261
G1 X79.537 Y83.003 F5400.000
G1 X78.334 Y83.198 E8.61271 F900.000
G1 X78.334 Y94.834 E9.18636
G1 X71.666 Y94.834 E9.51507
G1 X71.666 Y71.834 E10.64901
G1 X61.666 Y71.834 E11.14203
G1 X61.666 Y65.166 E11.47074
G1 X81.510 Y65.166 E12.44908
G1 X84.010 Y73.166 E12.86230
G1 X88.990 Y73.166 E13.10782
G1 X91.490 Y65.166 E13.52105
G1 X98.109 Y65.166 E13.84740
G1 X93.109 Y82.166 E14.72103
G1 X98.334 Y82.166 E14.97860
G1 X98.334 Y90.834 E15.40591
G1 X90.492 Y90.834 E15.79251
G1 X89.392 Y94.834 E15.99704
G1 X83.480 Y94.834 E16.28850
G1 X79.553 Y83.053 E16.90075
G1 X79.240 Y83.493 F5400.000
G1 X78.770 Y83.569 E16.92423 F900.000
G1 X78.770 Y95.270 E17.50109
G1 X71.230 Y95.270 E17.87283
G1 X71.230 Y72.270 E19.00678
G1 X61.230 Y72.270 E19.49980
G1 X61.230 Y64.730 E19.87154
G1 X81.831 Y64.730 E20.88720
G1 X84.331 Y72.730 E21.30043
G1 X88.669 Y72.730 E21.51431
G1 X91.169 Y64.730 E21.92754
G1 X98.693 Y64.730 E22.29846
G1 X93.693 Y81.730 E23.17209
G1 X98.770 Y81.730 E23.42242
G1 X98.770 Y91.270 E23.89276
G1 X90.825 Y91.270 E24.28448
G1 X89.725 Y95.270 E24.48901
G1 X83.166 Y95.270 E24.81238
G1 X79.257 Y83.543 E25.42182
G1 X79.166 Y83.151 F5400.000
G1 X80.420 Y83.335 F5400.000
G1 X80.420 Y65.919 E26.28046 F1800.000
G1 X79.981 Y65.919 E26.30210
G1 X79.981 Y82.188 E27.10421
G1 X79.542 Y82.260 E27.12614
G1 X79.542 Y65.919 E27.93176
G1 X79.103 Y65.919 E27.95341
G1 X79.103 Y82.331 E28.76254
G1 X78.664 Y82.402 E28.78447
G1 X78.664 Y65.919 E29.59712
G1 X78.225 Y65.919 E29.61876
G1 X78.225 Y82.473 E30.43492
G1 X77.786 Y82.545 E30.45685
G1 X77.786 Y65.919 E31.27652
G1 X77.347 Y65.919 E31.29817
G1 X77.347 Y94.081 E32.68660
G1 X76.907 Y94.081 E32.70824
G1 X76.907 Y65.919 E34.09667
G1 X76.468 Y65.919 E34.11832
G1 X76.468 Y94.081 E35.50675
G1 X76.029 Y94.081 E35.52839
G1 X76.029 Y65.919 E36.91682
G1 X75.590 Y65.919 E36.93847
G1 X75.590 Y94.081 E38.32689
G1 X75.151 Y94.081 E38.34854
G1 X75.151 Y65.919 E39.73697
G1 X74.712 Y65.919 E39.75861
G1 X74.712 Y94.081 E41.14704
G1 X74.273 Y94.081 E41.16869
G1 X74.273 Y65.919 E42.55712
G1 X73.834 Y65.919 E42.57876
G1 X73.834 Y94.081 E43.96719
G1 X73.395 Y94.081 E43.98884
G1 X73.395 Y65.919 E45.37727
G1 X72.956 Y65.919 E45.39891
G1 X72.956 Y94.081 E46.78734
G1 X72.517 Y94.081 E46.80899
G1 X72.517 Y65.919 E48.19742
G1 X72.078 Y65.919 E48.21906
G1 X72.078 Y71.101 E48.47453
G1 X71.639 Y71.101 E48.49618
G1 X71.639 Y65.919 E48.75164
G1 X71.200 Y65.919 E48.77329
G1 X71.200 Y71.101 E49.02876
G1 X70.761 Y71.101 E49.05040
G1 X70.761 Y65.919 E49.30587
G1 X70.322 Y65.919 E49.32752
G1 X70.322 Y71.101 E49.58299
G1 X69.883 Y71.101 E49.60463
G1 X69.883 Y65.919 E49.86010
G1 X69.444 Y65.919 E49.88175
G1 X69.444 Y71.101 E50.13721
G1 X69.005 Y71.101 E50.15886
G1 X69.005 Y65.919 E50.41433
G1 X68.566 Y65.919 E50.43597
G1 X68.566 Y71.101 E50.69144
G1 X68.127 Y71.101 E50.71309
G1 X68.127 Y65.919 E50.96856
G1 X67.688 Y65.919 E50.99020
G1 X67.688 Y71.101 E51.24567
G1 X67.249 Y71.101 E51.26732
G1 X67.249 Y65.919 E51.52278
G1 X66.810 Y65.919 E51.54443
G1 X66.810 Y71.101 E51.79990
G1 X66.371 Y71.101 E51.82154
G1 X66.371 Y65.919 E52.07701
G1 X65.931 Y65.919 E52.09866
G1 X65.931 Y71.101 E52.35413
G1 X65.492 Y71.101 E52.37577
G1 X65.492 Y65.919 E52.63124
G1 X65.053 Y65.919 E52.65288
G1 X65.053 Y71.101 E52.90835
G1 X64.614 Y71.101 E52.93000
G1 X64.614 Y65.919 E53.18547
G1 X64.175 Y65.919 E53.20711
G1 X64.175 Y71.101 E53.46258
G1 X63.736 Y71.101 E53.48423
G1 X63.736 Y65.919 E53.73970
G1 X63.297 Y65.919 E53.76134
G1 X63.297 Y71.101 E54.01681
G1 X62.858 Y71.101 E54.03845
G1 X62.858 Y65.919 E54.29392
G1 X62.419 Y65.919 E54.31557
G1 X62.419 Y71.101 E54.57104
G1 F1800.000 E53.57104
G92 E0
G1 X80.859 Y65.919 F5400.000
G1 E1.00000 F1800.000
G1 X80.859 Y84.652 E1.92357 F1800.000
G1 X81.298 Y85.969 F5400.000
G1 X81.298 Y66.944 E2.86155 F1800.000
G1 X81.737 Y68.349 F5400.000
G1 X81.737 Y87.286 E3.79519 F1800.000
G1 X82.176 Y88.603 F5400.000
G1 X82.176 Y69.754 E4.72451 F1800.000
G1 X82.615 Y71.159 F5400.000
G1 X82.615 Y78.101 E5.06677 F1800.000
G1 X82.615 Y79.736 F5400.000
G1 X82.615 Y89.921 E5.56886 F1800.000
G1 X83.054 Y91.238 F5400.000
G1 X83.054 Y81.383 E6.05472 F1800.000
G1 X83.493 Y83.029 F5400.000
G1 X83.493 Y92.555 E6.52435 F1800.000
G1 F1800.000 E5.52435
G92 E0
G1 X89.201 Y92.767 F5400.000
G1 E1.00000 F1800.000
G1 X89.201 Y84.798 E1.39288 F1800.000
G1 X89.640 Y82.916 F5400.000
G1 X89.640 Y91.170 E1.79982 F1800.000
G1 X90.079 Y89.958 F5400.000
G1 X90.079 Y81.034 E2.23979 F1800.000
G1 X90.518 Y79.153 F5400.000
G1 X90.518 Y88.390 E2.69522 F1800.000
G1 X90.957 Y86.822 F5400.000
G1 X90.957 Y69.329 E3.55767 F1800.000
G1 X91.396 Y67.924 F5400.000
G1 X91.396 Y85.254 E4.41209 F1800.000
G1 X91.835 Y83.686 F5400.000
G1 X91.835 Y66.519 E5.25846 F1800.000
G1 F1800.000 E4.25846
G92 E0
G1 X90.518 Y70.734 F5400.000
G1 E1.00000 F1800.000
G1 X90.518 Y78.101 E1.36320 F1800.000
G1 X90.079 Y78.101 E1.38484
G1 X90.079 Y72.139 E1.67878
G1 X89.640 Y73.544 F5400.000
G1 X89.640 Y78.101 E1.90345 F1800.000
G1 X89.201 Y78.101 E1.92509
G1 X89.201 Y73.899 E2.13224
G1 X88.762 Y73.899 E2.15389
G1 X88.762 Y78.101 E2.36104
G1 X88.323 Y78.101 E2.38269
G1 X88.323 Y73.899 E2.58984
G1 X87.883 Y73.899 E2.61149
G1 X87.883 Y78.101 E2.81864
G1 X87.444 Y78.101 E2.84028
G1 X87.444 Y73.899 E3.04744
G1 X87.005 Y73.899 E3.06908
G1 X87.005 Y78.101 E3.27623
G1 X86.566 Y78.101 E3.29788
G1 X86.566 Y73.899 E3.50503
G1 X86.127 Y73.899 E3.52668
G1 X86.127 Y78.101 E3.73383
G1 X85.688 Y78.101 E3.75547
G1 X85.688 Y73.899 E3.96263
G1 X85.249 Y73.899 E3.98427
G1 X85.249 Y78.101 E4.19143
G1 X84.810 Y78.101 E4.21307
G1 X84.810 Y73.899 E4.42022
G1 X84.371 Y73.899 E4.44187
G1 X84.371 Y78.101 E4.64902
G1 X83.932 Y78.101 E4.67067
G1 X83.932 Y73.899 E4.87782
G1 X83.493 Y73.899 E4.89946
G1 X83.493 Y78.101 E5.10662
G1 X83.054 Y78.101 E5.12826
G1 X83.054 Y72.564 E5.40125
G1 F1800.000 E4.40125
G92 E0
G1 X94.030 Y76.439 F5400.000
G1 E1.00000 F1800.000
G1 X94.030 Y65.919 E1.51866 F1800.000
G1 X94.469 Y65.919 E1.54030
G1 X94.469 Y74.946 E1.98537
G1 X94.908 Y73.454 F5400.000
G1 X94.908 Y65.919 E2.35684 F1800.000
G1 X95.347 Y65.919 E2.37848
G1 X95.347 Y71.961 E2.67636
G1 X95.786 Y70.468 F5400.000
G1 X95.786 Y65.919 E2.90064 F1800.000
G1 X96.225 Y65.919 E2.92228
G1 X96.225 Y68.976 E3.07296
G1 X96.664 Y67.483 F5400.000
G1 X96.664 Y65.919 E3.15005 F1800.000
G1 X97.103 Y65.990 E3.17198
G1 X97.103 Y65.919 E3.17547
G1 F1800.000 E2.17547
G92 E0
G1 X93.591 Y77.932 F5400.000
G1 E1.00000 F1800.000
G1 X93.591 Y65.919 E1.59225 F1800.000
G1 X93.152 Y65.919 E1.61390
G1 X93.152 Y79.425 E2.27975
G1 X92.713 Y80.917 F5400.000
G1 X92.713 Y65.919 E3.01919 F1800.000
G1 X92.274 Y65.919 E3.04084
G1 X92.274 Y82.410 E3.85387
G1 F1800.000 E2.85387
G92 E0
G1 X88.762 Y86.679 F5400.000
G1 E1.00000 F1800.000
G1 X88.762 Y94.081 E1.36491 F1800.000
G1 X88.323 Y94.081 E1.38656
G1 X88.323 Y86.899 E1.74063
G1 X87.883 Y86.899 E1.76228
G1 X87.883 Y94.081 E2.11635
G1 X87.444 Y94.081 E2.13799
G1 X87.444 Y86.899 E2.49207
G1 X87.005 Y86.899 E2.51371
G1 X87.005 Y94.081 E2.86778
G1 X86.566 Y94.081 E2.88943
G1 X86.566 Y86.899 E3.24350
G1 X86.127 Y86.899 E3.26515
G1 X86.127 Y94.081 E3.61922
G1 X85.688 Y94.081 E3.64087
G1 X85.688 Y86.899 E3.99494
G1 X85.249 Y86.899 E4.01658
G1 X85.249 Y94.081 E4.37066
G1 X84.810 Y94.081 E4.39230
G1 X84.810 Y86.899 E4.74637
G1 X84.371 Y86.322 E4.78212
G1 X84.371 Y94.081 E5.16465
G1 X83.932 Y93.872 E5.18862
G1 X83.932 Y84.676 E5.64201
G1 F1800.000 E4.64201
G92 E0
G1 X90.531 Y90.250 F5400.000
G1 E1.00000 F1800.000
G1 X97.385 Y90.250 E1.49601 F600.000
G1 X97.687 Y90.187 E1.51839
G1 X97.750 Y89.885 E1.54076
G1 X97.750 Y83.115 E2.03070
G1 X97.687 Y82.813 E2.05307
G1 X97.385 Y82.750 E2.07544
G1 X92.710 Y82.750 E2.41376
G1 F1800.000 E1.41376
G92 E0
G1 Z0.380 F5400.000
G1 X82.861 Y78.625 F5400.000
G1 E1.00000 F1800.000
G1 X90.103 Y78.625 E1.18675 F1800.000
G1 X88.294 Y86.375 E1.39197
G1 X84.928 Y86.375 E1.47879
G1 X82.875 Y78.676 E1.68428
G1 X83.317 Y78.975 F5400.000
G1 X89.662 Y78.975 E1.84790 F1800.000
G1 X88.017 Y86.025 E2.03459
G1 X85.197 Y86.025 E2.10731
G1 X83.330 Y79.026 E2.29411
G1 X83.772 Y79.325 F5400.000
G1 X89.221 Y79.325 E2.43461 F1800.000
G1 X87.739 Y85.675 E2.60277
G1 X85.466 Y85.675 E2.66139
G1 X83.786 Y79.376 E2.82951
G1 X83.742 Y78.976 F5400.000
G1 F1800.000 E1.82951
G92 E0
G1 X92.536 Y83.125 F5400.000
G1 E1.00000 F1800.000
G1 X97.375 Y83.125 E1.12478 F1800.000
G1 X97.375 Y89.875 E1.29885
G1 X90.646 Y89.875 E1.47237
G1 X92.522 Y83.176 E1.65178
G1 X92.802 Y83.475 F5400.000
G1 X97.025 Y83.475 E1.76068 F1800.000
G1 X97.025 Y89.525 E1.91670
G1 X91.108 Y89.525 E2.06929
G1 X92.788 Y83.526 E2.22996
G1 X93.067 Y83.825 F5400.000
G1 X96.675 Y83.825 E2.32299 F1800.000
G1 X96.675 Y89.175 E2.46096
G1 X91.569 Y89.175 E2.59263
G1 X93.053 Y83.876 E2.73454
G1 X93.099 Y83.476 F5400.000
G1 X92.831 Y82.375 F5400.000
G1 X98.125 Y82.375 E2.87108 F1800.000
G1 X98.125 Y90.625 E3.08383
G1 X90.333 Y90.625 E3.28476
G1 X89.233 Y94.625 E3.39175
G1 X83.631 Y94.625 E3.53622
G1 X79.678 Y82.768 E3.85852
G1 X78.125 Y83.021 E3.89910
G1 X78.125 Y94.625 E4.19836
G1 X71.875 Y94.625 E4.35953
G1 X71.875 Y71.625 E4.95266
G1 X61.875 Y71.625 E5.21054
G1 X61.875 Y65.375 E5.37171
G1 X81.357 Y65.375 E5.87411
G1 X83.857 Y73.375 E6.09025
G1 X89.143 Y73.375 E6.22658
G1 X91.643 Y65.375 E6.44272
G1 X97.831 Y65.375 E6.60228
G1 X92.845 Y82.325 E7.05789
G1 X93.298 Y82.025 F5400.000
G1 X98.475 Y82.025 E7.19139 F1800.000
G1 X98.475 Y90.975 E7.42219
G1 X90.600 Y90.975 E7.62527
G1 X89.500 Y94.975 E7.73225
G1 X83.378 Y94.975 E7.89011
G1 X79.441 Y83.162 E8.21124
G1 X78.475 Y83.318 E8.23646
G1 X78.475 Y94.975 E8.53706
G1 X71.525 Y94.975 E8.71629
G1 X71.525 Y71.975 E9.30941
G1 X61.525 Y71.975 E9.56729
G1 X61.525 Y65.025 E9.74652
G1 X81.614 Y65.025 E10.26458
G1 X84.114 Y73.025 E10.48072
G1 X88.886 Y73.025 E10.60378
G1 X91.386 Y65.025 E10.81992
G1 X98.298 Y65.025 E10.99818
G1 X93.313 Y81.975 E11.45379
G1 X93.766 Y81.675 F5400.000
G1 X98.825 Y81.675 E11.58425 F1800.000
G1 X98.825 Y91.325 E11.83310
G1 X90.867 Y91.325 E12.03833
G1 X89.767 Y95.325 E12.14531
G1 X83.126 Y95.325 E12.31656
G1 X79.203 Y83.555 E12.63651
G1 X78.825 Y83.616 E12.64637
G1 X78.825 Y95.325 E12.94832
G1 X71.175 Y95.325 E13.14560
G1 X71.175 Y72.325 E13.73872
G1 X61.175 Y72.325 E13.99660
G1 X61.175 Y64.675 E14.19388
G1 X81.871 Y64.675 E14.72760
G1 X84.371 Y72.675 E14.94374
G1 X88.629 Y72.675 E15.05353
G1 X91.129 Y64.675 E15.26967
G1 X98.766 Y64.675 E15.46663
G1 X93.781 Y81.625 E15.92224
G1 X93.733 Y82.023 F5400.000
G1 F1800.000 E14.92224
G92 E0
G1 X89.532 Y73.133 F5400.000
G1 E1.00000 F1800.000
G1 X95.237 Y73.133 E1.23655 F3600.000
G1 X95.405 Y72.561 E1.26128
G1 X89.711 Y72.561 E1.49739
G1 X89.890 Y71.989 E1.52225
G1 X95.573 Y71.989 E1.75793
G1 X95.742 Y71.417 E1.78266
G1 X90.069 Y71.417 E2.01790
G1 X90.248 Y70.844 E2.04276
G1 X95.910 Y70.844 E2.27757
G1 X96.078 Y70.272 E2.30230
G1 X90.427 Y70.272 E2.53667
G1 X90.605 Y69.700 E2.56153
G1 X96.247 Y69.700 E2.79546
G1 X96.415 Y69.128 E2.82019
G1 X90.784 Y69.128 E3.05369
G1 X90.963 Y68.555 E3.07855
G1 X96.583 Y68.555 E3.31161
G1 X96.751 Y67.983 E3.33634
G1 X91.142 Y67.983 E3.56896
G1 X91.321 Y67.411 E3.59382
G1 X96.920 Y67.411 E3.82601
G1 X97.088 Y66.839 E3.85074
G1 X91.499 Y66.839 E4.08249
G1 X91.678 Y66.267 E4.10735
G1 X97.256 Y66.267 E4.33867
G1 X97.404 Y65.694 E4.36317
G1 X91.857 Y65.694 E4.59318
G1 F1800.000 E3.59318
G92 E0
G1 X72.174 Y71.417 F5400.000
G1 E1.00000 F1800.000
G1 X82.931 Y71.417 E1.44606 F3600.000
G1 X83.110 Y71.989 E1.47092
G1 X72.174 Y71.989 E1.92440
G1 X72.174 Y72.561 E1.94813
G1 X83.289 Y72.561 E2.40902
G1 X83.468 Y73.133 E2.43388
G1 X72.174 Y73.133 E2.90219
G1 X72.174 Y73.705 E2.92592
G1 X95.068 Y73.705 E3.87529
G1 X94.900 Y74.278 E3.90003
G1 X72.174 Y74.278 E4.84242
G1 X72.174 Y74.850 E4.86615
G1 X94.732 Y74.850 E5.80156
G1 X94.564 Y75.422 E5.82630
G1 X72.174 Y75.422 E6.75473
G1 X72.174 Y75.994 E6.77846
G1 X94.395 Y75.994 E7.69992
G1 X94.227 Y76.567 E7.72465
G1 X72.174 Y76.567 E8.63913
G1 X72.174 Y77.139 E8.66286
G1 X94.059 Y77.139 E9.57035
G1 X93.890 Y77.711 E9.59509
G1 X72.174 Y77.711 E10.49560
G1 F1800.000 E9.49560
G92 E0
