; generated by Slic3r 1.1.7 on 2014-10-22 at 20:00:11

; perimeters extrusion width = 0.35mm
; infill extrusion width = 0.44mm
; solid infill extrusion width = 0.44mm
; top infill extrusion width = 0.44mm

G21 ; set units to millimeters
M104 S185 ; set temperature
G28 ; home all axes
M109 S185 ; wait for temperature to be reached
G90 ; use absolute coordinates
G92 E0
M82 ; use absolute distances for extrusion
G1 F1800.000 E-1.00000
G92 E0
G1 Z0.230 F7800.000
G1 X52.461 Y48.530 F7800.000
G1 E1.00000 F1800.000
G1 X53.351 Y47.628 E1.06251 F1080.000
G1 X53.810 Y47.294 E1.09049
G1 X85.457 Y26.844 E2.94816
G1 X86.322 Y26.365 E2.99689
G1 X92.178 Y23.472 E3.31893
G1 X92.758 Y23.224 E3.35003
G1 X93.354 Y23.018 E3.38112
G1 X93.963 Y22.855 E3.41220
G1 X94.582 Y22.736 E3.44330
G1 X95.209 Y22.662 E3.47439
G1 X95.943 Y22.633 E3.51061
G1 X96.469 Y22.648 E3.53657 F1080.000
G1 X97.097 Y22.708 E3.56765
G1 X97.719 Y22.813 E3.59875
G1 X98.331 Y22.962 E3.62985
G1 X98.932 Y23.155 E3.66093
G1 X99.517 Y23.390 E3.69203
G1 X100.175 Y23.716 E3.72824
G1 X100.630 Y23.982 E3.75420
G1 X101.152 Y24.336 E3.78530
G1 X101.647 Y24.726 E3.81638
G1 X101.989 Y25.029 E3.83891
G1 X121.058 Y42.964 E5.12951
G1 X122.957 Y44.753 E5.25815
G1 X123.409 Y45.215 E5.29003
G1 X123.835 Y45.702 E5.32191
G1 X124.232 Y46.212 E5.35379
G1 X124.599 Y46.744 E5.38567
G1 X124.936 Y47.297 E5.41755
G1 X125.240 Y47.867 E5.44943
G1 X125.511 Y48.454 E5.48131
G1 X125.792 Y49.183 E5.51982
G1 X125.987 Y49.799 E5.55170
G1 X126.118 Y50.294 E5.57695
G1 X126.239 Y50.866 E5.60577
G1 X126.373 Y51.782 E5.65139
G1 X126.791 Y55.121 E5.81732
G1 X127.173 Y58.486 E5.98427
G1 X127.521 Y61.876 E6.15226
G1 X128.038 Y67.698 E6.44047
G1 X128.314 Y71.374 E6.62220
G1 X128.554 Y75.076 E6.80509
G1 X128.759 Y78.803 E6.98914
G1 X128.930 Y82.558 E7.17444
G1 X129.079 Y86.682 E7.37790
G1 X129.186 Y90.709 E7.57652
G1 X129.280 Y97.167 E7.89495
G1 X129.229 Y98.377 E7.95462
G1 X129.160 Y99.120 E7.99145
G1 X129.029 Y100.061 E8.03825
G1 X128.781 Y101.328 E8.10191
G1 X128.598 Y102.052 E8.13873
G1 X128.388 Y102.769 E8.17556
G1 X128.150 Y103.477 E8.21238
G1 X127.806 Y104.362 E8.25918
G1 X127.274 Y105.538 E8.32284
G1 X113.309 Y131.525 E9.77735
G1 X112.977 Y132.086 E9.80945
G1 X112.613 Y132.626 E9.84157
G1 X112.220 Y133.145 E9.87367
G1 X111.704 Y133.739 E9.91245
G1 X111.346 Y134.110 E9.93789
G1 X110.869 Y134.553 E9.96999
G1 X110.367 Y134.969 E10.00210
G1 X109.842 Y135.354 E10.03420
G1 X109.296 Y135.709 E10.06632
G1 X108.731 Y136.032 E10.09841
G1 X108.148 Y136.322 E10.13052
G1 X107.549 Y136.578 E10.16263
G1 X106.937 Y136.800 E10.19474
G1 X106.312 Y136.985 E10.22685
G1 X105.679 Y137.135 E10.25895
G1 X105.037 Y137.248 E10.29106
G1 X104.390 Y137.323 E10.32317
G1 X103.740 Y137.362 E10.35527
G1 X103.089 Y137.363 E10.38738
G1 X102.439 Y137.327 E10.41949
G1 X101.658 Y137.232 E10.45827
G1 X101.150 Y137.142 E10.48370
G1 X100.516 Y136.995 E10.51580
G1 X99.949 Y136.831 E10.54487
G1 X54.843 Y121.976 E12.88620
G1 X54.370 Y121.788 E12.91129
G1 X53.418 Y121.228 E12.96576
G1 X52.661 Y120.562 E13.01546
G1 X52.193 Y119.972 E13.05261
G1 X31.931 Y89.916 E14.83967
G1 X31.552 Y89.273 E14.87646
G1 X31.284 Y88.737 E14.90605
G1 X31.032 Y88.144 E14.93779
G1 X30.789 Y87.438 E14.97460
G1 X30.632 Y86.859 E15.00418
G1 X30.503 Y86.228 E15.03592
G1 X30.432 Y85.736 E15.06047
G1 X30.371 Y84.992 E15.09727
G1 X30.363 Y84.392 E15.12682
G1 X30.394 Y83.749 E15.15859
G1 X30.447 Y83.253 E15.18314
G1 X30.572 Y82.518 E15.21992
G1 X30.687 Y82.033 E15.24447
G1 X30.903 Y81.319 E15.28126
G1 X31.077 Y80.853 E15.30581
G1 X31.380 Y80.171 E15.34260
G1 X31.661 Y79.641 E15.37217
G1 X31.998 Y79.091 E15.40394
G1 X52.429 Y48.572 E17.21464
G1 X52.808 Y48.794 F7800.000
G1 X53.619 Y47.972 E17.27156 F1080.000
G1 X54.047 Y47.661 E17.29765
G1 X85.682 Y27.217 E19.15464
G1 X86.515 Y26.756 E19.20158
G1 X92.357 Y23.870 E19.52286
G1 X92.908 Y23.633 E19.55242
G1 X93.475 Y23.437 E19.58198
G1 X94.054 Y23.282 E19.61152
G1 X94.642 Y23.168 E19.64108
G1 X95.238 Y23.097 E19.67064
G1 X95.941 Y23.069 E19.70532
G1 X96.436 Y23.083 E19.72975 F1080.000
G1 X97.032 Y23.140 E19.75929
G1 X97.624 Y23.239 E19.78886
G1 X98.206 Y23.381 E19.81841
G1 X98.777 Y23.563 E19.84796
G1 X99.334 Y23.786 E19.87752
G1 X99.964 Y24.098 E19.91220
G1 X100.392 Y24.348 E19.93663
G1 X100.889 Y24.684 E19.96619
G1 X101.360 Y25.054 E19.99573
G1 X101.690 Y25.347 E20.01749
G1 X120.759 Y43.282 E21.30809
G1 X122.649 Y45.062 E21.43612
G1 X123.084 Y45.506 E21.46677
G1 X123.494 Y45.974 E21.49742
G1 X123.876 Y46.464 E21.52807
G1 X124.229 Y46.976 E21.55873
G1 X124.553 Y47.507 E21.58938
G1 X124.846 Y48.055 E21.62004
G1 X125.107 Y48.619 E21.65069
G1 X125.379 Y49.325 E21.68797
G1 X125.567 Y49.917 E21.71862
G1 X125.692 Y50.388 E21.74264
G1 X125.809 Y50.941 E21.77051
G1 X125.940 Y51.837 E21.81515
G1 X126.357 Y55.172 E21.98084
G1 X126.739 Y58.532 E22.14756
G1 X127.087 Y61.917 E22.31533
G1 X127.603 Y67.732 E22.60317
G1 X128.003 Y73.249 E22.87587
G1 X128.225 Y76.959 E23.05912
G1 X128.413 Y80.696 E23.24357
G1 X128.575 Y84.693 E23.44083
G1 X128.701 Y88.703 E23.63860
G1 X128.789 Y92.740 E23.83766
G1 X128.844 Y97.159 E24.05557
G1 X128.794 Y98.338 E24.11376
G1 X128.727 Y99.065 E24.14976
G1 X128.598 Y99.989 E24.19573
G1 X128.357 Y101.223 E24.25772
G1 X128.179 Y101.931 E24.29372
G1 X127.973 Y102.632 E24.32971
G1 X127.741 Y103.324 E24.36570
G1 X127.404 Y104.193 E24.41168
G1 X126.886 Y105.339 E24.47367
G1 X112.930 Y131.308 E25.92715
G1 X112.612 Y131.847 E25.95801
G1 X112.263 Y132.367 E25.98889
G1 X111.884 Y132.865 E26.01976
G1 X111.385 Y133.441 E26.05730
G1 X111.045 Y133.794 E26.08150
G1 X110.586 Y134.221 E26.11237
G1 X110.104 Y134.620 E26.14324
G1 X109.600 Y134.991 E26.17411
G1 X109.075 Y135.333 E26.20498
G1 X108.532 Y135.644 E26.23585
G1 X107.971 Y135.923 E26.26672
G1 X107.396 Y136.170 E26.29759
G1 X106.807 Y136.383 E26.32847
G1 X106.207 Y136.562 E26.35934
G1 X105.598 Y136.706 E26.39020
G1 X104.981 Y136.815 E26.42108
G1 X104.359 Y136.888 E26.45195
G1 X103.734 Y136.926 E26.48282
G1 X103.108 Y136.927 E26.51369
G1 X102.483 Y136.893 E26.54456
G1 X101.727 Y136.801 E26.58210
G1 X101.243 Y136.716 E26.60629
G1 X100.633 Y136.575 E26.63717
G1 X100.086 Y136.417 E26.66527
G1 X54.987 Y121.565 E29.00619
G1 X54.547 Y121.389 E29.02955
G1 X53.680 Y120.879 E29.07915
G1 X52.981 Y120.265 E29.12499
G1 X52.555 Y119.728 E29.15884
G1 X32.300 Y89.683 E30.94525
G1 X31.938 Y89.069 E30.98043
G1 X31.679 Y88.551 E31.00894
G1 X31.440 Y87.989 E31.03907
G1 X31.207 Y87.314 E31.07426
G1 X31.056 Y86.756 E31.10276
G1 X30.934 Y86.158 E31.13289
G1 X30.865 Y85.687 E31.15636
G1 X30.807 Y84.975 E31.19154
G1 X30.799 Y84.398 E31.22002
G1 X30.829 Y83.787 E31.25018
G1 X30.879 Y83.313 E31.27365
G1 X30.999 Y82.610 E31.30882
G1 X31.108 Y82.147 E31.33228
G1 X31.315 Y81.464 E31.36746
G1 X31.572 Y80.798 E31.40264
G1 X31.816 Y80.275 E31.43114
G1 X32.109 Y79.738 E31.46129
G1 X32.361 Y79.334 E31.48475
G1 X52.777 Y48.836 E33.29417
G1 F1800.000 E32.29417
G92 E0
G1 X67.026 Y115.395 F7800.000
G1 E1.00000 F1800.000
G1 X66.789 Y115.584 E1.01497 F540.000
G1 X66.656 Y115.658 E1.02246
G1 X66.369 Y115.758 E1.03743
G1 X66.086 Y115.791 E1.05147
G1 X59.049 Y115.791 E1.39843
G1 X58.766 Y115.758 E1.41247
G1 X58.620 Y115.716 E1.41997
G1 X58.346 Y115.584 E1.43493
G1 X58.222 Y115.496 E1.44243
G1 X58.008 Y115.281 E1.45739
G1 X57.846 Y115.024 E1.47236
G1 X57.746 Y114.738 E1.48732
G1 X57.713 Y114.455 E1.50137
G1 X57.713 Y112.427 E1.60135
G1 X57.742 Y111.902 E1.62726
G1 X57.831 Y111.375 E1.65363
G1 X57.976 Y110.860 E1.68000
G1 X58.070 Y110.609 E1.69319
G1 X58.258 Y110.205 E1.71519
G1 X58.578 Y109.670 E1.74592
G1 X58.907 Y109.248 E1.77228
G1 X59.280 Y108.865 E1.79865
G1 X59.693 Y108.525 E1.82502
G1 X59.912 Y108.372 E1.83821
G1 X60.376 Y108.105 E1.86458
G1 X60.865 Y107.890 E1.89094
G1 X61.376 Y107.731 E1.91731
G1 X61.637 Y107.672 E1.93050
G1 X62.167 Y107.599 E1.95687
G1 X62.434 Y107.584 E1.97006
G1 X62.879 Y107.594 E1.99202
G1 X63.498 Y107.672 E2.02278 F540.000
G1 X64.017 Y107.803 E2.04915
G1 X64.270 Y107.890 E2.06234
G1 X64.759 Y108.105 E2.08870
G1 X65.223 Y108.372 E2.11507
G1 X65.653 Y108.689 E2.14144
G1 X65.855 Y108.865 E2.15463
G1 X66.168 Y109.183 E2.17661
G1 X66.557 Y109.670 E2.20735
G1 X66.837 Y110.126 E2.23372
G1 X67.065 Y110.609 E2.26009
G1 X67.239 Y111.115 E2.28646
G1 X67.356 Y111.637 E2.31283
G1 X67.415 Y112.169 E2.33920
G1 X67.414 Y114.588 E2.45847
G1 X67.389 Y114.738 E2.46596
G1 X67.289 Y115.024 E2.48093
G1 X67.215 Y115.157 E2.48842
G1 X67.061 Y115.356 E2.50080
G1 X66.717 Y115.086 F7800.000
G1 X66.466 Y115.264 E2.51597 F540.000
G1 X66.272 Y115.332 E2.52611
G1 X66.074 Y115.354 E2.53594
G1 X59.061 Y115.354 E2.88169
G1 X58.764 Y115.303 E2.89654
G1 X58.579 Y115.214 E2.90668
G1 X58.418 Y115.086 E2.91682
G1 X58.290 Y114.925 E2.92696
G1 X58.201 Y114.740 E2.93710
G1 X58.149 Y114.443 E2.95195
G1 X58.150 Y112.433 E3.05103
G1 X58.176 Y111.950 E3.07487
G1 X58.257 Y111.470 E3.09887
G1 X58.389 Y111.002 E3.12287
G1 X58.572 Y110.551 E3.14686
G1 X58.804 Y110.123 E3.17086
G1 X59.081 Y109.723 E3.19486
G1 X59.401 Y109.356 E3.21886
G1 X59.575 Y109.186 E3.23086
G1 X59.951 Y108.877 E3.25485
G1 X60.359 Y108.610 E3.27885
G1 X60.573 Y108.495 E3.29085
G1 X61.019 Y108.299 E3.31485
G1 X61.483 Y108.154 E3.33885
G1 X61.961 Y108.060 E3.36284
G1 X62.446 Y108.020 E3.38684
G1 X63.097 Y108.052 E3.41901 F540.000
G1 X63.652 Y108.154 E3.44680
G1 X64.117 Y108.299 E3.47080
G1 X64.709 Y108.574 E3.50297
G1 X65.184 Y108.877 E3.53076
G1 X65.560 Y109.186 E3.55476
G1 X65.847 Y109.478 E3.57496
G1 X66.054 Y109.723 E3.59075
G1 X66.331 Y110.123 E3.61475
G1 X66.563 Y110.551 E3.63875
G1 X66.746 Y111.002 E3.66275
G1 X66.878 Y111.470 E3.68674
G1 X66.959 Y111.950 E3.71074
G1 X66.985 Y112.433 E3.73458
G1 X66.980 Y114.539 E3.83841
G1 X66.895 Y114.835 E3.85358
G1 X66.752 Y115.047 E3.86618
G1 F1800.000 E2.86618
G92 E0
G1 X62.390 Y107.675 F7800.000
G1 X58.245 Y116.027 F7800.000
G1 E1.00000 F1800.000
G1 X58.177 Y116.288 E1.01334 F540.000
G1 X57.215 Y116.288 E1.06077
G1 X57.215 Y115.326 E1.10823
G1 X57.477 Y115.258 E1.12157
G1 X57.666 Y115.554 E1.13886
G1 X57.800 Y115.704 E1.14877
G1 X57.950 Y115.838 E1.15868
G1 X58.199 Y116.001 E1.17337
G1 F1800.000 E0.17337
G92 E0
G1 X66.958 Y116.288 F7800.000
G1 E1.00000 F1800.000
G1 X66.890 Y116.027 E1.01334 F540.000
G1 X67.185 Y115.838 E1.03061
G1 X67.335 Y115.704 E1.04052
G1 X67.469 Y115.554 E1.05043
G1 X67.658 Y115.258 E1.06772
G1 X67.920 Y115.326 E1.08106
G1 X67.920 Y116.288 E1.12851
G1 X67.010 Y116.288 E1.17336
G1 F1800.000 E0.17336
G92 E0
G1 X67.624 Y110.886 F7800.000
G1 E1.00000 F1800.000
G1 X67.470 Y110.445 E1.02301 F540.000
G1 X67.352 Y110.178 E1.03739
G1 X67.221 Y109.918 E1.05176
G1 X66.915 Y109.421 E1.08050
G1 X66.743 Y109.186 E1.09488
G1 X66.360 Y108.747 E1.12362
G1 X66.075 Y108.477 E1.14297
G1 X65.701 Y108.173 E1.16673
G1 X65.213 Y107.854 E1.19547
G1 X64.956 Y107.715 E1.20984
G1 X64.423 Y107.481 E1.23858
G1 X63.866 Y107.307 E1.26732
G1 X63.582 Y107.244 E1.28169
G1 X63.193 Y107.184 E1.30106
G1 X62.713 Y107.147 E1.32480
G1 X62.321 Y107.153 E1.34417
G1 X61.841 Y107.196 E1.36791
G1 X61.171 Y107.335 E1.40163
G1 X60.712 Y107.481 E1.42538
G1 X60.442 Y107.591 E1.43975
G1 X60.090 Y107.764 E1.45911
G1 X59.674 Y108.007 E1.48286
G1 X59.434 Y108.173 E1.49724
G1 X58.984 Y108.544 E1.52598
G1 X58.775 Y108.747 E1.54035
G1 X58.392 Y109.186 E1.56909
G1 X58.220 Y109.421 E1.58347
G1 X57.914 Y109.918 E1.61220
G1 X57.665 Y110.445 E1.64094
G1 X57.511 Y110.886 E1.66396
G1 X57.214 Y110.840 E1.67874
G1 X57.211 Y78.901 E3.25342
G1 X57.450 Y78.821 E3.26583
G1 X58.542 Y80.280 E3.35571
G1 X58.727 Y80.500 E3.36987
G1 X59.132 Y80.908 E3.39818
G1 X59.580 Y81.267 E3.42649
G1 X60.065 Y81.574 E3.45480
G1 X60.581 Y81.825 E3.48311
G1 X61.029 Y81.987 E3.50659
G1 X61.039 Y101.396 E4.46349
G1 X61.082 Y101.602 E4.47386
G1 X61.153 Y101.801 E4.48425
G1 X61.303 Y102.063 E4.49916
G1 X61.515 Y102.313 E4.51532
G1 X61.678 Y102.446 E4.52570
G1 X61.858 Y102.556 E4.53608
G1 X62.051 Y102.640 E4.54645
G1 X62.254 Y102.696 E4.55684
G1 X62.462 Y102.725 E4.56721
G1 X62.673 Y102.725 E4.57759
G1 X62.881 Y102.696 E4.58798
G1 X63.169 Y102.603 E4.60289
G1 X63.457 Y102.446 E4.61905
G1 X63.620 Y102.313 E4.62943
G1 X63.817 Y102.084 E4.64435
G1 X63.982 Y101.801 E4.66050
G1 X64.053 Y101.602 E4.67088
G1 X64.096 Y101.396 E4.68126
G1 X64.106 Y81.987 E5.63815
G1 X64.554 Y81.825 E5.66164
G1 X64.816 Y81.707 E5.67580
G1 X65.317 Y81.427 E5.70411
G1 X65.784 Y81.093 E5.73242
G1 X66.211 Y80.710 E5.76073
G1 X66.593 Y80.280 E5.78904
G1 X66.825 Y79.960 E5.80854
G1 X67.069 Y79.564 E5.83150
G1 X67.318 Y79.046 E5.85981
G1 X67.638 Y78.202 E5.90431
G1 X67.924 Y78.255 E5.91865
G1 X67.921 Y110.840 E7.52517
G1 X67.676 Y110.878 E7.53736
G1 F1800.000 E6.53736
G92 E0
G1 X67.616 Y70.985 F7800.000
G1 E1.00000 F1800.000
G1 X67.323 Y69.878 E1.05644 F540.000
G1 X67.236 Y69.650 E1.06847
G1 X67.028 Y69.318 E1.08782
G1 X66.809 Y69.114 E1.10256
G1 X67.121 Y68.771 E1.12544
G1 X67.257 Y68.511 E1.13987
G1 X67.557 Y67.467 E1.19343
G1 X67.926 Y67.468 E1.21162
G1 X67.925 Y70.949 E1.38328
G1 X67.668 Y70.979 E1.39603
G1 F1800.000 E0.39603
G92 E0
G1 X57.511 Y56.002 F7800.000
G1 E1.00000 F1800.000
G1 X57.208 Y55.962 E1.01509 F540.000
G1 X57.208 Y52.465 E1.18751
G1 X57.581 Y52.464 E1.20593
G1 X57.846 Y53.411 E1.25442
G1 X57.941 Y53.626 E1.26602
G1 X58.129 Y53.897 E1.28228
G1 X57.789 Y54.964 E1.33746
G1 X57.525 Y55.951 E1.38785
G1 F1800.000 E0.38785
G92 E0
G1 X57.927 Y78.730 F7800.000
G1 E1.00000 F1800.000
G1 X58.884 Y80.009 E1.07878 F540.000
G1 X59.233 Y80.402 E1.10468
G1 X59.624 Y80.753 E1.13059
G1 X60.052 Y81.059 E1.15649
G1 X60.510 Y81.315 E1.18239
G1 X60.995 Y81.518 E1.20830
G1 X61.465 Y81.657 E1.23248
G1 X61.473 Y101.337 E2.20275
G1 X61.554 Y101.626 E2.21759
G1 X61.660 Y101.812 E2.22810
G1 X61.813 Y101.994 E2.23985
G1 X62.059 Y102.167 E2.25469
G1 X62.343 Y102.268 E2.26953
G1 X62.643 Y102.289 E2.28436
G1 X62.938 Y102.227 E2.29920
G1 X63.205 Y102.089 E2.31404
G1 X63.425 Y101.884 E2.32887
G1 X63.581 Y101.626 E2.34371
G1 X63.632 Y101.484 E2.35115
G1 X63.671 Y101.209 E2.36486
G1 X63.670 Y81.657 E3.32883
G1 X64.140 Y81.518 E3.35302
G1 X64.385 Y81.423 E3.36597
G1 X64.858 Y81.193 E3.39188
G1 X65.378 Y80.854 E3.42251
G1 X65.711 Y80.583 E3.44368
G1 X65.902 Y80.402 E3.45663
G1 X66.251 Y80.009 E3.48254
G1 X66.462 Y79.718 E3.50024
G1 X66.687 Y79.353 E3.52140
G1 X66.914 Y78.879 E3.54730
G1 X67.317 Y77.818 E3.60327
G1 X67.211 Y77.818 E3.60852
G1 X67.262 Y77.349 E3.63181
G1 X67.269 Y77.095 E3.64431
G1 X67.265 Y71.659 E3.91235
G1 X67.251 Y71.428 E3.92376
G1 X67.198 Y71.109 E3.93971
G1 X66.885 Y69.945 E3.99909
G1 X66.761 Y69.692 E4.01299
G1 X66.696 Y69.603 E4.01844
G1 X66.529 Y69.449 E4.02962
G1 X66.329 Y69.347 E4.04071
G1 X66.136 Y69.318 E4.05031
G1 X62.628 Y69.311 E4.22328
G1 X62.628 Y68.886 E4.24423
G1 X66.144 Y68.880 E4.41759
G1 X66.359 Y68.841 E4.42836
G1 X66.591 Y68.705 E4.44163
G1 X66.758 Y68.521 E4.45391
G1 X66.855 Y68.336 E4.46419
G1 X67.226 Y67.031 E4.53107
G1 X68.349 Y67.032 E4.58639
G1 X68.362 Y67.269 E4.59812
G1 X68.356 Y116.725 E7.03637
G1 X56.779 Y116.725 E7.60716
G1 X56.771 Y52.269 E10.78494
G1 X56.785 Y52.029 E10.79683
G1 X57.906 Y52.027 E10.85209
G1 X58.085 Y52.609 E10.88212
G1 X58.214 Y53.134 E10.90875
G1 X58.326 Y53.421 E10.92395
G1 X58.381 Y53.515 E10.92933
G1 X58.550 Y53.705 E10.94185
G1 X58.774 Y53.836 E10.95466
G1 X58.993 Y53.877 E10.96563
G1 X65.709 Y53.877 E11.29674
G1 X65.717 Y54.099 E11.30770
G1 X65.709 Y54.321 E11.31864
G1 X59.001 Y54.322 E11.64934
G1 X58.811 Y54.353 E11.65883
G1 X58.604 Y54.455 E11.67022
G1 X58.558 Y54.496 E11.67325
G1 X58.396 Y54.496 E11.68125
