; generated by Slic3r 1.1.7 on 2014-10-21 at 20:43:16

; perimeters extrusion width = 0.35mm
; infill extrusion width = 0.44mm
; solid infill extrusion width = 0.44mm
; top infill extrusion width = 0.44mm

G21 ; set units to millimeters
M104 S185 ; set temperature
G28 ; home all axes
M109 S185 ; wait for temperature to be reached
G90 ; use absolute coordinates
G92 E0
M82 ; use absolute distances for extrusion
G1 F1800.000 E-1.00000
G92 E0
G1 Z0.230 F7800.000
G1 X46.646 Y45.564 F7800.000
G1 E1.00000 F1800.000
G1 X48.314 Y44.528 E1.09684 F1080.000
G1 X50.000 Y44.227 E1.18124
G1 X110.000 Y44.227 E4.13940
G1 X111.924 Y44.623 E4.23624
G1 X113.536 Y45.746 E4.33308 F1080.000
G1 X114.572 Y47.414 E4.42992
G1 X114.873 Y49.100 E4.51432
G1 X114.873 Y110.900 E7.56123
G1 X114.477 Y112.824 E7.65807
G1 X113.354 Y114.436 E7.75491
G1 X111.686 Y115.472 E7.85175
G1 X110.000 Y115.773 E7.93615
G1 X50.000 Y115.773 E10.89431
G1 X48.076 Y115.377 E10.99115
G1 X46.464 Y114.254 E11.08799
G1 X45.428 Y112.586 E11.18483
G1 X45.127 Y110.900 E11.26923
G1 X45.127 Y49.100 E14.31614
G1 X45.523 Y47.176 E14.41298
G1 X46.616 Y45.607 E14.50723
G1 X47.018 Y45.840 F7800.000
G1 X47.075 Y45.764 E14.51191 F1080.000
G1 X48.712 Y44.854 E14.60427
G1 X50.000 Y44.663 E14.66844
G1 X110.000 Y44.663 E17.62660
G1 X111.831 Y45.059 E17.71895
G1 X113.336 Y46.175 E17.81131 F1080.000
G1 X114.246 Y47.812 E17.90367
G1 X114.437 Y49.100 E17.96783
G1 X114.437 Y110.900 E21.01474
G1 X114.041 Y112.731 E21.10710
G1 X112.925 Y114.236 E21.19945
G1 X111.288 Y115.146 E21.29181
G1 X110.000 Y115.337 E21.35598
G1 X50.000 Y115.337 E24.31414
G1 X48.169 Y114.941 E24.40649
G1 X46.664 Y113.825 E24.49885
G1 X45.754 Y112.188 E24.59120
G1 X45.563 Y110.900 E24.65537
G1 X45.563 Y49.100 E27.70228
G1 X45.959 Y47.269 E27.79463
G1 X46.987 Y45.882 E27.87972
G1 F1800.000 E26.87972
G92 E0
G1 X108.898 Y109.798 F7800.000
G1 E1.00000 F1800.000
G1 X103.033 Y109.798 E1.28914 F540.000
G1 X103.033 Y50.202 E4.22730
G1 X108.898 Y50.202 E4.51644
G1 X108.898 Y109.745 E7.45201
G1 X109.334 Y110.234 F7800.000
G1 X102.597 Y110.234 E7.78418 F540.000
G1 X102.597 Y49.766 E10.76538
G1 X109.334 Y49.766 E11.09754
G1 X109.334 Y110.182 E14.07615
G1 X109.770 Y110.670 F7800.000
G1 X102.160 Y110.670 E14.45134 F540.000
G1 X102.160 Y49.330 E17.47557
G1 X109.770 Y49.330 E17.85077
G1 X109.770 Y110.618 E20.87240
G1 X109.467 Y110.495 F7800.000
G1 F1800.000 E19.87240
G92 E0
G1 X108.581 Y50.519 F7800.000
G1 E1.00000 F1800.000
G1 X108.581 Y109.481 E3.90697 F1080.000
G1 X108.106 Y109.481 E3.93042
G1 X108.106 Y50.519 E6.83739
G1 X107.630 Y50.519 E6.86084
G1 X107.630 Y109.481 E9.76781
G1 X107.154 Y109.481 E9.79126
G1 X107.154 Y50.519 E12.69823
G1 X106.679 Y50.519 E12.72168
G1 X106.679 Y109.481 E15.62865
G1 X106.203 Y109.481 E15.65210
G1 X106.203 Y50.519 E18.55907
G1 X105.728 Y50.519 E18.58252
G1 X105.728 Y109.481 E21.48949
G1 X105.252 Y109.481 E21.51294
G1 X105.252 Y50.519 E24.41991
G1 X104.776 Y50.519 E24.44336
G1 X104.776 Y109.481 E27.35033
G1 X104.301 Y109.481 E27.37378
G1 X104.301 Y50.519 E30.28075
G1 X103.825 Y50.519 E30.30420
G1 X103.825 Y109.481 E33.21117
G1 X103.349 Y109.481 E33.23462
G1 X103.349 Y50.519 E36.14159
G1 F1800.000 E35.14159
G92 E0
G1 X56.968 Y109.798 F7800.000
G1 E1.00000 F1800.000
G1 X51.102 Y109.798 E1.28917 F540.000
G1 X51.102 Y50.202 E4.22734
G1 X56.968 Y50.202 E4.51652
G1 X56.968 Y109.745 E7.45209
G1 X57.404 Y110.234 F7800.000
G1 X50.666 Y110.234 E7.78430 F540.000
G1 X50.666 Y49.766 E10.76549
G1 X57.404 Y49.766 E11.09770
G1 X57.404 Y110.182 E14.07631
G1 X57.841 Y110.670 F7800.000
G1 X50.230 Y110.670 E14.45154 F540.000
G1 X50.230 Y49.330 E17.47577
G1 X57.841 Y49.330 E17.85100
G1 X57.841 Y110.618 E20.87264
G1 X57.537 Y110.495 F7800.000
G1 F1800.000 E19.87264
G92 E0
G1 X56.651 Y50.519 F7800.000
G1 E1.00000 F1800.000
G1 X56.651 Y109.481 E3.90697 F1080.000
G1 X56.176 Y109.481 E3.93042
G1 X56.176 Y50.519 E6.83739
G1 X55.700 Y50.519 E6.86085
G1 X55.700 Y109.481 E9.76782
G1 X55.224 Y109.481 E9.79127
G1 X55.224 Y50.519 E12.69824
G1 X54.749 Y50.519 E12.72169
G1 X54.749 Y109.481 E15.62866
G1 X54.273 Y109.481 E15.65212
G1 X54.273 Y50.519 E18.55909
G1 X53.797 Y50.519 E18.58254
G1 X53.797 Y109.481 E21.48951
G1 X53.322 Y109.481 E21.51296
G1 X53.322 Y50.519 E24.41994
G1 X52.846 Y50.519 E24.44339
G1 X52.846 Y109.481 E27.35036
G1 X52.370 Y109.481 E27.37381
G1 X52.370 Y50.519 E30.28078
G1 X51.894 Y50.519 E30.30423
G1 X51.894 Y109.481 E33.21121
G1 X51.419 Y109.481 E33.23466
G1 X51.419 Y50.519 E36.14163
G1 F1800.000 E35.14163
G92 E0
G1 Z0.460 F7800.000
G1 X102.665 Y110.025 F7800.000
G1 E1.00000 F1800.000
G1 X102.665 Y49.975 E3.37450 F1800.000
G1 X109.125 Y49.975 E3.62997
G1 X109.125 Y110.025 E6.00448
G1 X102.717 Y110.025 E6.25787
G1 X102.315 Y110.375 F7800.000
G1 X102.315 Y49.625 E8.66005 F1800.000
G1 X109.475 Y49.625 E8.94320
G1 X109.475 Y110.375 E11.34538
G1 X102.367 Y110.375 E11.62645
G1 X101.965 Y110.725 F7800.000
G1 X101.965 Y49.275 E14.05631 F1800.000
G1 X109.825 Y49.275 E14.36714
G1 X109.825 Y110.725 E16.79700
G1 X102.017 Y110.725 E17.10575
G1 X102.140 Y110.422 F7800.000
G1 F1800.000 E16.10575
G92 E0
G1 X108.856 Y109.756 F7800.000
G1 E1.00000 F1800.000
G1 X102.934 Y109.756 E1.27989 F3600.000
G1 X102.934 Y109.337 E1.29970
G1 X108.856 Y109.337 E1.57959
G1 X108.856 Y108.918 E1.59940
G1 X102.934 Y108.918 E1.87929
G1 X102.934 Y108.499 E1.89910
G1 X108.856 Y108.499 E2.17899
G1 X108.856 Y108.080 E2.19879
G1 X102.934 Y108.080 E2.47869
G1 X102.934 Y107.661 E2.49849
G1 X108.856 Y107.661 E2.77838
G1 X108.856 Y107.242 E2.79819
G1 X102.934 Y107.242 E3.07808
G1 X102.934 Y106.823 E3.09789
G1 X108.856 Y106.823 E3.37778
G1 X108.856 Y106.403 E3.39759
G1 X102.934 Y106.403 E3.67748
G1 X102.934 Y105.984 E3.69729
G1 X108.856 Y105.984 E3.97718
G1 X108.856 Y105.565 E3.99698
G1 X102.934 Y105.565 E4.27688
G1 X102.934 Y105.146 E4.29668
G1 X108.856 Y105.146 E4.57657
G1 X108.856 Y104.727 E4.59638
G1 X102.934 Y104.727 E4.87627
G1 X102.934 Y104.308 E4.89608
G1 X108.856 Y104.308 E5.17597
G1 X108.856 Y103.889 E5.19578
G1 X102.934 Y103.889 E5.47567
G1 X102.934 Y103.470 E5.49548
G1 X108.856 Y103.470 E5.77537
G1 X108.856 Y103.051 E5.79517
G1 X102.934 Y103.051 E6.07507
G1 X102.934 Y102.632 E6.09487
G1 X108.856 Y102.632 E6.37476
G1 X108.856 Y102.212 E6.39457
G1 X102.934 Y102.212 E6.67446
G1 X102.934 Y101.793 E6.69427
G1 X108.856 Y101.793 E6.97416
G1 X108.856 Y101.374 E6.99397
G1 X102.934 Y101.374 E7.27386
G1 X102.934 Y100.955 E7.29367
G1 X108.856 Y100.955 E7.57356
G1 X108.856 Y100.536 E7.59336
G1 X102.934 Y100.536 E7.87326
G1 X102.934 Y100.117 E7.89306
G1 X108.856 Y100.117 E8.17296
G1 X108.856 Y99.698 E8.19276
G1 X102.934 Y99.698 E8.47265
G1 X102.934 Y99.279 E8.49246
G1 X108.856 Y99.279 E8.77235
G1 X108.856 Y98.860 E8.79216
G1 X102.934 Y98.860 E9.07205
G1 X102.934 Y98.441 E9.09186
G1 X108.856 Y98.441 E9.37175
G1 X108.856 Y98.021 E9.39156
G1 X102.934 Y98.021 E9.67145
G1 X102.934 Y97.602 E9.69125
G1 X108.856 Y97.602 E9.97115
G1 X108.856 Y97.183 E9.99095
G1 X102.934 Y97.183 E10.27084
G1 X102.934 Y96.764 E10.29065
G1 X108.856 Y96.764 E10.57054
G1 X108.856 Y96.345 E10.59035
G1 X102.934 Y96.345 E10.87024
G1 X102.934 Y95.926 E10.89005
G1 X108.856 Y95.926 E11.16994
G1 X108.856 Y95.507 E11.18975
G1 X102.934 Y95.507 E11.46964
G1 X102.934 Y95.088 E11.48944
G1 X108.856 Y95.088 E11.76934
G1 X108.856 Y94.669 E11.78914
G1 X102.934 Y94.669 E12.06903
G1 X102.934 Y94.249 E12.08884
G1 X108.856 Y94.249 E12.36873
G1 X108.856 Y93.830 E12.38854
G1 X102.934 Y93.830 E12.66843
G1 X102.934 Y93.411 E12.68824
G1 X108.856 Y93.411 E12.96813
G1 X108.856 Y92.992 E12.98794
G1 X102.934 Y92.992 E13.26783
G1 X102.934 Y92.573 E13.28763
G1 X108.856 Y92.573 E13.56753
G1 X108.856 Y92.154 E13.58733
G1 X102.934 Y92.154 E13.86722
G1 X102.934 Y91.735 E13.88703
G1 X108.856 Y91.735 E14.16692
G1 X108.856 Y91.316 E14.18673
G1 X102.934 Y91.316 E14.46662
G1 X102.934 Y90.897 E14.48643
G1 X108.856 Y90.897 E14.76632
G1 X108.856 Y90.478 E14.78613
G1 X102.934 Y90.478 E15.06602
G1 X102.934 Y90.058 E15.08582
G1 X108.856 Y90.058 E15.36572
G1 X108.856 Y89.639 E15.38552
G1 X102.934 Y89.639 E15.66541
G1 X102.934 Y89.220 E15.68522
G1 X108.856 Y89.220 E15.96511
G1 X108.856 Y88.801 E15.98492
G1 X102.934 Y88.801 E16.26481
G1 X102.934 Y88.382 E16.28462
G1 X108.856 Y88.382 E16.56451
G1 X108.856 Y87.963 E16.58432
G1 X102.934 Y87.963 E16.86421
G1 X102.934 Y87.544 E16.88401
G1 X108.856 Y87.544 E17.16391
G1 X108.856 Y87.125 E17.18371
G1 X102.934 Y87.125 E17.46361
G1 X102.934 Y86.706 E17.48341
G1 X108.856 Y86.706 E17.76330
G1 X108.856 Y86.287 E17.78311
G1 X102.934 Y86.287 E18.06300
G1 X102.934 Y85.867 E18.08281
G1 X108.856 Y85.867 E18.36270
G1 X108.856 Y85.448 E18.38251
G1 X102.934 Y85.448 E18.66240
G1 X102.934 Y85.029 E18.68221
G1 X108.856 Y85.029 E18.96210
G1 X108.856 Y84.610 E18.98190
G1 X102.934 Y84.610 E19.26180
G1 X102.934 Y84.191 E19.28160
G1 X108.856 Y84.191 E19.56149
G1 X108.856 Y83.772 E19.58130
G1 X102.934 Y83.772 E19.86119
G1 X102.934 Y83.353 E19.88100
G1 X108.856 Y83.353 E20.16089
G1 X108.856 Y82.934 E20.18070
G1 X102.934 Y82.934 E20.46059
G1 X102.934 Y82.515 E20.48040
G1 X108.856 Y82.515 E20.76029
G1 X108.856 Y82.096 E20.78009
G1 X102.934 Y82.096 E21.05999
G1 X102.934 Y81.676 E21.07979
G1 X108.856 Y81.676 E21.35968
G1 X108.856 Y81.257 E21.37949
G1 X102.934 Y81.257 E21.65938
G1 X102.934 Y80.838 E21.67919
G1 X108.856 Y80.838 E21.95908
G1 X108.856 Y80.419 E21.97889
G1 X102.934 Y80.419 E22.25878
G1 X102.934 Y80.000 E22.27859
G1 X108.856 Y80.000 E22.55848
G1 X108.856 Y79.581 E22.57828
G1 X102.934 Y79.581 E22.85818
G1 X102.934 Y79.162 E22.87798
G1 X108.856 Y79.162 E23.15787
G1 X108.856 Y78.743 E23.17768
G1 X102.934 Y78.743 E23.45757
G1 X102.934 Y78.324 E23.47738
G1 X108.856 Y78.324 E23.75727
G1 X108.856 Y77.904 E23.77708
G1 X102.934 Y77.904 E24.05697
G1 X102.934 Y77.485 E24.07678
G1 X108.856 Y77.485 E24.35667
G1 X108.856 Y77.066 E24.37647
G1 X102.934 Y77.066 E24.65637
G1 X102.934 Y76.647 E24.67617
G1 X108.856 Y76.647 E24.95607
G1 X108.856 Y76.228 E24.97587
G1 X102.934 Y76.228 E25.25576
G1 X102.934 Y75.809 E25.27557
G1 X108.856 Y75.809 E25.55546
G1 X108.856 Y75.390 E25.57527
G1 X102.934 Y75.390 E25.85516
G1 X102.934 Y74.971 E25.87497
G1 X108.856 Y74.971 E26.15486
G1 X108.856 Y74.552 E26.17467
G1 X102.934 Y74.552 E26.45456
G1 X102.934 Y74.133 E26.47436
G1 X108.856 Y74.133 E26.75426
G1 X108.856 Y73.713 E26.77406
G1 X102.934 Y73.713 E27.05395
G1 X102.934 Y73.294 E27.07376
G1 X108.856 Y73.294 E27.35365
G1 X108.856 Y72.875 E27.37346
G1 X102.934 Y72.875 E27.65335
G1 X102.934 Y72.456 E27.67316
G1 X108.856 Y72.456 E27.95305
G1 X108.856 Y72.037 E27.97286
G1 X102.934 Y72.037 E28.25275
G1 X102.934 Y71.618 E28.27255
G1 X108.856 Y71.618 E28.55245
G1 X108.856 Y71.199 E28.57225
G1 X102.934 Y71.199 E28.85214
G1 X102.934 Y70.780 E28.87195
G1 X108.856 Y70.780 E29.15184
G1 X108.856 Y70.361 E29.17165
G1 X102.934 Y70.361 E29.45154
G1 X102.934 Y69.942 E29.47135
G1 X108.856 Y69.942 E29.75124
G1 X108.856 Y69.522 E29.77105
G1 X102.934 Y69.522 E30.05094
G1 X102.934 Y69.103 E30.07074
G1 X108.856 Y69.103 E30.35064
G1 X108.856 Y68.684 E30.37044
G1 X102.934 Y68.684 E30.65033
G1 X102.934 Y68.265 E30.67014
G1 X108.856 Y68.265 E30.95003
G1 X108.856 Y67.846 E30.96984
G1 X102.934 Y67.846 E31.24973
G1 X102.934 Y67.427 E31.26954
G1 X108.856 Y67.427 E31.54943
G1 X108.856 Y67.008 E31.56924
G1 X102.934 Y67.008 E31.84913
G1 X102.934 Y66.589 E31.86893
G1 X108.856 Y66.589 E32.14883
G1 X108.856 Y66.170 E32.16863
G1 X102.934 Y66.170 E32.44852
G1 X102.934 Y65.751 E32.46833
G1 X108.856 Y65.751 E32.74822
G1 X108.856 Y65.331 E32.76803
G1 X102.934 Y65.331 E33.04792
G1 X102.934 Y64.912 E33.06773
G1 X108.856 Y64.912 E33.34762
G1 X108.856 Y64.493 E33.36743
G1 X102.934 Y64.493 E33.64732
G1 X102.934 Y64.074 E33.66712
G1 X108.856 Y64.074 E33.94702
G1 X108.856 Y63.655 E33.96682
G1 X102.934 Y63.655 E34.24672
G1 X102.934 Y63.236 E34.26652
G1 X108.856 Y63.236 E34.54641
G1 X108.856 Y62.817 E34.56622
G1 X102.934 Y62.817 E34.84611
G1 X102.934 Y62.398 E34.86592
G1 X108.856 Y62.398 E35.14581
G1 X108.856 Y61.979 E35.16562
G1 X102.934 Y61.979 E35.44551
G1 X102.934 Y61.559 E35.46532
G1 X108.856 Y61.559 E35.74521
G1 X108.856 Y61.140 E35.76501
G1 X102.934 Y61.140 E36.04491
G1 X102.934 Y60.721 E36.06471
G1 X108.856 Y60.721 E36.34460
G1 X108.856 Y60.302 E36.36441
G1 X102.934 Y60.302 E36.64430
G1 X102.934 Y59.883 E36.66411
G1 X108.856 Y59.883 E36.94400
G1 X108.856 Y59.464 E36.96381
G1 X102.934 Y59.464 E37.24370
G1 X102.934 Y59.045 E37.26351
G1 X108.856 Y59.045 E37.54340
G1 X108.856 Y58.626 E37.56320
G1 X102.934 Y58.626 E37.84310
G1 X102.934 Y58.207 E37.86290
G1 X108.856 Y58.207 E38.14279
G1 X108.856 Y57.788 E38.16260
G1 X102.934 Y57.788 E38.44249
G1 X102.934 Y57.368 E38.46230
G1 X108.856 Y57.368 E38.74219
G1 X108.856 Y56.949 E38.76200
G1 X102.934 Y56.949 E39.04189
G1 X102.934 Y56.530 E39.06170
G1 X108.856 Y56.530 E39.34159
G1 X108.856 Y56.111 E39.36139
G1 X102.934 Y56.111 E39.64129
G1 X102.934 Y55.692 E39.66109
G1 X108.856 Y55.692 E39.94098
G1 X108.856 Y55.273 E39.96079
G1 X102.934 Y55.273 E40.24068
G1 X102.934 Y54.854 E40.26049
G1 X108.856 Y54.854 E40.54038
G1 X108.856 Y54.435 E40.56019
G1 X102.934 Y54.435 E40.84008
G1 X102.934 Y54.016 E40.85989
G1 X108.856 Y54.016 E41.13978
G1 X108.856 Y53.597 E41.15958
G1 X102.934 Y53.597 E41.43948
G1 X102.934 Y53.177 E41.45928
G1 X108.856 Y53.177 E41.73918
G1 X108.856 Y52.758 E41.75898
G1 X102.934 Y52.758 E42.03887
G1 X102.934 Y52.339 E42.05868
G1 X108.856 Y52.339 E42.33857
G1 X108.856 Y51.920 E42.35838
G1 X102.934 Y51.920 E42.63827
G1 X102.934 Y51.501 E42.65808
G1 X108.856 Y51.501 E42.93797
G1 X108.856 Y51.082 E42.95777
G1 X102.934 Y51.082 E43.23767
G1 X102.934 Y50.663 E43.25747
G1 X108.856 Y50.663 E43.53737
G1 X108.856 Y50.244 E43.55717
G1 X102.934 Y50.244 E43.83706
G1 F1800.000 E42.83706
G92 E0
G1 X57.336 Y110.025 F7800.000
G1 E1.00000 F1800.000
G1 X50.875 Y110.025 E1.25550 F1800.000
G1 X50.875 Y49.975 E3.63000
G1 X57.336 Y49.975 E3.88550
G1 X57.336 Y109.973 E6.25793
G1 X57.686 Y110.375 F7800.000
G1 X50.525 Y110.375 E6.54111 F1800.000
G1 X50.525 Y49.625 E8.94329
G1 X57.686 Y49.625 E9.22647
G1 X57.686 Y110.323 E11.62658
G1 X58.036 Y110.725 F7800.000
G1 X50.175 Y110.725 E11.93743 F1800.000
G1 X50.175 Y49.275 E14.36730
G1 X58.036 Y49.275 E14.67815
G1 X58.036 Y110.673 E17.10594
G1 X57.733 Y110.550 F7800.000
G1 X57.067 Y109.756 F7800.000
G1 X51.144 Y109.756 E17.38587 F3600.000
G1 X51.144 Y109.337 E17.40568
G1 X57.067 Y109.337 E17.68561
G1 X57.067 Y108.918 E17.70541
G1 X51.144 Y108.918 E17.98534
G1 X51.144 Y108.499 E18.00515
G1 X57.067 Y108.499 E18.28508
G1 X57.067 Y108.080 E18.30488
G1 X51.144 Y108.080 E18.58481
G1 X51.144 Y107.661 E18.60462
G1 X57.067 Y107.661 E18.88455
G1 X57.067 Y107.242 E18.90436
G1 X51.144 Y107.242 E19.18429
G1 X51.144 Y106.823 E19.20409
G1 X57.067 Y106.823 E19.48402
G1 X57.067 Y106.403 E19.50383
G1 X51.144 Y106.403 E19.78376
G1 X51.144 Y105.984 E19.80356
G1 X57.067 Y105.984 E20.08349
G1 X57.067 Y105.565 E20.10330
G1 X51.144 Y105.565 E20.38323
G1 X51.144 Y105.146 E20.40304
G1 X57.067 Y105.146 E20.68297
G1 X57.067 Y104.727 E20.70277
G1 X51.144 Y104.727 E20.98270
G1 X51.144 Y104.308 E21.00251
G1 X57.067 Y104.308 E21.28244
G1 X57.067 Y103.889 E21.30224
G1 X51.144 Y103.889 E21.58217
G1 X51.144 Y103.470 E21.60198
G1 X57.067 Y103.470 E21.88191
G1 X57.067 Y103.051 E21.90172
G1 X51.144 Y103.051 E22.18165
G1 X51.144 Y102.632 E22.20145
G1 X57.067 Y102.632 E22.48138
G1 X57.067 Y102.212 E22.50119
G1 X51.144 Y102.212 E22.78112
G1 X51.144 Y101.793 E22.80092
G1 X57.067 Y101.793 E23.08085
G1 X57.067 Y101.374 E23.10066
