; generated by Slic3r 1.1.7 on 2015-02-07 at 21:26:20

; perimeters extrusion width = 0.35mm
; infill extrusion width = 0.67mm
; solid infill extrusion width = 0.59mm
; top infill extrusion width = 0.59mm

G21 ; set units to millimeters
M190 S60 ; wait for bed temperature to be reached
M104 S185 ; set temperature
G28 ; home all axes
M109 S185 ; wait for temperature to be reached
G90 ; use absolute coordinates
G92 E0
M82 ; use absolute distances for extrusion
G1 F1800.000 E-1.00000
G92 E0
G1 Z0.230 F5400.000
G1 X17.974 Y35.388 F5400.000
G1 E1.00000 F1800.000
G1 X19.659 Y35.088 E1.08440 F1800.000
G1 X140.341 Y35.088 E7.03424
G1 X142.265 Y35.484 E7.13108
G1 X143.876 Y36.607 E7.22792 F1800.000
G1 X144.913 Y38.275 E7.32476
G1 X145.214 Y39.960 E7.40916
G1 X145.214 Y75.008 E9.13710
G1 X144.818 Y76.932 E9.23394
G1 X143.671 Y78.566 E9.33235
G1 X95.563 Y123.597 E12.58111
G1 X93.888 Y124.623 E12.67795
G1 X92.233 Y124.912 E12.76078
G1 X19.659 Y124.912 E16.33880
G1 X17.735 Y124.516 E16.43564
G1 X16.124 Y123.393 E16.53248
G1 X15.087 Y121.725 E16.62932
G1 X14.786 Y120.039 E16.71372
G1 X14.786 Y39.960 E20.66177
G1 X15.182 Y38.037 E20.75862
G1 X16.306 Y36.425 E20.85546
G1 X17.929 Y35.416 E20.94971
G1 X18.207 Y35.807 F5400.000
G1 X18.372 Y35.715 E20.95903 F1800.000
G1 X19.659 Y35.524 E21.02320
G1 X140.341 Y35.524 E26.97304
G1 X142.172 Y35.920 E27.06540
G1 X143.676 Y37.036 E27.15775 F1800.000
G1 X144.586 Y38.673 E27.25011
G1 X144.777 Y39.960 E27.31428
G1 X144.777 Y75.008 E29.04222
G1 X144.382 Y76.840 E29.13457
G1 X143.372 Y78.247 E29.21997
G1 X95.264 Y123.278 E32.46874
G1 X93.657 Y124.241 E32.56109
G1 X92.233 Y124.476 E32.63228
G1 X19.659 Y124.476 E36.21030
G1 X17.828 Y124.080 E36.30265
G1 X16.324 Y122.964 E36.39501
G1 X15.414 Y121.327 E36.48737
G1 X15.223 Y120.039 E36.55153
G1 X15.223 Y39.960 E40.49959
G1 X15.618 Y38.129 E40.59195
G1 X16.734 Y36.625 E40.68430
G1 X18.161 Y35.832 E40.76475
G1 F1800.000 E39.76475
G92 E0
G1 X133.373 Y48.877 F5400.000
G1 E1.00000 F1800.000
G1 X91.130 Y48.877 E3.08264 F900.000
G1 X91.130 Y118.937 E6.53674
G1 X83.320 Y118.937 E6.92181
G1 X83.320 Y41.063 E10.76113
G1 X139.238 Y41.063 E13.51802
G1 X139.238 Y73.906 E15.13722
G1 X133.373 Y73.906 E15.42640
G1 X133.373 Y48.929 E16.65779
G1 X132.936 Y49.313 F5400.000
G1 X91.566 Y49.313 E18.69741 F900.000
G1 X91.566 Y119.373 E22.15151
G1 X82.883 Y119.373 E22.57961
G1 X82.883 Y40.627 E26.46196
G1 X139.674 Y40.627 E29.26188
G1 X139.674 Y74.342 E30.92411
G1 X132.936 Y74.342 E31.25632
G1 X132.936 Y49.366 E32.48771
G1 X132.500 Y49.749 F5400.000
G1 X92.003 Y49.749 E34.48429 F900.000
G1 X92.003 Y119.809 E37.93839
G1 X82.447 Y119.809 E38.40952
G1 X82.447 Y40.190 E42.33490
G1 X140.111 Y40.190 E45.17785
G1 X140.111 Y74.778 E46.88311
G1 X132.500 Y74.778 E47.25835
G1 X132.500 Y49.802 E48.48974
G1 X132.500 Y49.399 F5400.000
G1 F1800.000 E47.48974
G92 E0
G1 X138.922 Y41.380 F5400.000
G1 E1.00000 F1800.000
G1 X138.922 Y73.609 E2.58899 F1800.000
G1 X138.483 Y73.609 E2.61062
G1 X138.483 Y41.380 E4.19961
G1 X138.044 Y41.380 E4.22124
G1 X138.044 Y73.609 E5.81023
G1 X137.605 Y73.609 E5.83187
G1 X137.605 Y41.380 E7.42086
G1 X137.166 Y41.380 E7.44249
G1 X137.166 Y73.609 E9.03148
G1 X136.728 Y73.609 E9.05311
G1 X136.728 Y41.380 E10.64210
G1 X136.289 Y41.380 E10.66373
G1 X136.289 Y73.609 E12.25272
G1 X135.850 Y73.609 E12.27435
G1 X135.850 Y41.380 E13.86334
G1 X135.411 Y41.380 E13.88498
G1 X135.411 Y73.609 E15.47397
G1 X134.973 Y73.609 E15.49560
G1 X134.973 Y41.380 E17.08459
G1 X134.534 Y41.380 E17.10622
G1 X134.534 Y73.609 E18.69521
G1 X134.095 Y73.609 E18.71684
G1 X134.095 Y41.380 E20.30583
G1 X133.656 Y41.380 E20.32747
G1 X133.656 Y48.580 E20.68247
G1 X133.218 Y48.580 E20.70411
G1 X133.218 Y41.380 E21.05912
G1 X132.779 Y41.380 E21.08075
G1 X132.779 Y48.580 E21.43576
G1 X132.340 Y48.580 E21.45739
G1 X132.340 Y41.380 E21.81240
G1 X131.901 Y41.380 E21.83403
G1 X131.901 Y48.580 E22.18904
G1 X131.462 Y48.580 E22.21067
G1 X131.462 Y41.380 E22.56568
G1 X131.024 Y41.380 E22.58732
G1 X131.024 Y48.580 E22.94232
G1 X130.585 Y48.580 E22.96396
G1 X130.585 Y41.380 E23.31897
G1 X130.146 Y41.380 E23.34060
G1 X130.146 Y48.580 E23.69561
G1 X129.707 Y48.580 E23.71724
G1 X129.707 Y41.380 E24.07225
G1 X129.269 Y41.380 E24.09388
G1 X129.269 Y48.580 E24.44889
G1 X128.830 Y48.580 E24.47052
G1 X128.830 Y41.380 E24.82553
G1 X128.391 Y41.380 E24.84717
G1 X128.391 Y48.580 E25.20217
G1 X127.952 Y48.580 E25.22381
G1 X127.952 Y41.380 E25.57882
G1 X127.513 Y41.380 E25.60045
G1 X127.513 Y48.580 E25.95546
G1 X127.075 Y48.580 E25.97709
G1 X127.075 Y41.380 E26.33210
G1 X126.636 Y41.380 E26.35373
G1 X126.636 Y48.580 E26.70874
G1 X126.197 Y48.580 E26.73037
G1 X126.197 Y41.380 E27.08538
G1 X125.758 Y41.380 E27.10702
G1 X125.758 Y48.580 E27.46202
G1 X125.320 Y48.580 E27.48366
G1 X125.320 Y41.380 E27.83867
G1 X124.881 Y41.380 E27.86030
G1 X124.881 Y48.580 E28.21531
G1 X124.442 Y48.580 E28.23694
G1 X124.442 Y41.380 E28.59195
G1 X124.003 Y41.380 E28.61358
G1 X124.003 Y48.580 E28.96859
G1 X123.564 Y48.580 E28.99022
G1 X123.564 Y41.380 E29.34523
G1 X123.126 Y41.380 E29.36687
G1 X123.126 Y48.580 E29.72187
G1 X122.687 Y48.580 E29.74351
G1 X122.687 Y41.380 E30.09852
G1 X122.248 Y41.380 E30.12015
G1 X122.248 Y48.580 E30.47516
G1 X121.809 Y48.580 E30.49679
G1 X121.809 Y41.380 E30.85180
G1 X121.371 Y41.380 E30.87343
G1 X121.371 Y48.580 E31.22844
G1 X120.932 Y48.580 E31.25007
G1 X120.932 Y41.380 E31.60508
G1 X120.493 Y41.380 E31.62672
G1 X120.493 Y48.580 E31.98173
G1 X120.054 Y48.580 E32.00336
G1 X120.054 Y41.380 E32.35837
G1 X119.615 Y41.380 E32.38000
G1 X119.615 Y48.580 E32.73501
G1 X119.177 Y48.580 E32.75664
G1 X119.177 Y41.380 E33.11165
G1 X118.738 Y41.380 E33.13328
G1 X118.738 Y48.580 E33.48829
G1 X118.299 Y48.580 E33.50992
G1 X118.299 Y41.380 E33.86493
G1 X117.860 Y41.380 E33.88657
G1 X117.860 Y48.580 E34.24158
G1 X117.422 Y48.580 E34.26321
G1 X117.422 Y41.380 E34.61822
G1 X116.983 Y41.380 E34.63985
G1 X116.983 Y48.580 E34.99486
G1 X116.544 Y48.580 E35.01649
G1 X116.544 Y41.380 E35.37150
G1 X116.105 Y41.380 E35.39313
G1 X116.105 Y48.580 E35.74814
G1 X115.666 Y48.580 E35.76977
G1 X115.666 Y41.380 E36.12478
G1 X115.228 Y41.380 E36.14642
G1 X115.228 Y48.580 E36.50143
G1 X114.789 Y48.580 E36.52306
G1 X114.789 Y41.380 E36.87807
G1 X114.350 Y41.380 E36.89970
G1 X114.350 Y48.580 E37.25471
G1 X113.911 Y48.580 E37.27634
G1 X113.911 Y41.380 E37.63135
G1 X113.473 Y41.380 E37.65298
G1 X113.473 Y48.580 E38.00799
G1 X113.034 Y48.580 E38.02962
G1 X113.034 Y41.380 E38.38463
G1 X112.595 Y41.380 E38.40627
G1 X112.595 Y48.580 E38.76128
G1 X112.156 Y48.580 E38.78291
G1 X112.156 Y41.380 E39.13792
G1 X111.718 Y41.380 E39.15955
G1 X111.718 Y48.580 E39.51456
G1 X111.279 Y48.580 E39.53619
G1 X111.279 Y41.380 E39.89120
G1 X110.840 Y41.380 E39.91283
G1 X110.840 Y48.580 E40.26784
G1 X110.401 Y48.580 E40.28947
G1 X110.401 Y41.380 E40.64448
G1 X109.962 Y41.380 E40.66612
G1 X109.962 Y48.580 E41.02113
G1 X109.524 Y48.580 E41.04276
G1 X109.524 Y41.380 E41.39777
G1 X109.085 Y41.380 E41.41940
G1 X109.085 Y48.580 E41.77441
G1 X108.646 Y48.580 E41.79604
G1 X108.646 Y41.380 E42.15105
G1 X108.207 Y41.380 E42.17268
G1 X108.207 Y48.580 E42.52769
G1 X107.769 Y48.580 E42.54932
G1 X107.769 Y41.380 E42.90433
G1 X107.330 Y41.380 E42.92597
G1 X107.330 Y48.580 E43.28098
G1 X106.891 Y48.580 E43.30261
G1 X106.891 Y41.380 E43.65762
G1 X106.452 Y41.380 E43.67925
G1 X106.452 Y48.580 E44.03426
G1 X106.013 Y48.580 E44.05589
G1 X106.013 Y41.380 E44.41090
G1 X105.575 Y41.380 E44.43253
G1 X105.575 Y48.580 E44.78754
G1 X105.136 Y48.580 E44.80917
G1 X105.136 Y41.380 E45.16418
G1 X104.697 Y41.380 E45.18582
G1 X104.697 Y48.580 E45.54083
G1 X104.258 Y48.580 E45.56246
G1 X104.258 Y41.380 E45.91747
G1 X103.820 Y41.380 E45.93910
G1 X103.820 Y48.580 E46.29411
G1 X103.381 Y48.580 E46.31574
G1 X103.381 Y41.380 E46.67075
G1 X102.942 Y41.380 E46.69238
G1 X102.942 Y48.580 E47.04739
G1 X102.503 Y48.580 E47.06902
G1 X102.503 Y41.380 E47.42403
G1 X102.064 Y41.380 E47.44567
G1 X102.064 Y48.580 E47.80068
G1 X101.626 Y48.580 E47.82231
G1 X101.626 Y41.380 E48.17732
G1 X101.187 Y41.380 E48.19895
G1 X101.187 Y48.580 E48.55396
G1 X100.748 Y48.580 E48.57559
G1 X100.748 Y41.380 E48.93060
G1 X100.309 Y41.380 E48.95223
G1 X100.309 Y48.580 E49.30724
G1 X99.871 Y48.580 E49.32887
G1 X99.871 Y41.380 E49.68388
G1 X99.432 Y41.380 E49.70552
G1 X99.432 Y48.580 E50.06053
G1 X98.993 Y48.580 E50.08216
G1 X98.993 Y41.380 E50.43717
G1 X98.554 Y41.380 E50.45880
G1 X98.554 Y48.580 E50.81381
G1 X98.115 Y48.580 E50.83544
G1 X98.115 Y41.380 E51.19045
G1 X97.677 Y41.380 E51.21208
G1 X97.677 Y48.580 E51.56709
G1 X97.238 Y48.580 E51.58872
G1 X97.238 Y41.380 E51.94373
G1 X96.799 Y41.380 E51.96537
G1 X96.799 Y48.580 E52.32038
G1 X96.360 Y48.580 E52.34201
G1 X96.360 Y41.380 E52.69702
G1 X95.922 Y41.380 E52.71865
G1 X95.922 Y48.580 E53.07366
G1 X95.483 Y48.580 E53.09529
G1 X95.483 Y41.380 E53.45030
G1 X95.044 Y41.380 E53.47193
G1 X95.044 Y48.580 E53.82694
G1 X94.605 Y48.580 E53.84857
G1 X94.605 Y41.380 E54.20358
G1 X94.166 Y41.380 E54.22522
G1 X94.166 Y48.580 E54.58023
G1 X93.728 Y48.580 E54.60186
G1 X93.728 Y41.380 E54.95687
G1 X93.289 Y41.380 E54.97850
G1 X93.289 Y48.580 E55.33351
G1 X92.850 Y48.580 E55.35514
G1 X92.850 Y41.380 E55.71015
G1 X92.411 Y41.380 E55.73178
G1 X92.411 Y48.580 E56.08679
G1 X91.973 Y48.580 E56.10843
G1 X91.973 Y41.380 E56.46343
G1 X91.534 Y41.380 E56.48507
G1 X91.534 Y48.580 E56.84008
G1 X91.095 Y48.580 E56.86171
G1 X91.095 Y41.380 E57.21672
G1 X90.656 Y41.380 E57.23835
G1 X90.656 Y118.620 E61.04647
G1 X90.218 Y118.620 E61.06811
G1 X90.218 Y41.380 E64.87623
G1 X89.779 Y41.380 E64.89786
G1 X89.779 Y118.620 E68.70598
G1 X89.340 Y118.620 E68.72762
G1 X89.340 Y41.380 E72.53574
G1 X88.901 Y41.380 E72.55737
G1 X88.901 Y118.620 E76.36550
G1 X88.462 Y118.620 E76.38713
G1 X88.462 Y41.380 E80.19525
G1 X88.024 Y41.380 E80.21688
G1 X88.024 Y118.620 E84.02501
G1 X87.585 Y118.620 E84.04664
G1 X87.585 Y41.380 E87.85476
G1 X87.146 Y41.380 E87.87640
G1 X87.146 Y118.620 E91.68452
G1 X86.707 Y118.620 E91.70615
G1 X86.707 Y41.380 E95.51428
G1 X86.269 Y41.380 E95.53591
G1 X86.269 Y118.620 E99.34403
G1 X85.830 Y118.620 E99.36566
G1 X85.830 Y41.380 E103.17379
G1 X85.391 Y41.380 E103.19542
G1 X85.391 Y118.620 E107.00354
G1 X84.952 Y118.620 E107.02518
G1 X84.952 Y41.380 E110.83330
G1 X84.513 Y41.380 E110.85493
G1 X84.513 Y118.620 E114.66305
G1 X84.075 Y118.620 E114.68469
G1 X84.075 Y41.380 E118.49281
G1 X83.636 Y41.380 E118.51444
G1 X83.636 Y118.620 E122.32257
G1 F1800.000 E121.32257
G92 E0
G1 X70.815 Y48.877 F5400.000
G1 E1.00000 F1800.000
G1 X28.572 Y48.877 E3.08264 F900.000
G1 X28.572 Y118.937 E6.53674
G1 X20.762 Y118.937 E6.92181
G1 X20.762 Y41.063 E10.76113
G1 X76.680 Y41.063 E13.51802
G1 X76.680 Y73.906 E15.13722
G1 X70.815 Y73.906 E15.42640
G1 X70.815 Y48.929 E16.65779
G1 X70.379 Y49.313 F5400.000
G1 X29.009 Y49.313 E18.69741 F900.000
G1 X29.009 Y119.373 E22.15151
G1 X20.326 Y119.373 E22.57961
G1 X20.326 Y40.627 E26.46196
G1 X77.117 Y40.627 E29.26188
G1 X77.117 Y74.342 E30.92411
G1 X70.379 Y74.342 E31.25631
G1 X70.379 Y49.366 E32.48771
G1 X69.942 Y49.749 F5400.000
G1 X29.445 Y49.749 E34.48429 F900.000
G1 X29.445 Y119.809 E37.93839
G1 X19.889 Y119.809 E38.40952
G1 X19.889 Y40.190 E42.33490
G1 X77.553 Y40.190 E45.17785
G1 X77.553 Y74.778 E46.88311
G1 X69.942 Y74.778 E47.25835
G1 X69.942 Y49.802 E48.48974
G1 X69.942 Y49.399 F5400.000
G1 F1800.000 E47.48974
G92 E0
G1 X76.364 Y41.380 F5400.000
G1 E1.00000 F1800.000
G1 X76.364 Y73.609 E2.58899 F1800.000
G1 X75.925 Y73.609 E2.61062
G1 X75.925 Y41.380 E4.19961
G1 X75.487 Y41.380 E4.22124
G1 X75.487 Y73.609 E5.81023
G1 X75.048 Y73.609 E5.83187
G1 X75.048 Y41.380 E7.42086
G1 X74.609 Y41.380 E7.44249
G1 X74.609 Y73.609 E9.03148
G1 X74.170 Y73.609 E9.05311
G1 X74.170 Y41.380 E10.64210
G1 X73.731 Y41.380 E10.66373
G1 X73.731 Y73.609 E12.25272
G1 X73.293 Y73.609 E12.27435
G1 X73.293 Y41.380 E13.86334
G1 X72.854 Y41.380 E13.88498
G1 X72.854 Y73.609 E15.47397
G1 X72.415 Y73.609 E15.49560
G1 X72.415 Y41.380 E17.08459
G1 X71.976 Y41.380 E17.10622
G1 X71.976 Y73.609 E18.69521
G1 X71.538 Y73.609 E18.71684
G1 X71.538 Y41.380 E20.30583
G1 X71.099 Y41.380 E20.32747
G1 X71.099 Y48.580 E20.68247
G1 X70.660 Y48.580 E20.70411
G1 X70.660 Y41.380 E21.05912
G1 X70.221 Y41.380 E21.08075
G1 X70.221 Y48.580 E21.43576
G1 X69.782 Y48.580 E21.45739
G1 X69.782 Y41.380 E21.81240
G1 X69.344 Y41.380 E21.83403
G1 X69.344 Y48.580 E22.18904
G1 X68.905 Y48.580 E22.21067
G1 X68.905 Y41.380 E22.56568
G1 X68.466 Y41.380 E22.58732
G1 X68.466 Y48.580 E22.94232
G1 X68.027 Y48.580 E22.96396
G1 X68.027 Y41.380 E23.31897
G1 X67.589 Y41.380 E23.34060
G1 X67.589 Y48.580 E23.69561
G1 X67.150 Y48.580 E23.71724
G1 X67.150 Y41.380 E24.07225
G1 X66.711 Y41.380 E24.09388
G1 X66.711 Y48.580 E24.44889
G1 X66.272 Y48.580 E24.47052
G1 X66.272 Y41.380 E24.82553
G1 X65.834 Y41.380 E24.84717
G1 X65.834 Y48.580 E25.20217
G1 X65.395 Y48.580 E25.22381
G1 X65.395 Y41.380 E25.57882
G1 X64.956 Y41.380 E25.60045
G1 X64.956 Y48.580 E25.95546
G1 X64.517 Y48.580 E25.97709
G1 X64.517 Y41.380 E26.33210
G1 X64.078 Y41.380 E26.35373
G1 X64.078 Y48.580 E26.70874
G1 X63.640 Y48.580 E26.73037
G1 X63.640 Y41.380 E27.08538
G1 X63.201 Y41.380 E27.10702
G1 X63.201 Y48.580 E27.46202
G1 X62.762 Y48.580 E27.48366
G1 X62.762 Y41.380 E27.83867
G1 X62.323 Y41.380 E27.86030
G1 X62.323 Y48.580 E28.21531
G1 X61.885 Y48.580 E28.23694
G1 X61.885 Y41.380 E28.59195
G1 X61.446 Y41.380 E28.61358
G1 X61.446 Y48.580 E28.96859
G1 X61.007 Y48.580 E28.99022
G1 X61.007 Y41.380 E29.34523
G1 X60.568 Y41.380 E29.36687
G1 X60.568 Y48.580 E29.72187
G1 X60.129 Y48.580 E29.74351
G1 X60.129 Y41.380 E30.09852
G1 X59.691 Y41.380 E30.12015
G1 X59.691 Y48.580 E30.47516
G1 X59.252 Y48.580 E30.49679
G1 X59.252 Y41.380 E30.85180
G1 X58.813 Y41.380 E30.87343
G1 X58.813 Y48.580 E31.22844
G1 X58.374 Y48.580 E31.25007
G1 X58.374 Y41.380 E31.60508
G1 X57.936 Y41.380 E31.62672
G1 X57.936 Y48.580 E31.98173
G1 X57.497 Y48.580 E32.00336
G1 X57.497 Y41.380 E32.35837
G1 X57.058 Y41.380 E32.38000
G1 X57.058 Y48.580 E32.73501
G1 X56.619 Y48.580 E32.75664
G1 X56.619 Y41.380 E33.11165
G1 X56.180 Y41.380 E33.13328
G1 X56.180 Y48.580 E33.48829
G1 X55.742 Y48.580 E33.50992
G1 X55.742 Y41.380 E33.86493
G1 X55.303 Y41.380 E33.88657
G1 X55.303 Y48.580 E34.24158
G1 X54.864 Y48.580 E34.26321
G1 X54.864 Y41.380 E34.61822
G1 X54.425 Y41.380 E34.63985
G1 X54.425 Y48.580 E34.99486
G1 X53.987 Y48.580 E35.01649
G1 X53.987 Y41.380 E35.37150
G1 X53.548 Y41.380 E35.39313
G1 X53.548 Y48.580 E35.74814
G1 X53.109 Y48.580 E35.76977
G1 X53.109 Y41.380 E36.12478
G1 X52.670 Y41.380 E36.14642
G1 X52.670 Y48.580 E36.50143
G1 X52.231 Y48.580 E36.52306
G1 X52.231 Y41.380 E36.87807
G1 X51.793 Y41.380 E36.89970
G1 X51.793 Y48.580 E37.25471
G1 X51.354 Y48.580 E37.27634
G1 X51.354 Y41.380 E37.63135
G1 X50.915 Y41.380 E37.65298
G1 X50.915 Y48.580 E38.00799
G1 X50.476 Y48.580 E38.02962
G1 X50.476 Y41.380 E38.38463
G1 X50.038 Y41.380 E38.40627
G1 X50.038 Y48.580 E38.76128
G1 X49.599 Y48.580 E38.78291
G1 X49.599 Y41.380 E39.13792
G1 X49.160 Y41.380 E39.15955
G1 X49.160 Y48.580 E39.51456
G1 X48.721 Y48.580 E39.53619
G1 X48.721 Y41.380 E39.89120
G1 X48.282 Y41.380 E39.91283
G1 X48.282 Y48.580 E40.26784
G1 X47.844 Y48.580 E40.28947
G1 X47.844 Y41.380 E40.64448
G1 X47.405 Y41.380 E40.66612
G1 X47.405 Y48.580 E41.02113
G1 X46.966 Y48.580 E41.04276
G1 X46.966 Y41.380 E41.39777
G1 X46.527 Y41.380 E41.41940
G1 X46.527 Y48.580 E41.77441
G1 X46.089 Y48.580 E41.79604
G1 X46.089 Y41.380 E42.15105
G1 X45.650 Y41.380 E42.17268
