; generated by Slic3r 1.1.7 on 2014-10-25 at 16:31:54

; perimeters extrusion width = 0.35mm
; infill extrusion width = 0.44mm
; solid infill extrusion width = 0.44mm
; top infill extrusion width = 0.44mm

G21 ; set units to millimeters
M190 S60 ; wait for bed temperature to be reached
M104 S185 ; set temperature
G28 ; home all axes
M109 S185 ; wait for temperature to be reached
G90 ; use absolute coordinates
G92 E0
M82 ; use absolute distances for extrusion
G1 F1800.000 E-1.00000
G92 E0
G1 Z0.230 F7800.000
G1 X37.052 Y32.720 F7800.000
G1 E1.00000 F1800.000
G1 X39.426 Y31.445 E1.13283 F1080.000
G1 X71.926 Y24.419 E2.77216
G1 X72.955 Y24.309 E2.82321
G1 X121.455 Y24.309 E5.21436
G1 X123.379 Y24.705 E5.31120
G1 X124.990 Y25.828 E5.40804 F1080.000
G1 X126.064 Y27.601 E5.51021
G1 X149.609 Y96.237 E9.08768
G1 X149.873 Y97.818 E9.16671
G1 X149.873 Y118.818 E10.20205
G1 X149.477 Y120.742 E10.29889
G1 X148.354 Y122.353 E10.39573
G1 X147.071 Y123.229 E10.47229
G1 X121.515 Y135.229 E11.86425
G1 X119.444 Y135.691 E11.96887
G1 X40.556 Y135.691 E15.85818
G1 X38.485 Y135.229 E15.96279
G1 X12.929 Y123.229 E17.35476
G1 X11.356 Y122.053 E17.45160
G1 X10.375 Y120.351 E17.54844
G1 X10.127 Y118.818 E17.62500
G1 X10.127 Y97.818 E18.66034
G1 X10.496 Y95.957 E18.75387
G1 X35.952 Y34.347 E22.04042
G1 X37.023 Y32.764 E22.13467
G1 X37.419 Y32.974 F7800.000
G1 X39.518 Y31.872 E22.25154 F1080.000
G1 X72.018 Y24.846 E23.89087
G1 X72.955 Y24.746 E23.93735
G1 X121.455 Y24.746 E26.32850
G1 X123.286 Y25.141 E26.42086
G1 X124.791 Y26.257 E26.51321 F1080.000
G1 X125.652 Y27.742 E26.59786
G1 X149.196 Y96.379 E30.17532
G1 X149.436 Y97.818 E30.24727
G1 X149.436 Y118.818 E31.28261
G1 X149.041 Y120.649 E31.37497
G1 X147.925 Y122.154 E31.46732
G1 X146.886 Y122.834 E31.52856
G1 X121.329 Y134.834 E32.92053
G1 X119.444 Y135.254 E33.01578
G1 X40.556 Y135.254 E36.90508
G1 X38.671 Y134.834 E37.00033
G1 X13.114 Y122.834 E38.39230
G1 X11.625 Y121.698 E38.48465
G1 X10.737 Y120.048 E38.57701
G1 X10.564 Y118.818 E38.63825
G1 X10.564 Y97.818 E39.67359
G1 X10.900 Y96.124 E39.75874
G1 X36.355 Y34.514 E43.04529
G1 X37.389 Y33.017 E43.13500
G1 F1800.000 E42.13500
G92 E0
G1 X63.837 Y103.921 F7800.000
G1 E1.00000 F1800.000
G1 X61.852 Y103.642 E1.09882 F540.000
G1 X61.852 Y60.105 E3.24527
G1 X74.058 Y60.105 E3.84703
G1 X74.058 Y68.239 E4.24805
G1 X63.852 Y103.870 E6.07538
G1 X63.522 Y103.436 F7800.000
G1 X62.289 Y103.263 E6.13679 F540.000
G1 X62.289 Y60.542 E8.24302
G1 X73.622 Y60.542 E8.80175
G1 X73.622 Y68.178 E9.17824
G1 X63.537 Y103.385 E10.98384
G1 X63.207 Y102.951 F7800.000
G1 X62.725 Y102.883 E11.00783 F540.000
G1 X62.725 Y60.978 E13.07385
G1 X73.185 Y60.978 E13.58955
G1 X73.185 Y68.117 E13.94150
G1 X63.222 Y102.900 E15.72537
G1 X63.142 Y103.295 F7800.000
G1 F1800.000 E14.72537
G92 E0
G1 X59.058 Y104.811 F7800.000
G1 E1.00000 F1800.000
G1 X59.058 Y40.105 E4.19012 F540.000
G1 X44.352 Y40.105 E4.91513
G1 X44.352 Y45.105 E5.16164
G1 X41.558 Y45.105 E5.29941
G1 X41.558 Y37.311 E5.68369
G1 X61.852 Y37.311 E6.68425
G1 X61.852 Y57.311 E7.67029
G1 X67.999 Y57.311 E7.97331
G1 X68.910 Y57.239 E8.01840
G1 X69.842 Y57.015 E8.06564
G1 X70.727 Y56.649 E8.11288
G1 X71.544 Y56.148 E8.16012
G1 X72.273 Y55.526 E8.20736
G1 X72.895 Y54.797 E8.25460
G1 X73.396 Y53.980 E8.30184
G1 X74.378 Y51.609 E8.42837
G1 X74.030 Y51.609 E8.44554
G1 X74.058 Y51.251 E8.46323
G1 X74.058 Y30.285 E9.49692
G1 X76.852 Y30.285 E9.63469
G1 X76.852 Y68.631 E11.52527
G1 X65.689 Y107.605 E13.52402
G1 X41.558 Y107.605 E14.71371
G1 X41.558 Y99.811 E15.09799
G1 X44.352 Y99.811 E15.23577
G1 X44.352 Y104.811 E15.48228
G1 X59.006 Y104.811 E16.20470
G1 X58.622 Y104.374 F7800.000
G1 X58.622 Y40.542 E19.35179 F540.000
G1 X44.789 Y40.542 E20.03377
G1 X44.789 Y45.542 E20.28028
G1 X41.122 Y45.542 E20.46108
G1 X41.122 Y36.874 E20.88839
G1 X62.289 Y36.874 E21.93198
G1 X62.289 Y56.874 E22.91802
G1 X67.981 Y56.874 E23.19868
G1 X68.842 Y56.807 E23.24124
G1 X69.707 Y56.599 E23.28509
G1 X70.529 Y56.259 E23.32894
G1 X71.287 Y55.794 E23.37280
G1 X71.963 Y55.216 E23.41665
G1 X72.541 Y54.540 E23.46050
G1 X73.006 Y53.781 E23.50436
G1 X73.725 Y52.045 E23.59699
G1 X73.558 Y52.045 E23.60523
G1 X73.622 Y51.234 E23.64536
G1 X73.622 Y29.848 E24.69972
G1 X77.289 Y29.848 E24.88052
G1 X77.289 Y68.693 E26.79563
G1 X66.018 Y108.042 E28.81362
G1 X41.122 Y108.042 E30.04105
G1 X41.122 Y99.374 E30.46836
G1 X44.789 Y99.374 E30.64916
G1 X44.789 Y104.374 E30.89567
G1 X58.569 Y104.374 E31.57506
G1 X58.185 Y103.938 F7800.000
G1 X58.185 Y40.978 E34.67912 F540.000
G1 X45.225 Y40.978 E35.31807
G1 X45.225 Y45.978 E35.56458
G1 X40.685 Y45.978 E35.78842
G1 X40.685 Y36.438 E36.25876
G1 X62.725 Y36.438 E37.34537
G1 X62.725 Y56.438 E38.33141
G1 X67.964 Y56.438 E38.58971
G1 X68.773 Y56.374 E38.62973
G1 X69.572 Y56.183 E38.67020
G1 X70.330 Y55.869 E38.71066
G1 X71.030 Y55.440 E38.75113
G1 X71.654 Y54.907 E38.79160
G1 X72.187 Y54.282 E38.83206
G1 X72.616 Y53.583 E38.87253
G1 X73.072 Y52.482 E38.93127
G1 X73.012 Y52.482 E38.93421
G1 X73.122 Y52.026 E38.95732
G1 X73.185 Y51.217 E38.99734
G1 X73.185 Y29.412 E40.07237
G1 X77.725 Y29.412 E40.29620
G1 X77.725 Y68.754 E42.23584
G1 X66.347 Y108.478 E44.27307
G1 X40.685 Y108.478 E45.53823
G1 X40.685 Y98.938 E46.00857
G1 X45.225 Y98.938 E46.23240
G1 X45.225 Y103.938 E46.47892
G1 X58.133 Y103.938 E47.11528
G1 X58.535 Y103.938 F7800.000
G1 X58.986 Y105.107 F7800.000
G1 X58.986 Y107.289 E47.22284 F1080.000
G1 X58.547 Y107.289 E47.24448
G1 X58.547 Y105.107 E47.35204
G1 X58.108 Y105.107 E47.37367
G1 X58.108 Y107.289 E47.48123
G1 X57.670 Y107.289 E47.50286
G1 X57.670 Y105.107 E47.61042
G1 X57.231 Y105.107 E47.63206
G1 X57.231 Y107.289 E47.73962
G1 X56.792 Y107.289 E47.76125
G1 X56.792 Y105.107 E47.86881
G1 X56.353 Y105.107 E47.89044
G1 X56.353 Y107.289 E47.99801
G1 X55.915 Y107.289 E48.01964
G1 X55.915 Y105.107 E48.12720
G1 X55.476 Y105.107 E48.14883
G1 X55.476 Y107.289 E48.25639
G1 X55.037 Y107.289 E48.27803
G1 X55.037 Y105.107 E48.38559
G1 X54.598 Y105.107 E48.40722
G1 X54.598 Y107.289 E48.51478
G1 X54.160 Y107.289 E48.53641
G1 X54.160 Y105.107 E48.64398
G1 X53.721 Y105.107 E48.66561
G1 X53.721 Y107.289 E48.77317
G1 X53.282 Y107.289 E48.79480
G1 X53.282 Y105.107 E48.90236
G1 X52.843 Y105.107 E48.92399
G1 X52.843 Y107.289 E49.03156
G1 X52.405 Y107.289 E49.05319
G1 X52.405 Y105.107 E49.16075
G1 X51.966 Y105.107 E49.18238
G1 X51.966 Y107.289 E49.28994
G1 X51.527 Y107.289 E49.31158
G1 X51.527 Y105.107 E49.41914
G1 X51.088 Y105.107 E49.44077
G1 X51.088 Y107.289 E49.54833
G1 X50.649 Y107.289 E49.56996
G1 X50.649 Y105.107 E49.67753
G1 X50.211 Y105.107 E49.69916
G1 X50.211 Y107.289 E49.80672
G1 X49.772 Y107.289 E49.82835
G1 X49.772 Y105.107 E49.93591
G1 X49.333 Y105.107 E49.95755
G1 X49.333 Y107.289 E50.06511
G1 X48.894 Y107.289 E50.08674
G1 X48.894 Y105.107 E50.19430
G1 X48.456 Y105.107 E50.21593
G1 X48.456 Y107.289 E50.32350
G1 X48.017 Y107.289 E50.34513
G1 X48.017 Y105.107 E50.45269
G1 X47.578 Y105.107 E50.47432
G1 X47.578 Y107.289 E50.58188
G1 X47.139 Y107.289 E50.60351
G1 X47.139 Y105.107 E50.71108
G1 X46.701 Y105.107 E50.73271
G1 X46.701 Y107.289 E50.84027
G1 X46.262 Y107.289 E50.86190
G1 X46.262 Y105.107 E50.96946
G1 X45.823 Y105.107 E50.99110
G1 X45.823 Y107.289 E51.09866
G1 X45.384 Y107.289 E51.12029
G1 X45.384 Y105.107 E51.22785
G1 X44.946 Y105.107 E51.24948
G1 X44.946 Y107.289 E51.35705
G1 X44.507 Y107.289 E51.37868
G1 X44.507 Y105.107 E51.48624
G1 X44.068 Y105.107 E51.50787
G1 X44.068 Y107.289 E51.61543
G1 X43.629 Y107.289 E51.63707
G1 X43.629 Y100.107 E51.99114
G1 X43.191 Y100.107 E52.01277
G1 X43.191 Y107.289 E52.36684
G1 X42.752 Y107.289 E52.38847
G1 X42.752 Y100.107 E52.74255
G1 X42.313 Y100.107 E52.76418
G1 X42.313 Y107.289 E53.11825
G1 X41.874 Y107.289 E53.13988
G1 X41.874 Y100.107 E53.49396
G1 F1800.000 E52.49396
G92 E0
G1 X64.251 Y103.553 F7800.000
G1 E1.00000 F1800.000
G1 X64.251 Y107.289 E1.18419 F1080.000
G1 X63.812 Y107.289 E1.20582
G1 X63.812 Y104.216 E1.35730
G1 X63.373 Y104.155 E1.37914
G1 X63.373 Y107.289 E1.53365
G1 X62.935 Y107.289 E1.55528
G1 X62.935 Y104.093 E1.71283
G1 X62.496 Y104.032 E1.73468
G1 X62.496 Y107.289 E1.89526
G1 X62.057 Y107.289 E1.91690
G1 X62.057 Y103.970 E2.08052
G1 X61.618 Y103.908 E2.10236
G1 X61.618 Y107.289 E2.26902
G1 X61.180 Y107.289 E2.29065
G1 X61.180 Y37.607 E5.72610
G1 X60.741 Y37.607 E5.74774
G1 X60.741 Y107.289 E9.18318
G1 X60.302 Y107.289 E9.20482
G1 X60.302 Y37.607 E12.64026
G1 X59.863 Y37.607 E12.66190
G1 X59.863 Y107.289 E16.09735
G1 X59.425 Y107.289 E16.11898
G1 X59.425 Y37.607 E19.55443
G1 X58.986 Y37.607 E19.57606
G1 X58.986 Y39.809 E19.68461
G1 X58.547 Y39.809 E19.70624
G1 X58.547 Y37.607 E19.81479
G1 X58.108 Y37.607 E19.83642
G1 X58.108 Y39.809 E19.94497
G1 X57.670 Y39.809 E19.96660
G1 X57.670 Y37.607 E20.07515
G1 X57.231 Y37.607 E20.09678
G1 X57.231 Y39.809 E20.20533
G1 X56.792 Y39.809 E20.22696
G1 X56.792 Y37.607 E20.33551
G1 X56.353 Y37.607 E20.35714
G1 X56.353 Y39.809 E20.46569
G1 X55.915 Y39.809 E20.48732
G1 X55.915 Y37.607 E20.59587
G1 X55.476 Y37.607 E20.61750
G1 X55.476 Y39.809 E20.72604
G1 X55.037 Y39.809 E20.74768
G1 X55.037 Y37.607 E20.85622
G1 X54.598 Y37.607 E20.87786
G1 X54.598 Y39.809 E20.98640
G1 X54.160 Y39.809 E21.00804
G1 X54.160 Y37.607 E21.11658
G1 X53.721 Y37.607 E21.13822
G1 X53.721 Y39.809 E21.24676
G1 X53.282 Y39.809 E21.26840
G1 X53.282 Y37.607 E21.37694
G1 X52.843 Y37.607 E21.39858
G1 X52.843 Y39.809 E21.50712
G1 X52.405 Y39.809 E21.52876
G1 X52.405 Y37.607 E21.63730
G1 X51.966 Y37.607 E21.65894
G1 X51.966 Y39.809 E21.76748
G1 X51.527 Y39.809 E21.78912
G1 X51.527 Y37.607 E21.89766
G1 X51.088 Y37.607 E21.91930
G1 X51.088 Y39.809 E22.02784
G1 X50.649 Y39.809 E22.04948
G1 X50.649 Y37.607 E22.15802
G1 X50.211 Y37.607 E22.17966
G1 X50.211 Y39.809 E22.28820
G1 X49.772 Y39.809 E22.30983
G1 X49.772 Y37.607 E22.41838
G1 X49.333 Y37.607 E22.44001
G1 X49.333 Y39.809 E22.54856
G1 X48.894 Y39.809 E22.57019
G1 X48.894 Y37.607 E22.67874
G1 X48.456 Y37.607 E22.70037
G1 X48.456 Y39.809 E22.80892
G1 X48.017 Y39.809 E22.83055
G1 X48.017 Y37.607 E22.93910
G1 X47.578 Y37.607 E22.96073
G1 X47.578 Y39.809 E23.06928
G1 X47.139 Y39.809 E23.09091
G1 X47.139 Y37.607 E23.19946
G1 X46.701 Y37.607 E23.22109
G1 X46.701 Y39.809 E23.32964
G1 X46.262 Y39.809 E23.35127
G1 X46.262 Y37.607 E23.45982
G1 X45.823 Y37.607 E23.48145
G1 X45.823 Y39.809 E23.59000
G1 X45.384 Y39.809 E23.61163
G1 X45.384 Y37.607 E23.72018
G1 X44.946 Y37.607 E23.74181
G1 X44.946 Y39.809 E23.85036
G1 X44.507 Y39.809 E23.87199
G1 X44.507 Y37.607 E23.98054
G1 X44.068 Y37.607 E24.00217
G1 X44.068 Y39.809 E24.11072
G1 F1800.000 E23.11072
G92 E0
G1 X43.629 Y37.607 F7800.000
G1 E1.00000 F1800.000
G1 X43.629 Y44.809 E1.35506 F1080.000
G1 X43.191 Y44.809 E1.37669
G1 X43.191 Y37.607 E1.73175
G1 X42.752 Y37.607 E1.75338
G1 X42.752 Y44.809 E2.10844
G1 X42.313 Y44.809 E2.13007
G1 X42.313 Y37.607 E2.48513
G1 X41.874 Y37.607 E2.50676
G1 X41.874 Y44.809 E2.86182
G1 F1800.000 E1.86182
G92 E0
G1 X61.618 Y57.607 F7800.000
G1 E1.00000 F1800.000
G1 X61.618 Y59.809 E1.10855 F1080.000
G1 X62.057 Y59.809 E1.13018
G1 X62.057 Y57.607 E1.23873
G1 X62.496 Y57.607 E1.26036
G1 X62.496 Y59.809 E1.36891
G1 X62.935 Y59.809 E1.39054
G1 X62.935 Y57.607 E1.49909
G1 X63.373 Y57.607 E1.52072
G1 X63.373 Y59.809 E1.62927
G1 X63.812 Y59.809 E1.65090
G1 X63.812 Y57.607 E1.75945
G1 X64.251 Y57.607 E1.78108
G1 X64.251 Y59.809 E1.88963
G1 X64.690 Y59.809 E1.91126
G1 X64.690 Y57.607 E2.01981
G1 X65.128 Y57.607 E2.04144
G1 X65.128 Y59.809 E2.14999
G1 X65.567 Y59.809 E2.17162
G1 X65.567 Y57.607 E2.28017
G1 X66.006 Y57.607 E2.30180
G1 X66.006 Y59.809 E2.41035
G1 X66.445 Y59.809 E2.43198
G1 X66.445 Y57.607 E2.54053
G1 X66.883 Y57.607 E2.56216
G1 X66.883 Y59.809 E2.67071
G1 X67.322 Y59.809 E2.69234
G1 X67.322 Y57.607 E2.80089
G1 X67.761 Y57.607 E2.82252
G1 X67.761 Y59.809 E2.93107
G1 X68.200 Y59.809 E2.95270
G1 X68.200 Y57.592 E3.06198
G1 X68.638 Y57.558 E3.08368
G1 X68.638 Y59.809 E3.19467
G1 X69.077 Y59.809 E3.21630
G1 X69.077 Y57.504 E3.32994
G1 X69.516 Y57.398 E3.35219
G1 X69.516 Y59.809 E3.47103
G1 X69.955 Y59.809 E3.49266
G1 X69.955 Y57.289 E3.61687
G1 X70.393 Y57.108 E3.64028
G1 X70.393 Y59.809 E3.77345
G1 X70.832 Y59.809 E3.79508
G1 X70.832 Y56.926 E3.93721
G1 X71.271 Y56.663 E3.96243
G1 X71.271 Y59.809 E4.11752
G1 X71.710 Y59.809 E4.13915
G1 X71.710 Y56.394 E4.30750
G1 X72.149 Y56.022 E4.33588
G1 X72.149 Y59.809 E4.52259
G1 X72.587 Y59.809 E4.54422
G1 X72.587 Y55.614 E4.75103
G1 X73.026 Y55.100 E4.78434
G1 X73.026 Y59.809 E5.01648
G1 X73.465 Y59.809 E5.03811
G1 X73.465 Y54.435 E5.30306
G1 X73.904 Y53.529 F7800.000
G1 X73.904 Y59.809 E5.61266 F1080.000
G1 X74.342 Y59.809 E5.63430
G1 X74.342 Y52.470 E5.99613
G1 F1800.000 E4.99613
G92 E0
G1 X74.342 Y68.323 F7800.000
G1 E1.00000 F1800.000
G1 X74.342 Y76.318 E1.39419 F1080.000
G1 X73.904 Y77.850 F7800.000
G1 X73.904 Y69.855 E1.78838 F1080.000
G1 X73.465 Y71.386 F7800.000
G1 X73.465 Y79.382 E2.18258 F1080.000
G1 X73.026 Y80.914 F7800.000
G1 X73.026 Y72.918 E2.57677 F1080.000
G1 X72.587 Y74.450 F7800.000
G1 X72.587 Y82.445 E2.97096 F1080.000
G1 X72.149 Y83.977 F7800.000
G1 X72.149 Y75.982 E3.36515 F1080.000
G1 X71.710 Y77.513 F7800.000
G1 X71.710 Y85.509 E3.75935 F1080.000
G1 X71.271 Y87.041 F7800.000
G1 X71.271 Y79.045 E4.15354 F1080.000
G1 X70.832 Y80.577 F7800.000
G1 X70.832 Y88.572 E4.54773 F1080.000
G1 X70.393 Y90.104 F7800.000
G1 X70.393 Y82.109 E4.94192 F1080.000
G1 X69.955 Y83.640 F7800.000
G1 X69.955 Y91.636 E5.33611 F1080.000
G1 X69.516 Y93.167 F7800.000
G1 X69.516 Y85.172 E5.73031 F1080.000
G1 X69.077 Y86.704 F7800.000
G1 X69.077 Y94.699 E6.12450 F1080.000
G1 X68.638 Y96.231 F7800.000
G1 X68.638 Y88.235 E6.51869 F1080.000
G1 X68.200 Y89.767 F7800.000
G1 X68.200 Y97.763 E6.91289 F1080.000
G1 X67.761 Y99.294 F7800.000
G1 X67.761 Y91.299 E7.30708 F1080.000
G1 X67.322 Y92.831 F7800.000
G1 X67.322 Y100.826 E7.70127 F1080.000
G1 X66.883 Y102.358 F7800.000
G1 X66.883 Y94.362 E8.09546 F1080.000
G1 X66.445 Y95.894 F7800.000
G1 X66.445 Y103.890 E8.48966 F1080.000
G1 X66.006 Y105.421 F7800.000
G1 X66.006 Y97.426 E8.88385 F1080.000
G1 X65.567 Y98.958 F7800.000
G1 X65.567 Y106.953 E9.27804 F1080.000
G1 F1800.000 E8.27804
G92 E0
G1 X64.690 Y102.021 F7800.000
G1 E1.00000 F1800.000
G1 X64.690 Y107.289 E1.25971 F1080.000
G1 X65.128 Y107.289 E1.28134
G1 X65.128 Y100.489 E1.61656
G1 F1800.000 E0.61656
G92 E0
G1 X74.781 Y74.787 F7800.000
G1 E1.00000 F1800.000
G1 X74.781 Y30.601 E3.17844 F1080.000
G1 X75.220 Y30.601 E3.20007
G1 X75.220 Y73.255 E5.30299
G1 X75.659 Y71.723 F7800.000
G1 X75.659 Y30.601 E7.33039 F1080.000
G1 X76.097 Y30.601 E7.35202
G1 X76.097 Y70.191 E9.30391
G1 X76.536 Y68.660 F7800.000
G1 X76.536 Y30.601 E11.18028 F1080.000
G1 F1800.000 E10.18028
G92 E0
G1 X105.352 Y103.642 F7800.000
G1 E1.00000 F1800.000
G1 X105.352 Y60.105 E3.14645 F540.000
G1 X117.558 Y60.105 E3.74821
G1 X117.558 Y68.239 E4.14924
G1 X107.337 Y103.921 E5.97915
G1 X105.404 Y103.649 E6.07538
G1 X105.789 Y103.263 F7800.000
G1 X105.789 Y60.542 E8.18161 F540.000
G1 X117.122 Y60.542 E8.74034
G1 X117.122 Y68.178 E9.11683
G1 X107.022 Y103.436 E10.92502
G1 X105.841 Y103.270 E10.98384
G1 X106.225 Y102.883 F7800.000
G1 X106.225 Y60.978 E13.04985 F540.000
G1 X116.685 Y60.978 E13.56555
G1 X116.685 Y68.117 E13.91750
G1 X106.707 Y102.951 E15.70397
G1 X106.277 Y102.890 E15.72537
G1 X105.876 Y102.867 F7800.000
G1 F1800.000 E14.72537
G92 E0
G1 X102.558 Y104.811 F7800.000
G1 E1.00000 F1800.000
G1 X102.558 Y40.105 E4.19012 F540.000
G1 X87.852 Y40.105 E4.91513
G1 X87.852 Y45.105 E5.16164
